; ---- START (generic Marlin; replace with your printer's) ----
G90                      ; absolute XYZ
M83                      ; relative extrusion
M104 S210      ; set hotend
M140 S60         ; set bed
M190 S60         ; wait bed
M109 S210      ; wait hotend
G28                      ; home all
G1 Z5 F600
; prime line
G1 X10.0 Y10.0 Z0.2 F9000
G1 X210.0 Y10.0 E12 F1000
G92 E0
M83
;LAYER:0
;Z:0.200
;PLY:CAP
G1 Z0.200 F600
;TYPE:WALL
G1 E-1.0000 F2400
G1 Z0.600 F600 ; Zfix hop up
G0 X142.600 Y110.000 F9000
G1 Z0.200 F600 ; Zfix hop down
G1 E1.0000 F2400
G1 X142.521 Y112.274 E0.18920 F1200
G1 X142.283 Y114.537 E0.18920 F1200
G1 X141.888 Y116.778 E0.18920 F1200
G1 X141.337 Y118.986 E0.18920 F1200
G1 X140.634 Y121.150 E0.18920 F1200
G1 X139.782 Y123.260 E0.18920 F1200
G1 X138.784 Y125.305 E0.18920 F1200
G1 X137.646 Y127.275 E0.18920 F1200
G1 X136.374 Y129.162 E0.18920 F1200
G1 X134.973 Y130.955 E0.18920 F1200
G1 X133.450 Y132.646 E0.18920 F1200
G1 X131.814 Y134.227 E0.18920 F1200
G1 X130.071 Y135.689 E0.18920 F1200
G1 X128.230 Y137.027 E0.18920 F1200
G1 X126.300 Y138.232 E0.18920 F1200
G1 X124.291 Y139.301 E0.18920 F1200
G1 X122.212 Y140.226 E0.18920 F1200
G1 X120.074 Y141.004 E0.18920 F1200
G1 X117.887 Y141.632 E0.18920 F1200
G1 X115.661 Y142.105 E0.18920 F1200
G1 X113.408 Y142.421 E0.18920 F1200
G1 X111.138 Y142.580 E0.18920 F1200
G1 X108.862 Y142.580 E0.18920 F1200
G1 X106.592 Y142.421 E0.18920 F1200
G1 X104.339 Y142.105 E0.18920 F1200
G1 X102.113 Y141.632 E0.18920 F1200
G1 X99.926 Y141.004 E0.18920 F1200
G1 X97.788 Y140.226 E0.18920 F1200
G1 X95.709 Y139.301 E0.18920 F1200
G1 X93.700 Y138.232 E0.18920 F1200
G1 X91.770 Y137.027 E0.18920 F1200
G1 X89.929 Y135.689 E0.18920 F1200
G1 X88.186 Y134.227 E0.18920 F1200
G1 X86.550 Y132.646 E0.18920 F1200
G1 X85.027 Y130.955 E0.18920 F1200
G1 X83.626 Y129.162 E0.18920 F1200
G1 X82.354 Y127.275 E0.18920 F1200
G1 X81.216 Y125.305 E0.18920 F1200
G1 X80.218 Y123.260 E0.18920 F1200
G1 X79.366 Y121.150 E0.18920 F1200
G1 X78.663 Y118.986 E0.18920 F1200
G1 X78.112 Y116.778 E0.18920 F1200
G1 X77.717 Y114.537 E0.18920 F1200
G1 X77.479 Y112.274 E0.18920 F1200
G1 X77.400 Y110.000 E0.18920 F1200
G1 X77.479 Y107.726 E0.18920 F1200
G1 X77.717 Y105.463 E0.18920 F1200
G1 X78.112 Y103.222 E0.18920 F1200
G1 X78.663 Y101.014 E0.18920 F1200
G1 X79.366 Y98.850 E0.18920 F1200
G1 X80.218 Y96.740 E0.18920 F1200
G1 X81.216 Y94.695 E0.18920 F1200
G1 X82.354 Y92.725 E0.18920 F1200
G1 X83.626 Y90.838 E0.18920 F1200
G1 X85.027 Y89.045 E0.18920 F1200
G1 X86.550 Y87.354 E0.18920 F1200
G1 X88.186 Y85.773 E0.18920 F1200
G1 X89.929 Y84.311 E0.18920 F1200
G1 X91.770 Y82.973 E0.18920 F1200
G1 X93.700 Y81.768 E0.18920 F1200
G1 X95.709 Y80.699 E0.18920 F1200
G1 X97.788 Y79.774 E0.18920 F1200
G1 X99.926 Y78.996 E0.18920 F1200
G1 X102.113 Y78.368 E0.18920 F1200
G1 X104.339 Y77.895 E0.18920 F1200
G1 X106.592 Y77.579 E0.18920 F1200
G1 X108.862 Y77.420 E0.18920 F1200
G1 X111.138 Y77.420 E0.18920 F1200
G1 X113.408 Y77.579 E0.18920 F1200
G1 X115.661 Y77.895 E0.18920 F1200
G1 X117.887 Y78.368 E0.18920 F1200
G1 X120.074 Y78.996 E0.18920 F1200
G1 X122.212 Y79.774 E0.18920 F1200
G1 X124.291 Y80.699 E0.18920 F1200
G1 X126.300 Y81.768 E0.18920 F1200
G1 X128.230 Y82.973 E0.18920 F1200
G1 X130.071 Y84.311 E0.18920 F1200
G1 X131.814 Y85.773 E0.18920 F1200
G1 X133.450 Y87.354 E0.18920 F1200
G1 X134.973 Y89.045 E0.18920 F1200
G1 X136.374 Y90.838 E0.18920 F1200
G1 X137.646 Y92.725 E0.18920 F1200
G1 X138.784 Y94.695 E0.18920 F1200
G1 X139.782 Y96.740 E0.18920 F1200
G1 X140.634 Y98.850 E0.18920 F1200
G1 X141.337 Y101.014 E0.18920 F1200
G1 X141.888 Y103.222 E0.18920 F1200
G1 X142.283 Y105.463 E0.18920 F1200
G1 X142.521 Y107.726 E0.18920 F1200
G1 X142.600 Y110.000 E0.18920 F1200
G0 X141.600 Y110.000 F9000
G1 X141.523 Y112.204 E0.18340 F1200
G1 X141.292 Y114.398 E0.18340 F1200
G1 X140.909 Y116.570 E0.18340 F1200
G1 X140.376 Y118.710 E0.18340 F1200
G1 X139.694 Y120.808 E0.18340 F1200
G1 X138.868 Y122.853 E0.18340 F1200
G1 X137.901 Y124.835 E0.18340 F1200
G1 X136.798 Y126.745 E0.18340 F1200
G1 X135.565 Y128.574 E0.18340 F1200
G1 X134.207 Y130.312 E0.18340 F1200
G1 X132.731 Y131.951 E0.18340 F1200
G1 X131.145 Y133.483 E0.18340 F1200
G1 X129.455 Y134.901 E0.18340 F1200
G1 X127.670 Y136.198 E0.18340 F1200
G1 X125.800 Y137.366 E0.18340 F1200
G1 X123.853 Y138.402 E0.18340 F1200
G1 X121.838 Y139.299 E0.18340 F1200
G1 X119.765 Y140.053 E0.18340 F1200
G1 X117.645 Y140.661 E0.18340 F1200
G1 X115.487 Y141.120 E0.18340 F1200
G1 X113.303 Y141.427 E0.18340 F1200
G1 X111.103 Y141.581 E0.18340 F1200
G1 X108.897 Y141.581 E0.18340 F1200
G1 X106.697 Y141.427 E0.18340 F1200
G1 X104.513 Y141.120 E0.18340 F1200
G1 X102.355 Y140.661 E0.18340 F1200
G1 X100.235 Y140.053 E0.18340 F1200
G1 X98.162 Y139.299 E0.18340 F1200
G1 X96.147 Y138.402 E0.18340 F1200
G1 X94.200 Y137.366 E0.18340 F1200
G1 X92.330 Y136.198 E0.18340 F1200
G1 X90.545 Y134.901 E0.18340 F1200
G1 X88.855 Y133.483 E0.18340 F1200
G1 X87.269 Y131.951 E0.18340 F1200
G1 X85.793 Y130.312 E0.18340 F1200
G1 X84.435 Y128.574 E0.18340 F1200
G1 X83.202 Y126.745 E0.18340 F1200
G1 X82.099 Y124.835 E0.18340 F1200
G1 X81.132 Y122.853 E0.18340 F1200
G1 X80.306 Y120.808 E0.18340 F1200
G1 X79.624 Y118.710 E0.18340 F1200
G1 X79.091 Y116.570 E0.18340 F1200
G1 X78.708 Y114.398 E0.18340 F1200
G1 X78.477 Y112.204 E0.18340 F1200
G1 X78.400 Y110.000 E0.18340 F1200
G1 X78.477 Y107.796 E0.18340 F1200
G1 X78.708 Y105.602 E0.18340 F1200
G1 X79.091 Y103.430 E0.18340 F1200
G1 X79.624 Y101.290 E0.18340 F1200
G1 X80.306 Y99.192 E0.18340 F1200
G1 X81.132 Y97.147 E0.18340 F1200
G1 X82.099 Y95.165 E0.18340 F1200
G1 X83.202 Y93.255 E0.18340 F1200
G1 X84.435 Y91.426 E0.18340 F1200
G1 X85.793 Y89.688 E0.18340 F1200
G1 X87.269 Y88.049 E0.18340 F1200
G1 X88.855 Y86.517 E0.18340 F1200
G1 X90.545 Y85.099 E0.18340 F1200
G1 X92.330 Y83.802 E0.18340 F1200
G1 X94.200 Y82.634 E0.18340 F1200
G1 X96.147 Y81.598 E0.18340 F1200
G1 X98.162 Y80.701 E0.18340 F1200
G1 X100.235 Y79.947 E0.18340 F1200
G1 X102.355 Y79.339 E0.18340 F1200
G1 X104.513 Y78.880 E0.18340 F1200
G1 X106.697 Y78.573 E0.18340 F1200
G1 X108.897 Y78.419 E0.18340 F1200
G1 X111.103 Y78.419 E0.18340 F1200
G1 X113.303 Y78.573 E0.18340 F1200
G1 X115.487 Y78.880 E0.18340 F1200
G1 X117.645 Y79.339 E0.18340 F1200
G1 X119.765 Y79.947 E0.18340 F1200
G1 X121.838 Y80.701 E0.18340 F1200
G1 X123.853 Y81.598 E0.18340 F1200
G1 X125.800 Y82.634 E0.18340 F1200
G1 X127.670 Y83.802 E0.18340 F1200
G1 X129.455 Y85.099 E0.18340 F1200
G1 X131.145 Y86.517 E0.18340 F1200
G1 X132.731 Y88.049 E0.18340 F1200
G1 X134.207 Y89.688 E0.18340 F1200
G1 X135.565 Y91.426 E0.18340 F1200
G1 X136.798 Y93.255 E0.18340 F1200
G1 X137.901 Y95.165 E0.18340 F1200
G1 X138.868 Y97.147 E0.18340 F1200
G1 X139.694 Y99.192 E0.18340 F1200
G1 X140.376 Y101.290 E0.18340 F1200
G1 X140.909 Y103.430 E0.18340 F1200
G1 X141.292 Y105.602 E0.18340 F1200
G1 X141.523 Y107.796 E0.18340 F1200
G1 X141.600 Y110.000 E0.18340 F1200
G1 E-1.0000 F2400
G1 Z0.600 F600 ; Zfix hop up
G0 X115.750 Y110.000 F9000
G1 Z0.200 F600 ; Zfix hop down
G1 E1.0000 F2400
G1 X115.736 Y110.401 E0.03337 F1200
G1 X115.694 Y110.800 E0.03337 F1200
G1 X115.624 Y111.195 E0.03337 F1200
G1 X115.527 Y111.585 E0.03337 F1200
G1 X115.403 Y111.967 E0.03337 F1200
G1 X115.253 Y112.339 E0.03337 F1200
G1 X115.077 Y112.699 E0.03337 F1200
G1 X114.876 Y113.047 E0.03337 F1200
G1 X114.652 Y113.380 E0.03337 F1200
G1 X114.405 Y113.696 E0.03337 F1200
G1 X114.136 Y113.994 E0.03337 F1200
G1 X113.848 Y114.273 E0.03337 F1200
G1 X113.540 Y114.531 E0.03337 F1200
G1 X113.215 Y114.767 E0.03337 F1200
G1 X112.875 Y114.980 E0.03337 F1200
G1 X112.521 Y115.168 E0.03337 F1200
G1 X112.154 Y115.331 E0.03337 F1200
G1 X111.777 Y115.469 E0.03337 F1200
G1 X111.391 Y115.579 E0.03337 F1200
G1 X110.998 Y115.663 E0.03337 F1200
G1 X110.601 Y115.719 E0.03337 F1200
G1 X110.201 Y115.746 E0.03337 F1200
G1 X109.799 Y115.746 E0.03337 F1200
G1 X109.399 Y115.719 E0.03337 F1200
G1 X109.002 Y115.663 E0.03337 F1200
G1 X108.609 Y115.579 E0.03337 F1200
G1 X108.223 Y115.469 E0.03337 F1200
G1 X107.846 Y115.331 E0.03337 F1200
G1 X107.479 Y115.168 E0.03337 F1200
G1 X107.125 Y114.980 E0.03337 F1200
G1 X106.785 Y114.767 E0.03337 F1200
G1 X106.460 Y114.531 E0.03337 F1200
G1 X106.152 Y114.273 E0.03337 F1200
G1 X105.864 Y113.994 E0.03337 F1200
G1 X105.595 Y113.696 E0.03337 F1200
G1 X105.348 Y113.380 E0.03337 F1200
G1 X105.124 Y113.047 E0.03337 F1200
G1 X104.923 Y112.699 E0.03337 F1200
G1 X104.747 Y112.339 E0.03337 F1200
G1 X104.597 Y111.967 E0.03337 F1200
G1 X104.473 Y111.585 E0.03337 F1200
G1 X104.376 Y111.195 E0.03337 F1200
G1 X104.306 Y110.800 E0.03337 F1200
G1 X104.264 Y110.401 E0.03337 F1200
G1 X104.250 Y110.000 E0.03337 F1200
G1 X104.264 Y109.599 E0.03337 F1200
G1 X104.306 Y109.200 E0.03337 F1200
G1 X104.376 Y108.805 E0.03337 F1200
G1 X104.473 Y108.415 E0.03337 F1200
G1 X104.597 Y108.033 E0.03337 F1200
G1 X104.747 Y107.661 E0.03337 F1200
G1 X104.923 Y107.301 E0.03337 F1200
G1 X105.124 Y106.953 E0.03337 F1200
G1 X105.348 Y106.620 E0.03337 F1200
G1 X105.595 Y106.304 E0.03337 F1200
G1 X105.864 Y106.006 E0.03337 F1200
G1 X106.152 Y105.727 E0.03337 F1200
G1 X106.460 Y105.469 E0.03337 F1200
G1 X106.785 Y105.233 E0.03337 F1200
G1 X107.125 Y105.020 E0.03337 F1200
G1 X107.479 Y104.832 E0.03337 F1200
G1 X107.846 Y104.669 E0.03337 F1200
G1 X108.223 Y104.531 E0.03337 F1200
G1 X108.609 Y104.421 E0.03337 F1200
G1 X109.002 Y104.337 E0.03337 F1200
G1 X109.399 Y104.281 E0.03337 F1200
G1 X109.799 Y104.254 E0.03337 F1200
G1 X110.201 Y104.254 E0.03337 F1200
G1 X110.601 Y104.281 E0.03337 F1200
G1 X110.998 Y104.337 E0.03337 F1200
G1 X111.391 Y104.421 E0.03337 F1200
G1 X111.777 Y104.531 E0.03337 F1200
G1 X112.154 Y104.669 E0.03337 F1200
G1 X112.521 Y104.832 E0.03337 F1200
G1 X112.875 Y105.020 E0.03337 F1200
G1 X113.215 Y105.233 E0.03337 F1200
G1 X113.540 Y105.469 E0.03337 F1200
G1 X113.848 Y105.727 E0.03337 F1200
G1 X114.136 Y106.006 E0.03337 F1200
G1 X114.405 Y106.304 E0.03337 F1200
G1 X114.652 Y106.620 E0.03337 F1200
G1 X114.876 Y106.953 E0.03337 F1200
G1 X115.077 Y107.301 E0.03337 F1200
G1 X115.253 Y107.661 E0.03337 F1200
G1 X115.403 Y108.033 E0.03337 F1200
G1 X115.527 Y108.415 E0.03337 F1200
G1 X115.624 Y108.805 E0.03337 F1200
G1 X115.694 Y109.200 E0.03337 F1200
G1 X115.736 Y109.599 E0.03337 F1200
G1 X115.750 Y110.000 E0.03337 F1200
G0 X116.750 Y110.000 F9000
G1 X116.734 Y110.471 E0.03918 F1200
G1 X116.684 Y110.939 E0.03918 F1200
G1 X116.602 Y111.403 E0.03918 F1200
G1 X116.489 Y111.861 E0.03918 F1200
G1 X116.343 Y112.309 E0.03918 F1200
G1 X116.166 Y112.745 E0.03918 F1200
G1 X115.960 Y113.169 E0.03918 F1200
G1 X115.724 Y113.577 E0.03918 F1200
G1 X115.461 Y113.968 E0.03918 F1200
G1 X115.171 Y114.339 E0.03918 F1200
G1 X114.856 Y114.689 E0.03918 F1200
G1 X114.517 Y115.016 E0.03918 F1200
G1 X114.156 Y115.319 E0.03918 F1200
G1 X113.775 Y115.596 E0.03918 F1200
G1 X113.375 Y115.846 E0.03918 F1200
G1 X112.959 Y116.067 E0.03918 F1200
G1 X112.529 Y116.258 E0.03918 F1200
G1 X112.086 Y116.420 E0.03918 F1200
G1 X111.633 Y116.549 E0.03918 F1200
G1 X111.172 Y116.647 E0.03918 F1200
G1 X110.706 Y116.713 E0.03918 F1200
G1 X110.236 Y116.746 E0.03918 F1200
G1 X109.764 Y116.746 E0.03918 F1200
G1 X109.294 Y116.713 E0.03918 F1200
G1 X108.828 Y116.647 E0.03918 F1200
G1 X108.367 Y116.549 E0.03918 F1200
G1 X107.914 Y116.420 E0.03918 F1200
G1 X107.471 Y116.258 E0.03918 F1200
G1 X107.041 Y116.067 E0.03918 F1200
G1 X106.625 Y115.846 E0.03918 F1200
G1 X106.225 Y115.596 E0.03918 F1200
G1 X105.844 Y115.319 E0.03918 F1200
G1 X105.483 Y115.016 E0.03918 F1200
G1 X105.144 Y114.689 E0.03918 F1200
G1 X104.829 Y114.339 E0.03918 F1200
G1 X104.539 Y113.968 E0.03918 F1200
G1 X104.276 Y113.577 E0.03918 F1200
G1 X104.040 Y113.169 E0.03918 F1200
G1 X103.834 Y112.745 E0.03918 F1200
G1 X103.657 Y112.309 E0.03918 F1200
G1 X103.511 Y111.861 E0.03918 F1200
G1 X103.398 Y111.403 E0.03918 F1200
G1 X103.316 Y110.939 E0.03918 F1200
G1 X103.266 Y110.471 E0.03918 F1200
G1 X103.250 Y110.000 E0.03918 F1200
G1 X103.266 Y109.529 E0.03918 F1200
G1 X103.316 Y109.061 E0.03918 F1200
G1 X103.398 Y108.597 E0.03918 F1200
G1 X103.511 Y108.139 E0.03918 F1200
G1 X103.657 Y107.691 E0.03918 F1200
G1 X103.834 Y107.255 E0.03918 F1200
G1 X104.040 Y106.831 E0.03918 F1200
G1 X104.276 Y106.423 E0.03918 F1200
G1 X104.539 Y106.032 E0.03918 F1200
G1 X104.829 Y105.661 E0.03918 F1200
G1 X105.144 Y105.311 E0.03918 F1200
G1 X105.483 Y104.984 E0.03918 F1200
G1 X105.844 Y104.681 E0.03918 F1200
G1 X106.225 Y104.404 E0.03918 F1200
G1 X106.625 Y104.154 E0.03918 F1200
G1 X107.041 Y103.933 E0.03918 F1200
G1 X107.471 Y103.742 E0.03918 F1200
G1 X107.914 Y103.580 E0.03918 F1200
G1 X108.367 Y103.451 E0.03918 F1200
G1 X108.828 Y103.353 E0.03918 F1200
G1 X109.294 Y103.287 E0.03918 F1200
G1 X109.764 Y103.254 E0.03918 F1200
G1 X110.236 Y103.254 E0.03918 F1200
G1 X110.706 Y103.287 E0.03918 F1200
G1 X111.172 Y103.353 E0.03918 F1200
G1 X111.633 Y103.451 E0.03918 F1200
G1 X112.086 Y103.580 E0.03918 F1200
G1 X112.529 Y103.742 E0.03918 F1200
G1 X112.959 Y103.933 E0.03918 F1200
G1 X113.375 Y104.154 E0.03918 F1200
G1 X113.775 Y104.404 E0.03918 F1200
G1 X114.156 Y104.681 E0.03918 F1200
G1 X114.517 Y104.984 E0.03918 F1200
G1 X114.856 Y105.311 E0.03918 F1200
G1 X115.171 Y105.661 E0.03918 F1200
G1 X115.461 Y106.032 E0.03918 F1200
G1 X115.724 Y106.423 E0.03918 F1200
G1 X115.960 Y106.831 E0.03918 F1200
G1 X116.166 Y107.255 E0.03918 F1200
G1 X116.343 Y107.691 E0.03918 F1200
G1 X116.489 Y108.139 E0.03918 F1200
G1 X116.602 Y108.597 E0.03918 F1200
G1 X116.684 Y109.061 E0.03918 F1200
G1 X116.734 Y109.529 E0.03918 F1200
G1 X116.750 Y110.000 E0.03918 F1200
;TYPE:SOLID
G0 X117.750 Y110.000 F9000
G1 X117.742 Y110.542 E0.04503 F1200
G1 X117.697 Y111.082 E0.04510 F1200
G1 X117.613 Y111.619 E0.04516 F1200
G1 X117.492 Y112.149 E0.04523 F1200
G1 X117.335 Y112.670 E0.04529 F1200
G1 X117.141 Y113.180 E0.04535 F1200
G1 X116.911 Y113.676 E0.04542 F1200
G1 X116.647 Y114.155 E0.04548 F1200
G1 X116.350 Y114.615 E0.04555 F1200
G1 X116.021 Y115.054 E0.04561 F1200
G1 X115.662 Y115.470 E0.04568 F1200
G1 X115.274 Y115.860 E0.04574 F1200
G1 X114.859 Y116.222 E0.04581 F1200
G1 X114.419 Y116.555 E0.04587 F1200
G1 X113.957 Y116.857 E0.04594 F1200
G1 X113.473 Y117.126 E0.04600 F1200
G1 X112.972 Y117.362 E0.04606 F1200
G1 X112.454 Y117.562 E0.04613 F1200
G1 X111.923 Y117.725 E0.04619 F1200
G1 X111.382 Y117.852 E0.04626 F1200
G1 X110.832 Y117.940 E0.04632 F1200
G1 X110.276 Y117.990 E0.04639 F1200
G1 X109.717 Y118.001 E0.04645 F1200
G1 X109.159 Y117.972 E0.04652 F1200
G1 X108.603 Y117.905 E0.04658 F1200
G1 X108.052 Y117.799 E0.04664 F1200
G1 X107.509 Y117.655 E0.04671 F1200
G1 X106.977 Y117.473 E0.04677 F1200
G1 X106.458 Y117.254 E0.04684 F1200
G1 X105.955 Y116.998 E0.04690 F1200
G1 X105.470 Y116.708 E0.04697 F1200
G1 X105.006 Y116.385 E0.04703 F1200
G1 X104.565 Y116.029 E0.04710 F1200
G1 X104.150 Y115.643 E0.04716 F1200
G1 X103.762 Y115.228 E0.04723 F1200
G1 X103.404 Y114.786 E0.04729 F1200
G1 X103.076 Y114.320 E0.04735 F1200
G1 X102.782 Y113.832 E0.04742 F1200
G1 X102.522 Y113.324 E0.04748 F1200
G1 X102.298 Y112.797 E0.04755 F1200
G1 X102.111 Y112.256 E0.04761 F1200
G1 X101.962 Y111.703 E0.04768 F1200
G1 X101.851 Y111.139 E0.04774 F1200
G1 X101.781 Y110.569 E0.04781 F1200
G1 X101.750 Y109.994 E0.04787 F1200
G1 X101.759 Y109.417 E0.04793 F1200
G1 X101.809 Y108.842 E0.04800 F1200
G1 X101.899 Y108.271 E0.04806 F1200
G1 X102.029 Y107.707 E0.04813 F1200
G1 X102.198 Y107.153 E0.04819 F1200
G1 X102.405 Y106.611 E0.04826 F1200
G1 X102.650 Y106.084 E0.04832 F1200
G1 X102.932 Y105.575 E0.04839 F1200
G1 X103.249 Y105.086 E0.04845 F1200
G1 X103.600 Y104.620 E0.04852 F1200
G1 X103.983 Y104.178 E0.04858 F1200
G1 X104.396 Y103.764 E0.04864 F1200
G1 X104.838 Y103.380 E0.04871 F1200
G1 X105.307 Y103.027 E0.04877 F1200
G1 X105.799 Y102.707 E0.04884 F1200
G1 X106.313 Y102.421 E0.04890 F1200
G1 X106.847 Y102.172 E0.04897 F1200
G1 X107.397 Y101.961 E0.04903 F1200
G1 X107.962 Y101.788 E0.04910 F1200
G1 X108.538 Y101.655 E0.04916 F1200
G1 X109.123 Y101.562 E0.04923 F1200
G1 X109.713 Y101.510 E0.04929 F1200
G1 X110.307 Y101.500 E0.04935 F1200
G1 X110.900 Y101.531 E0.04942 F1200
G1 X111.491 Y101.603 E0.04948 F1200
G1 X112.076 Y101.717 E0.04955 F1200
G1 X112.652 Y101.872 E0.04961 F1200
G1 X113.217 Y102.066 E0.04968 F1200
G1 X113.768 Y102.300 E0.04974 F1200
G1 X114.301 Y102.572 E0.04981 F1200
G1 X114.815 Y102.881 E0.04987 F1200
G1 X115.307 Y103.225 E0.04993 F1200
G1 X115.774 Y103.604 E0.05000 F1200
G1 X116.214 Y104.015 E0.05006 F1200
G1 X116.625 Y104.456 E0.05013 F1200
G1 X117.005 Y104.925 E0.05019 F1200
G1 X117.352 Y105.420 E0.05026 F1200
G1 X117.663 Y105.939 E0.05032 F1200
G1 X117.938 Y106.479 E0.05039 F1200
G1 X118.175 Y107.038 E0.05045 F1200
G1 X118.372 Y107.613 E0.05052 F1200
G1 X118.529 Y108.200 E0.05058 F1200
G1 X118.645 Y108.798 E0.05064 F1200
G1 X118.719 Y109.404 E0.05071 F1200
G1 X118.750 Y110.013 E0.05077 F1200
G1 X118.739 Y110.625 E0.05084 F1200
G1 X118.685 Y111.234 E0.05090 F1200
G1 X118.589 Y111.840 E0.05097 F1200
G1 X118.450 Y112.438 E0.05103 F1200
G1 X118.270 Y113.025 E0.05110 F1200
G1 X118.049 Y113.599 E0.05116 F1200
G1 X117.788 Y114.157 E0.05122 F1200
G1 X117.488 Y114.697 E0.05129 F1200
G1 X117.151 Y115.214 E0.05135 F1200
G1 X116.779 Y115.708 E0.05142 F1200
G1 X116.372 Y116.174 E0.05148 F1200
G1 X115.933 Y116.612 E0.05155 F1200
G1 X115.464 Y117.019 E0.05161 F1200
G1 X114.967 Y117.392 E0.05168 F1200
G1 X114.445 Y117.730 E0.05174 F1200
G1 X113.899 Y118.032 E0.05181 F1200
G1 X113.334 Y118.294 E0.05187 F1200
G1 X112.750 Y118.517 E0.05193 F1200
G1 X112.152 Y118.699 E0.05200 F1200
G1 X111.542 Y118.839 E0.05206 F1200
G1 X110.922 Y118.936 E0.05213 F1200
G1 X110.297 Y118.990 E0.05219 F1200
G1 X109.668 Y119.000 E0.05226 F1200
G1 X109.040 Y118.966 E0.05232 F1200
G1 X108.415 Y118.888 E0.05239 F1200
G1 X107.796 Y118.766 E0.05245 F1200
G1 X107.186 Y118.602 E0.05251 F1200
G1 X106.589 Y118.395 E0.05258 F1200
G1 X106.006 Y118.146 E0.05264 F1200
G1 X105.442 Y117.857 E0.05271 F1200
G1 X104.899 Y117.529 E0.05277 F1200
G1 X104.379 Y117.164 E0.05284 F1200
G1 X103.885 Y116.762 E0.05290 F1200
G1 X103.420 Y116.327 E0.05297 F1200
G1 X102.986 Y115.860 E0.05303 F1200
G1 X102.586 Y115.363 E0.05310 F1200
G1 X102.220 Y114.838 E0.05316 F1200
G1 X101.892 Y114.289 E0.05322 F1200
G1 X101.602 Y113.717 E0.05329 F1200
G1 X101.353 Y113.126 E0.05335 F1200
G1 X101.145 Y112.518 E0.05342 F1200
G1 X100.980 Y111.896 E0.05348 F1200
G1 X100.859 Y111.264 E0.05355 F1200
G1 X100.782 Y110.624 E0.05361 F1200
G1 X100.750 Y109.979 E0.05368 F1200
G1 X100.763 Y109.333 E0.05374 F1200
G1 X100.821 Y108.688 E0.05381 F1200
G1 X100.924 Y108.049 E0.05387 F1200
G1 X101.071 Y107.417 E0.05393 F1200
G1 X101.263 Y106.796 E0.05400 F1200
G1 X101.498 Y106.190 E0.05406 F1200
G1 X101.774 Y105.601 E0.05413 F1200
G1 X102.092 Y105.032 E0.05419 F1200
G1 X102.449 Y104.486 E0.05426 F1200
G1 X102.844 Y103.965 E0.05432 F1200
G1 X103.274 Y103.473 E0.05439 F1200
G1 X103.738 Y103.011 E0.05445 F1200
G1 X104.235 Y102.582 E0.05451 F1200
G1 X104.760 Y102.189 E0.05458 F1200
G1 X105.312 Y101.833 E0.05464 F1200
G1 X105.889 Y101.515 E0.05471 F1200
G1 X106.487 Y101.239 E0.05477 F1200
G1 X107.103 Y101.005 E0.05484 F1200
G1 X107.735 Y100.814 E0.05490 F1200
G1 X108.380 Y100.667 E0.05497 F1200
G1 X109.034 Y100.566 E0.05503 F1200
G1 X109.694 Y100.510 E0.05510 F1200
G1 X110.357 Y100.501 E0.05516 F1200
G1 X111.020 Y100.538 E0.05522 F1200
G1 X111.680 Y100.621 E0.05529 F1200
G1 X112.333 Y100.750 E0.05535 F1200
G1 X112.976 Y100.925 E0.05542 F1200
G1 X113.606 Y101.145 E0.05548 F1200
G1 X114.220 Y101.408 E0.05555 F1200
G1 X114.815 Y101.714 E0.05561 F1200
G1 X115.388 Y102.061 E0.05568 F1200
G1 X115.935 Y102.447 E0.05574 F1200
G1 X116.455 Y102.871 E0.05580 F1200
G1 X116.945 Y103.332 E0.05587 F1200
G1 X117.402 Y103.825 E0.05593 F1200
G1 X117.824 Y104.350 E0.05600 F1200
G1 X118.208 Y104.904 E0.05606 F1200
G1 X118.554 Y105.484 E0.05613 F1200
G1 X118.858 Y106.087 E0.05619 F1200
G1 X119.120 Y106.711 E0.05626 F1200
G1 X119.338 Y107.353 E0.05632 F1200
G1 X119.511 Y108.008 E0.05639 F1200
G1 X119.638 Y108.675 E0.05645 F1200
G1 X119.718 Y109.350 E0.05651 F1200
G1 X119.750 Y110.030 E0.05658 F1200
G1 X119.736 Y110.711 E0.05664 F1200
G1 X119.673 Y111.390 E0.05671 F1200
G1 X119.564 Y112.064 E0.05677 F1200
G1 X119.407 Y112.729 E0.05684 F1200
G1 X119.204 Y113.383 E0.05690 F1200
G1 X118.956 Y114.021 E0.05697 F1200
G1 X118.663 Y114.642 E0.05703 F1200
G1 X118.328 Y115.241 E0.05710 F1200
G1 X117.951 Y115.816 E0.05716 F1200
G1 X117.534 Y116.363 E0.05722 F1200
G1 X117.080 Y116.881 E0.05729 F1200
G1 X116.590 Y117.367 E0.05735 F1200
G1 X116.066 Y117.817 E0.05742 F1200
G1 X115.512 Y118.231 E0.05748 F1200
G1 X114.930 Y118.605 E0.05755 F1200
G1 X114.323 Y118.938 E0.05761 F1200
G1 X113.693 Y119.228 E0.05768 F1200
G1 X113.043 Y119.474 E0.05774 F1200
G1 X112.377 Y119.674 E0.05780 F1200
G1 X111.698 Y119.827 E0.05787 F1200
G1 X111.010 Y119.933 E0.05793 F1200
G1 X110.315 Y119.990 E0.05800 F1200
G1 X109.616 Y119.999 E0.05806 F1200
G1 X108.918 Y119.959 E0.05813 F1200
G1 X108.224 Y119.870 E0.05819 F1200
G1 X107.537 Y119.733 E0.05826 F1200
G1 X106.861 Y119.548 E0.05832 F1200
G1 X106.198 Y119.316 E0.05839 F1200
G1 X105.552 Y119.038 E0.05845 F1200
G1 X104.927 Y118.715 E0.05851 F1200
G1 X104.325 Y118.349 E0.05858 F1200
G1 X103.749 Y117.941 E0.05864 F1200
G1 X103.203 Y117.494 E0.05871 F1200
G1 X102.689 Y117.009 E0.05877 F1200
G1 X102.209 Y116.489 E0.05884 F1200
G1 X101.766 Y115.936 E0.05890 F1200
G1 X101.363 Y115.353 E0.05897 F1200
G1 X101.000 Y114.743 E0.05903 F1200
G1 X100.681 Y114.108 E0.05909 F1200
G1 X100.407 Y113.451 E0.05916 F1200
G1 X100.179 Y112.776 E0.05922 F1200
G1 X99.998 Y112.087 E0.05929 F1200
G1 X99.866 Y111.385 E0.05935 F1200
G1 X99.783 Y110.675 E0.05942 F1200
G1 X99.749 Y109.961 E0.05948 F1200
G1 X99.766 Y109.245 E0.05955 F1200
G1 X99.833 Y108.531 E0.05961 F1200
G1 X99.949 Y107.823 E0.05968 F1200
G1 X100.115 Y107.124 E0.05974 F1200
G1 X100.329 Y106.437 E0.05980 F1200
G1 X100.591 Y105.767 E0.05987 F1200
G1 X100.900 Y105.115 E0.05993 F1200
G1 X101.253 Y104.486 E0.06000 F1200
G1 X101.650 Y103.883 E0.06006 F1200
G1 X102.089 Y103.308 E0.06013 F1200
G1 X102.567 Y102.765 E0.06019 F1200
G1 X103.083 Y102.255 E0.06026 F1200
G1 X103.633 Y101.783 E0.06032 F1200
G1 X104.216 Y101.349 E0.06039 F1200
G1 X104.828 Y100.957 E0.06045 F1200
G1 X105.467 Y100.608 E0.06051 F1200
G1 X106.129 Y100.305 E0.06058 F1200
G1 X106.812 Y100.048 E0.06064 F1200
G1 X107.511 Y99.839 E0.06071 F1200
G1 X108.224 Y99.679 E0.06077 F1200
G1 X108.948 Y99.569 E0.06084 F1200
G1 X109.678 Y99.510 E0.06090 F1200
G1 X110.411 Y99.502 E0.06097 F1200
G1 X111.144 Y99.545 E0.06103 F1200
G1 X111.872 Y99.639 E0.06109 F1200
G1 X112.593 Y99.784 E0.06116 F1200
G1 X113.303 Y99.980 E0.06122 F1200
G1 X113.999 Y100.224 E0.06129 F1200
G1 X114.676 Y100.517 E0.06135 F1200
G1 X115.332 Y100.857 E0.06142 F1200
G1 X115.963 Y101.242 E0.06148 F1200
G1 X116.566 Y101.671 E0.06155 F1200
G1 X117.139 Y102.141 E0.06161 F1200
G1 X117.678 Y102.651 E0.06168 F1200
G1 X118.181 Y103.197 E0.06174 F1200
G1 X118.644 Y103.778 E0.06180 F1200
G1 X119.067 Y104.390 E0.06187 F1200
G1 X119.446 Y105.031 E0.06193 F1200
G1 X119.780 Y105.698 E0.06200 F1200
G1 X120.067 Y106.387 E0.06206 F1200
G1 X120.305 Y107.095 E0.06213 F1200
G1 X120.493 Y107.819 E0.06219 F1200
G1 X120.631 Y108.555 E0.06226 F1200
G1 X120.717 Y109.300 E0.06232 F1200
G1 X120.751 Y110.049 E0.06238 F1200
G1 X120.732 Y110.800 E0.06245 F1200
G1 X120.661 Y111.549 E0.06251 F1200
G1 X120.538 Y112.291 E0.06258 F1200
G1 X120.363 Y113.024 E0.06264 F1200
G1 X120.137 Y113.743 E0.06271 F1200
G1 X119.861 Y114.446 E0.06277 F1200
G1 X119.537 Y115.129 E0.06284 F1200
G1 X119.165 Y115.787 E0.06290 F1200
G1 X118.748 Y116.419 E0.06297 F1200
G1 X118.287 Y117.021 E0.06303 F1200
G1 X117.785 Y117.590 E0.06309 F1200
G1 X117.244 Y118.123 E0.06316 F1200
G1 X116.666 Y118.618 E0.06322 F1200
G1 X116.055 Y119.071 E0.06329 F1200
G1 X115.413 Y119.481 E0.06335 F1200
G1 X114.743 Y119.846 E0.06342 F1200
G1 X114.049 Y120.163 E0.06348 F1200
G1 X113.333 Y120.431 E0.06355 F1200
G1 X112.600 Y120.649 E0.06361 F1200
G1 X111.852 Y120.816 E0.06368 F1200
G1 X111.094 Y120.929 E0.06374 F1200
G1 X110.329 Y120.990 E0.06380 F1200
G1 X109.561 Y120.998 E0.06387 F1200
G1 X108.794 Y120.951 E0.06393 F1200
G1 X108.031 Y120.851 E0.06400 F1200
G1 X107.275 Y120.698 E0.06406 F1200
G1 X106.532 Y120.493 E0.06413 F1200
G1 X105.804 Y120.235 E0.06419 F1200
G1 X105.095 Y119.928 E0.06426 F1200
G1 X104.409 Y119.571 E0.06432 F1200
G1 X103.749 Y119.167 E0.06438 F1200
G1 X103.117 Y118.717 E0.06445 F1200
G1 X102.519 Y118.224 E0.06451 F1200
G1 X101.955 Y117.689 E0.06458 F1200
G1 X101.430 Y117.116 E0.06464 F1200
G1 X100.945 Y116.507 E0.06471 F1200
G1 X100.503 Y115.866 E0.06477 F1200
G1 X100.107 Y115.194 E0.06484 F1200
G1 X99.759 Y114.495 E0.06490 F1200
G1 X99.460 Y113.774 E0.06497 F1200
G1 X99.212 Y113.032 E0.06503 F1200
G1 X99.015 Y112.274 E0.06509 F1200
G1 X98.873 Y111.504 E0.06516 F1200
G1 X98.784 Y110.724 E0.06522 F1200
G1 X98.749 Y109.940 E0.06529 F1200
G1 X98.770 Y109.154 E0.06535 F1200
G1 X98.845 Y108.371 E0.06542 F1200
G1 X98.975 Y107.594 E0.06548 F1200
G1 X99.159 Y106.828 E0.06555 F1200
G1 X99.397 Y106.075 E0.06561 F1200
G1 X99.686 Y105.340 E0.06568 F1200
G1 X100.027 Y104.627 E0.06574 F1200
G1 X100.416 Y103.938 E0.06580 F1200
G1 X100.854 Y103.278 E0.06587 F1200
G1 X101.337 Y102.649 E0.06593 F1200
G1 X101.863 Y102.054 E0.06600 F1200
G1 X102.430 Y101.498 E0.06606 F1200
G1 X103.034 Y100.981 E0.06613 F1200
G1 X103.675 Y100.508 E0.06619 F1200
G1 X104.347 Y100.080 E0.06626 F1200
G1 X105.048 Y99.700 E0.06632 F1200
G1 X105.774 Y99.369 E0.06638 F1200
G1 X106.523 Y99.090 E0.06645 F1200
G1 X107.290 Y98.863 E0.06651 F1200
G1 X108.072 Y98.690 E0.06658 F1200
G1 X108.865 Y98.572 E0.06664 F1200
G1 X109.665 Y98.510 E0.06671 F1200
G1 X110.468 Y98.503 E0.06677 F1200
G1 X111.270 Y98.553 E0.06684 F1200
G1 X112.067 Y98.658 E0.06690 F1200
G1 X112.857 Y98.819 E0.06697 F1200
G1 X113.633 Y99.035 E0.06703 F1200
G1 X114.394 Y99.305 E0.06709 F1200
G1 X115.134 Y99.628 E0.06716 F1200
G1 X115.851 Y100.002 E0.06722 F1200
G1 X116.540 Y100.425 E0.06729 F1200
G1 X117.199 Y100.896 E0.06735 F1200
G1 X117.825 Y101.413 E0.06742 F1200
G1 X118.413 Y101.972 E0.06748 F1200
G1 X118.961 Y102.571 E0.06755 F1200
G1 X119.466 Y103.208 E0.06761 F1200
G1 X119.927 Y103.879 E0.06767 F1200
G1 X120.339 Y104.582 E0.06774 F1200
G1 X120.702 Y105.312 E0.06780 F1200
G1 X121.014 Y106.066 E0.06787 F1200
G1 X121.272 Y106.841 E0.06793 F1200
G1 X121.476 Y107.633 E0.06800 F1200
G1 X121.624 Y108.438 E0.06806 F1200
G1 X121.716 Y109.252 E0.06813 F1200
G1 X121.751 Y110.072 E0.06819 F1200
G1 X121.728 Y110.892 E0.06826 F1200
G1 X121.648 Y111.710 E0.06832 F1200
G1 X121.511 Y112.521 E0.06838 F1200
G1 X121.318 Y113.321 E0.06845 F1200
G1 X121.069 Y114.107 E0.06851 F1200
G1 X120.766 Y114.874 E0.06858 F1200
G1 X120.409 Y115.618 E0.06864 F1200
G1 X120.001 Y116.337 E0.06871 F1200
G1 X119.544 Y117.026 E0.06877 F1200
G1 X119.039 Y117.682 E0.06884 F1200
G1 X118.489 Y118.301 E0.06890 F1200
G1 X117.896 Y118.882 E0.06897 F1200
G1 X117.264 Y119.420 E0.06903 F1200
G1 X116.595 Y119.913 E0.06909 F1200
G1 X115.893 Y120.359 E0.06916 F1200
G1 X115.161 Y120.755 E0.06922 F1200
G1 X114.402 Y121.099 E0.06929 F1200
G1 X113.620 Y121.390 E0.06935 F1200
G1 X112.819 Y121.625 E0.06942 F1200
G1 X112.003 Y121.805 E0.06948 F1200
G1 X111.176 Y121.927 E0.06955 F1200
G1 X110.341 Y121.991 E0.06961 F1200
G1 X109.503 Y121.996 E0.06967 F1200
G1 X108.666 Y121.943 E0.06974 F1200
G1 X107.834 Y121.832 E0.06980 F1200
G1 X107.011 Y121.663 E0.06987 F1200
G1 X106.201 Y121.437 E0.06993 F1200
G1 X105.408 Y121.154 E0.07000 F1200
G1 X104.636 Y120.816 E0.07006 F1200
G1 X103.889 Y120.425 E0.07013 F1200
G1 X103.170 Y119.983 E0.07019 F1200
G1 X102.483 Y119.490 E0.07026 F1200
G1 X101.832 Y118.951 E0.07032 F1200
G1 X101.219 Y118.367 E0.07038 F1200
G1 X100.648 Y117.741 E0.07045 F1200
G1 X100.122 Y117.076 E0.07051 F1200
G1 X99.643 Y116.375 E0.07058 F1200
G1 X99.213 Y115.642 E0.07064 F1200
G1 X98.836 Y114.880 E0.07071 F1200
G1 X98.512 Y114.093 E0.07077 F1200
G1 X98.244 Y113.285 E0.07084 F1200
G1 X98.032 Y112.459 E0.07090 F1200
G1 X97.879 Y111.619 E0.07097 F1200
G1 X97.784 Y110.770 E0.07103 F1200
G1 X97.749 Y109.916 E0.07109 F1200
G1 X97.774 Y109.060 E0.07116 F1200
G1 X97.858 Y108.208 E0.07122 F1200
G1 X98.002 Y107.363 E0.07129 F1200
G1 X98.205 Y106.529 E0.07135 F1200
G1 X98.465 Y105.710 E0.07142 F1200
G1 X98.782 Y104.912 E0.07148 F1200
G1 X99.155 Y104.136 E0.07155 F1200
G1 X99.581 Y103.388 E0.07161 F1200
G1 X100.059 Y102.670 E0.07167 F1200
G1 X100.586 Y101.987 E0.07174 F1200
G1 X101.160 Y101.342 E0.07180 F1200
G1 X101.779 Y100.738 E0.07187 F1200
G1 X102.438 Y100.178 E0.07193 F1200
G1 X103.136 Y99.665 E0.07200 F1200
G1 X103.868 Y99.202 E0.07206 F1200
G1 X104.632 Y98.790 E0.07213 F1200
G1 X105.423 Y98.433 E0.07219 F1200
G1 X106.238 Y98.131 E0.07226 F1200
G1 X107.072 Y97.887 E0.07232 F1200
G1 X107.923 Y97.701 E0.07238 F1200
G1 X108.785 Y97.575 E0.07245 F1200
G1 X109.654 Y97.509 E0.07251 F1200
G1 X110.527 Y97.504 E0.07258 F1200
G1 X111.399 Y97.561 E0.07264 F1200
G1 X112.266 Y97.678 E0.07271 F1200
G1 X113.123 Y97.855 E0.07277 F1200
G1 X113.966 Y98.092 E0.07284 F1200
G1 X114.791 Y98.387 E0.07290 F1200
G1 X115.595 Y98.740 E0.07296 F1200
G1 X116.373 Y99.148 E0.07303 F1200
G1 X117.120 Y99.610 E0.07309 F1200
G1 X117.835 Y100.124 E0.07316 F1200
G1 X118.512 Y100.686 E0.07322 F1200
G1 X119.150 Y101.295 E0.07329 F1200
G1 X119.743 Y101.948 E0.07335 F1200
G1 X120.290 Y102.641 E0.07342 F1200
G1 X120.788 Y103.371 E0.07348 F1200
G1 X121.234 Y104.135 E0.07355 F1200
G1 X121.626 Y104.928 E0.07361 F1200
G1 X121.962 Y105.748 E0.07367 F1200
G1 X122.241 Y106.590 E0.07374 F1200
G1 X122.460 Y107.450 E0.07380 F1200
G1 X122.618 Y108.324 E0.07387 F1200
G1 X122.715 Y109.208 E0.07393 F1200
G1 X122.751 Y110.097 E0.07400 F1200
G1 X122.724 Y110.988 E0.07406 F1200
G1 X122.635 Y111.875 E0.07413 F1200
G1 X122.484 Y112.754 E0.07419 F1200
G1 X122.272 Y113.622 E0.07426 F1200
G1 X122.000 Y114.473 E0.07432 F1200
G1 X121.669 Y115.304 E0.07438 F1200
G1 X121.280 Y116.111 E0.07445 F1200
G1 X120.836 Y116.889 E0.07451 F1200
G1 X120.338 Y117.635 E0.07458 F1200
G1 X119.788 Y118.344 E0.07464 F1200
G1 X119.190 Y119.015 E0.07471 F1200
G1 X118.546 Y119.642 E0.07477 F1200
G1 X117.859 Y120.224 E0.07484 F1200
G1 X117.133 Y120.757 E0.07490 F1200
G1 X116.370 Y121.238 E0.07496 F1200
G1 X115.576 Y121.665 E0.07503 F1200
G1 X114.752 Y122.036 E0.07509 F1200
G1 X113.904 Y122.349 E0.07516 F1200
G1 X113.036 Y122.602 E0.07522 F1200
G1 X112.151 Y122.794 E0.07529 F1200
G1 X111.254 Y122.924 E0.07535 F1200
G1 X110.349 Y122.991 E0.07542 F1200
G1 X109.442 Y122.995 E0.07548 F1200
G1 X108.535 Y122.935 E0.07555 F1200
G1 X107.634 Y122.812 E0.07561 F1200
G1 X106.743 Y122.627 E0.07567 F1200
G1 X105.867 Y122.379 E0.07574 F1200
G1 X105.009 Y122.071 E0.07580 F1200
G1 X104.174 Y121.703 E0.07587 F1200
G1 X103.366 Y121.278 E0.07593 F1200
G1 X102.589 Y120.797 E0.07600 F1200
G1 X101.846 Y120.262 E0.07606 F1200
G1 X101.143 Y119.676 E0.07613 F1200
G1 X100.481 Y119.042 E0.07619 F1200
G1 X99.865 Y118.363 E0.07626 F1200
G1 X99.297 Y117.642 E0.07632 F1200
G1 X98.780 Y116.882 E0.07638 F1200
G1 X98.318 Y116.088 E0.07645 F1200
G1 X97.911 Y115.263 E0.07651 F1200
G1 X97.563 Y114.410 E0.07658 F1200
G1 X97.275 Y113.534 E0.07664 F1200
G1 X97.048 Y112.640 E0.07671 F1200
G1 X96.885 Y111.731 E0.07677 F1200
G1 X96.785 Y110.813 E0.07684 F1200
G1 X96.749 Y109.889 E0.07690 F1200
G1 X96.778 Y108.963 E0.07696 F1200
G1 X96.872 Y108.042 E0.07703 F1200
G1 X97.029 Y107.128 E0.07709 F1200
G1 X97.251 Y106.227 E0.07716 F1200
G1 X97.535 Y105.343 E0.07722 F1200
G1 X97.880 Y104.480 E0.07729 F1200
G1 X98.285 Y103.642 E0.07735 F1200
G1 X98.748 Y102.834 E0.07742 F1200
G1 X99.266 Y102.060 E0.07748 F1200
G1 X99.838 Y101.323 E0.07755 F1200
G1 X100.460 Y100.628 E0.07761 F1200
G1 X101.130 Y99.977 E0.07767 F1200
G1 X101.844 Y99.373 E0.07774 F1200
G1 X102.599 Y98.821 E0.07780 F1200
G1 X103.392 Y98.322 E0.07787 F1200
G1 X104.218 Y97.879 E0.07793 F1200
G1 X105.074 Y97.495 E0.07800 F1200
G1 X105.955 Y97.171 E0.07806 F1200
G1 X106.857 Y96.909 E0.07813 F1200
G1 X107.776 Y96.711 E0.07819 F1200
G1 X108.708 Y96.577 E0.07826 F1200
G1 X109.647 Y96.509 E0.07832 F1200
G1 X110.590 Y96.506 E0.07838 F1200
G1 X111.531 Y96.569 E0.07845 F1200
G1 X112.467 Y96.698 E0.07851 F1200
G1 X113.392 Y96.891 E0.07858 F1200
G1 X114.302 Y97.149 E0.07864 F1200
G1 X115.192 Y97.471 E0.07871 F1200
G1 X116.059 Y97.854 E0.07877 F1200
G1 X116.897 Y98.296 E0.07884 F1200
G1 X117.703 Y98.797 E0.07890 F1200
G1 X118.473 Y99.353 E0.07896 F1200
G1 X119.203 Y99.962 E0.07903 F1200
G1 X119.889 Y100.621 E0.07909 F1200
G1 X120.528 Y101.327 E0.07916 F1200
G1 X121.116 Y102.076 E0.07922 F1200
G1 X121.651 Y102.865 E0.07929 F1200
G1 X122.131 Y103.690 E0.07935 F1200
G1 X122.552 Y104.547 E0.07942 F1200
G1 X122.912 Y105.433 E0.07948 F1200
G1 X123.210 Y106.342 E0.07955 F1200
G1 X123.444 Y107.270 E0.07961 F1200
G1 X123.613 Y108.214 E0.07967 F1200
G1 X123.715 Y109.167 E0.07974 F1200
G1 X123.751 Y110.126 E0.07980 F1200
G1 X123.720 Y111.086 E0.07987 F1200
G1 X123.621 Y112.042 E0.07993 F1200
G1 X123.457 Y112.990 E0.08000 F1200
G1 X123.226 Y113.925 E0.08006 F1200
G1 X122.930 Y114.842 E0.08013 F1200
G1 X122.571 Y115.737 E0.08019 F1200
G1 X122.150 Y116.606 E0.08025 F1200
G1 X121.669 Y117.443 E0.08032 F1200
G1 X121.130 Y118.246 E0.08038 F1200
G1 X120.536 Y119.009 E0.08045 F1200
G1 X119.889 Y119.730 E0.08051 F1200
G1 X119.194 Y120.405 E0.08058 F1200
G1 X118.452 Y121.030 E0.08064 F1200
G1 X117.668 Y121.602 E0.08071 F1200
G1 X116.845 Y122.119 E0.08077 F1200
G1 X115.988 Y122.577 E0.08084 F1200
G1 X115.100 Y122.974 E0.08090 F1200
G1 X114.185 Y123.309 E0.08096 F1200
G1 X113.249 Y123.579 E0.08103 F1200
G1 X112.296 Y123.784 E0.08109 F1200
G1 X111.329 Y123.922 E0.08116 F1200
G1 X110.355 Y123.991 E0.08122 F1200
G1 X109.377 Y123.993 E0.08129 F1200
G1 X108.401 Y123.927 E0.08135 F1200
G1 X107.431 Y123.792 E0.08142 F1200
G1 X106.473 Y123.590 E0.08148 F1200
G1 X105.529 Y123.321 E0.08155 F1200
G1 X104.607 Y122.987 E0.08161 F1200
G1 X103.709 Y122.589 E0.08167 F1200
G1 X102.840 Y122.129 E0.08174 F1200
G1 X102.005 Y121.609 E0.08180 F1200
G1 X101.207 Y121.032 E0.08187 F1200
G1 X100.451 Y120.399 E0.08193 F1200
G1 X99.741 Y119.716 E0.08200 F1200
G1 X99.080 Y118.983 E0.08206 F1200
G1 X98.470 Y118.206 E0.08213 F1200
G1 X97.916 Y117.387 E0.08219 F1200
G1 X97.421 Y116.531 E0.08225 F1200
G1 X96.985 Y115.642 E0.08232 F1200
G1 X96.613 Y114.724 E0.08238 F1200
G1 X96.305 Y113.781 E0.08245 F1200
G1 X96.064 Y112.819 E0.08251 F1200
G1 X95.890 Y111.841 E0.08258 F1200
G1 X95.785 Y110.852 E0.08264 F1200
G1 X95.749 Y109.858 E0.08271 F1200
G1 X95.783 Y108.864 E0.08277 F1200
G1 X95.886 Y107.873 E0.08284 F1200
G1 X96.058 Y106.891 E0.08290 F1200
G1 X96.298 Y105.922 E0.08296 F1200
G1 X96.605 Y104.972 E0.08303 F1200
G1 X96.979 Y104.045 E0.08309 F1200
G1 X97.416 Y103.146 E0.08316 F1200
G1 X97.916 Y102.279 E0.08322 F1200
G1 X98.475 Y101.448 E0.08329 F1200
G1 X99.091 Y100.657 E0.08335 F1200
G1 X99.762 Y99.911 E0.08342 F1200
G1 X100.483 Y99.213 E0.08348 F1200
G1 X101.253 Y98.566 E0.08355 F1200
G1 X102.065 Y97.975 E0.08361 F1200
G1 X102.918 Y97.441 E0.08367 F1200
G1 X103.807 Y96.967 E0.08374 F1200
G1 X104.728 Y96.556 E0.08380 F1200
G1 X105.675 Y96.211 E0.08387 F1200
G1 X106.645 Y95.932 E0.08393 F1200
G1 X107.633 Y95.721 E0.08400 F1200
G1 X108.634 Y95.580 E0.08406 F1200
G1 X109.643 Y95.508 E0.08413 F1200
G1 X110.656 Y95.508 E0.08419 F1200
G1 X111.667 Y95.578 E0.08425 F1200
G1 X112.671 Y95.718 E0.08432 F1200
G1 X113.664 Y95.929 E0.08438 F1200
G1 X114.640 Y96.208 E0.08445 F1200
G1 X115.596 Y96.555 E0.08451 F1200
G1 X116.525 Y96.968 E0.08458 F1200
G1 X117.424 Y97.446 E0.08464 F1200
G1 X118.288 Y97.985 E0.08471 F1200
G1 X119.113 Y98.584 E0.08477 F1200
G1 X119.895 Y99.240 E0.08484 F1200
G1 X120.630 Y99.949 E0.08490 F1200
G1 X121.314 Y100.708 E0.08496 F1200
G1 X121.944 Y101.513 E0.08503 F1200
G1 X122.516 Y102.362 E0.08509 F1200
G1 X123.028 Y103.248 E0.08516 F1200
G1 X123.478 Y104.170 E0.08522 F1200
G1 X123.862 Y105.120 E0.08529 F1200
G1 X124.180 Y106.097 E0.08535 F1200
G1 X124.428 Y107.093 E0.08542 F1200
G1 X124.607 Y108.106 E0.08548 F1200
G1 X124.715 Y109.129 E0.08555 F1200
G1 X124.751 Y110.158 E0.08561 F1200
G1 X124.715 Y111.188 E0.08567 F1200
G1 X124.607 Y112.213 E0.08574 F1200
G1 X124.428 Y113.229 E0.08580 F1200
G1 X124.178 Y114.231 E0.08587 F1200
G1 X123.859 Y115.214 E0.08593 F1200
G1 X123.471 Y116.173 E0.08600 F1200
G1 X123.018 Y117.103 E0.08606 F1200
G1 X122.500 Y118.000 E0.08613 F1200
G1 X121.920 Y118.859 E0.08619 F1200
G1 X121.281 Y119.677 E0.08625 F1200
G1 X120.586 Y120.448 E0.08632 F1200
G1 X119.839 Y121.170 E0.08638 F1200
G1 X119.042 Y121.838 E0.08645 F1200
G1 X118.200 Y122.449 E0.08651 F1200
G1 X117.317 Y123.001 E0.08658 F1200
G1 X116.397 Y123.490 E0.08664 F1200
G1 X115.444 Y123.913 E0.08671 F1200
G1 X114.464 Y124.270 E0.08677 F1200
G1 X113.460 Y124.557 E0.08684 F1200
G1 X112.437 Y124.774 E0.08690 F1200
G1 X111.402 Y124.919 E0.08696 F1200
G1 X110.357 Y124.992 E0.08703 F1200
G1 X109.310 Y124.991 E0.08709 F1200
G1 X108.264 Y124.918 E0.08716 F1200
G1 X107.226 Y124.771 E0.08722 F1200
G1 X106.199 Y124.552 E0.08729 F1200
G1 X105.189 Y124.262 E0.08735 F1200
G1 X104.202 Y123.902 E0.08742 F1200
G1 X103.241 Y123.474 E0.08748 F1200
G1 X102.312 Y122.979 E0.08755 F1200
G1 X101.418 Y122.420 E0.08761 F1200
G1 X100.566 Y121.799 E0.08767 F1200
G1 X99.758 Y121.121 E0.08774 F1200
G1 X98.999 Y120.387 E0.08780 F1200
G1 X98.292 Y119.601 E0.08787 F1200
G1 X97.642 Y118.767 E0.08793 F1200
G1 X97.051 Y117.889 E0.08800 F1200
G1 X96.522 Y116.971 E0.08806 F1200
G1 X96.058 Y116.018 E0.08813 F1200
G1 X95.662 Y115.035 E0.08819 F1200
G1 X95.335 Y114.025 E0.08825 F1200
G1 X95.079 Y112.994 E0.08832 F1200
G1 X94.895 Y111.947 E0.08838 F1200
G1 X94.785 Y110.889 E0.08845 F1200
G1 X94.749 Y109.825 E0.08851 F1200
G1 X94.787 Y108.761 E0.08858 F1200
G1 X94.900 Y107.701 E0.08864 F1200
G1 X95.086 Y106.650 E0.08871 F1200
G1 X95.346 Y105.615 E0.08877 F1200
G1 X95.677 Y104.599 E0.08884 F1200
G1 X96.079 Y103.608 E0.08890 F1200
G1 X96.549 Y102.647 E0.08896 F1200
G1 X97.085 Y101.720 E0.08903 F1200
G1 X97.686 Y100.833 E0.08909 F1200
G1 X98.347 Y99.989 E0.08916 F1200
G1 X99.066 Y99.192 E0.08922 F1200
G1 X99.839 Y98.447 E0.08929 F1200
G1 X100.663 Y97.758 E0.08935 F1200
G1 X101.534 Y97.127 E0.08942 F1200
G1 X102.448 Y96.558 E0.08948 F1200
G1 X103.399 Y96.054 E0.08954 F1200
G1 X104.384 Y95.617 E0.08961 F1200
G1 X105.398 Y95.249 E0.08967 F1200
G1 X106.436 Y94.953 E0.08974 F1200
G1 X107.493 Y94.730 E0.08980 F1200
G1 X108.563 Y94.582 E0.08987 F1200
G1 X109.642 Y94.508 E0.08993 F1200
G1 X110.725 Y94.510 E0.09000 F1200
G1 X111.805 Y94.587 E0.09006 F1200
G1 X112.878 Y94.739 E0.09013 F1200
G1 X113.939 Y94.967 E0.09019 F1200
G1 X114.982 Y95.268 E0.09025 F1200
G1 X116.002 Y95.641 E0.09032 F1200
G1 X116.994 Y96.085 E0.09038 F1200
G1 X117.954 Y96.597 E0.09045 F1200
G1 X118.876 Y97.176 E0.09051 F1200
G1 X119.756 Y97.817 E0.09058 F1200
G1 X120.590 Y98.520 E0.09064 F1200
G1 X121.373 Y99.279 E0.09071 F1200
G1 X122.102 Y100.091 E0.09077 F1200
G1 X122.773 Y100.954 E0.09084 F1200
G1 X123.382 Y101.861 E0.09090 F1200
G1 X123.928 Y102.809 E0.09096 F1200
G1 X124.405 Y103.794 E0.09103 F1200
G1 X124.814 Y104.811 E0.09109 F1200
G1 X125.151 Y105.854 E0.09116 F1200
G1 X125.414 Y106.919 E0.09122 F1200
G1 X125.602 Y108.001 E0.09129 F1200
G1 X125.715 Y109.094 E0.09135 F1200
G1 X125.751 Y110.193 E0.09142 F1200
G1 X125.710 Y111.292 E0.09148 F1200
G1 X125.593 Y112.387 E0.09154 F1200
G1 X125.399 Y113.471 E0.09161 F1200
G1 X125.130 Y114.540 E0.09167 F1200
G1 X124.787 Y115.589 E0.09174 F1200
G1 X124.371 Y116.612 E0.09180 F1200
G1 X123.884 Y117.604 E0.09187 F1200
G1 X123.329 Y118.560 E0.09193 F1200
G1 X122.708 Y119.476 E0.09200 F1200
G1 X122.025 Y120.346 E0.09206 F1200
G1 X121.281 Y121.168 E0.09213 F1200
G1 X120.482 Y121.936 E0.09219 F1200
G1 X119.630 Y122.647 E0.09225 F1200
G1 X118.730 Y123.298 E0.09232 F1200
G1 X117.787 Y123.884 E0.09238 F1200
G1 X116.804 Y124.404 E0.09245 F1200
G1 X115.786 Y124.854 E0.09251 F1200
G1 X114.739 Y125.232 E0.09258 F1200
G1 X113.667 Y125.536 E0.09264 F1200
G1 X112.576 Y125.765 E0.09271 F1200
G1 X111.471 Y125.918 E0.09277 F1200
G1 X110.357 Y125.992 E0.09284 F1200
G1 X109.240 Y125.989 E0.09290 F1200
G1 X108.124 Y125.909 E0.09296 F1200
G1 X107.017 Y125.750 E0.09303 F1200
G1 X105.923 Y125.514 E0.09309 F1200
G1 X104.846 Y125.202 E0.09316 F1200
G1 X103.794 Y124.816 E0.09322 F1200
G1 X102.770 Y124.357 E0.09329 F1200
G1 X101.781 Y123.827 E0.09335 F1200
G1 X100.830 Y123.229 E0.09342 F1200
G1 X99.922 Y122.565 E0.09348 F1200
G1 X99.062 Y121.840 E0.09354 F1200
G1 X98.255 Y121.055 E0.09361 F1200
G1 X97.503 Y120.216 E0.09367 F1200
G1 X96.812 Y119.325 E0.09374 F1200
G1 X96.184 Y118.388 E0.09380 F1200
G1 X95.622 Y117.409 E0.09387 F1200
G1 X95.130 Y116.392 E0.09393 F1200
G1 X94.710 Y115.343 E0.09400 F1200
G1 X94.364 Y114.266 E0.09406 F1200
G1 X94.093 Y113.167 E0.09413 F1200
G1 X93.900 Y112.050 E0.09419 F1200
G1 X93.785 Y110.923 E0.09425 F1200
G1 X93.749 Y109.789 E0.09432 F1200
G1 X93.793 Y108.655 E0.09438 F1200
G1 X93.915 Y107.525 E0.09445 F1200
G1 X94.116 Y106.407 E0.09451 F1200
G1 X94.395 Y105.304 E0.09458 F1200
G1 X94.750 Y104.223 E0.09464 F1200
G1 X95.180 Y103.168 E0.09471 F1200
G1 X95.683 Y102.145 E0.09477 F1200
G1 X96.257 Y101.159 E0.09484 F1200
G1 X96.898 Y100.215 E0.09490 F1200
G1 X97.605 Y99.318 E0.09496 F1200
G1 X98.372 Y98.471 E0.09503 F1200
G1 X99.198 Y97.680 E0.09509 F1200
G1 X100.077 Y96.947 E0.09516 F1200
G1 X101.006 Y96.277 E0.09522 F1200
G1 X101.980 Y95.673 E0.09529 F1200
G1 X102.994 Y95.139 E0.09535 F1200
G1 X104.044 Y94.676 E0.09542 F1200
G1 X105.124 Y94.287 E0.09548 F1200
G1 X106.230 Y93.974 E0.09554 F1200
G1 X107.356 Y93.739 E0.09561 F1200
G1 X108.496 Y93.583 E0.09567 F1200
G1 X109.645 Y93.507 E0.09574 F1200
G1 X110.797 Y93.512 E0.09580 F1200
G1 X111.947 Y93.596 E0.09587 F1200
G1 X113.088 Y93.761 E0.09593 F1200
G1 X114.217 Y94.005 E0.09600 F1200
G1 X115.326 Y94.328 E0.09606 F1200
G1 X116.411 Y94.728 E0.09613 F1200
G1 X117.466 Y95.202 E0.09619 F1200
G1 X118.486 Y95.750 E0.09625 F1200
G1 X119.466 Y96.367 E0.09632 F1200
G1 X120.401 Y97.052 E0.09638 F1200
G1 X121.286 Y97.802 E0.09645 F1200
G1 X122.118 Y98.611 E0.09651 F1200
G1 X122.892 Y99.477 E0.09658 F1200
G1 X123.604 Y100.396 E0.09664 F1200
G1 X124.250 Y101.363 E0.09671 F1200
G1 X124.828 Y102.373 E0.09677 F1200
G1 X125.334 Y103.422 E0.09684 F1200
G1 X125.766 Y104.504 E0.09690 F1200
G1 X126.122 Y105.615 E0.09696 F1200
G1 X126.400 Y106.748 E0.09703 F1200
G1 X126.598 Y107.899 E0.09709 F1200
G1 X126.715 Y109.062 E0.09716 F1200
G1 X126.751 Y110.230 E0.09722 F1200
G1 X126.705 Y111.399 E0.09729 F1200
G1 X126.577 Y112.563 E0.09735 F1200
G1 X126.369 Y113.716 E0.09742 F1200
G1 X126.080 Y114.852 E0.09748 F1200
G1 X125.713 Y115.967 E0.09754 F1200
G1 X125.269 Y117.053 E0.09761 F1200
G1 X124.749 Y118.107 E0.09767 F1200
G1 X124.157 Y119.122 E0.09774 F1200
G1 X123.495 Y120.094 E0.09780 F1200
G1 X122.766 Y121.018 E0.09787 F1200
G1 X121.974 Y121.890 E0.09793 F1200
G1 X121.122 Y122.705 E0.09800 F1200
G1 X120.216 Y123.459 E0.09806 F1200
G1 X119.258 Y124.148 E0.09813 F1200
G1 X118.253 Y124.769 E0.09819 F1200
G1 X117.208 Y125.319 E0.09825 F1200
G1 X116.125 Y125.795 E0.09832 F1200
G1 X115.011 Y126.195 E0.09838 F1200
G1 X113.872 Y126.516 E0.09845 F1200
G1 X112.712 Y126.756 E0.09851 F1200
G1 X111.537 Y126.916 E0.09858 F1200
G1 X110.353 Y126.993 E0.09864 F1200
G1 X109.166 Y126.987 E0.09871 F1200
G1 X107.982 Y126.899 E0.09877 F1200
G1 X106.805 Y126.728 E0.09884 F1200
G1 X105.643 Y126.475 E0.09890 F1200
G1 X104.501 Y126.141 E0.09896 F1200
G1 X103.384 Y125.728 E0.09903 F1200
G1 X102.297 Y125.238 E0.09909 F1200
G1 X101.247 Y124.673 E0.09916 F1200
G1 X100.238 Y124.036 E0.09922 F1200
G1 X99.276 Y123.329 E0.09929 F1200
G1 X98.364 Y122.557 E0.09935 F1200
G1 X97.508 Y121.722 E0.09942 F1200
G1 X96.712 Y120.829 E0.09948 F1200
G1 X95.980 Y119.882 E0.09954 F1200
G1 X95.315 Y118.885 E0.09961 F1200
G1 X94.721 Y117.844 E0.09967 F1200
G1 X94.201 Y116.763 E0.09974 F1200
G1 X93.757 Y115.648 E0.09980 F1200
G1 X93.392 Y114.504 E0.09987 F1200
G1 X93.107 Y113.336 E0.09993 F1200
G1 X92.905 Y112.151 E0.10000 F1200
G1 X92.785 Y110.953 E0.10006 F1200
G1 X92.750 Y109.750 E0.10013 F1200
G1 X92.798 Y108.546 E0.10019 F1200
G1 X92.930 Y107.347 E0.10025 F1200
G1 X93.146 Y106.160 E0.10032 F1200
G1 X93.445 Y104.990 E0.10038 F1200
G1 X93.824 Y103.844 E0.10045 F1200
G1 X94.283 Y102.725 E0.10051 F1200
G1 X94.819 Y101.641 E0.10058 F1200
G1 X95.430 Y100.596 E0.10064 F1200
G1 X96.113 Y99.596 E0.10071 F1200
G1 X96.864 Y98.645 E0.10077 F1200
G1 X97.681 Y97.748 E0.10084 F1200
G1 X98.558 Y96.910 E0.10090 F1200
G1 X99.493 Y96.135 E0.10096 F1200
G1 X100.480 Y95.426 E0.10103 F1200
G1 X101.514 Y94.788 E0.10109 F1200
G1 X102.592 Y94.223 E0.10116 F1200
G1 X103.707 Y93.734 E0.10122 F1200
G1 X104.854 Y93.324 E0.10129 F1200
G1 X106.027 Y92.994 E0.10135 F1200
G1 X107.222 Y92.748 E0.10142 F1200
G1 X108.431 Y92.585 E0.10148 F1200
G1 X109.650 Y92.507 E0.10154 F1200
G1 X110.872 Y92.514 E0.10161 F1200
G1 X112.091 Y92.606 E0.10167 F1200
G1 X113.302 Y92.784 E0.10174 F1200
G1 X114.498 Y93.045 E0.10180 F1200
G1 X115.673 Y93.390 E0.10187 F1200
G1 X116.823 Y93.816 E0.10193 F1200
G1 X117.940 Y94.321 E0.10200 F1200
G1 X119.021 Y94.904 E0.10206 F1200
G1 X120.058 Y95.561 E0.10213 F1200
G1 X121.048 Y96.290 E0.10219 F1200
G1 X121.986 Y97.086 E0.10225 F1200
G1 X122.865 Y97.946 E0.10232 F1200
G1 X123.684 Y98.866 E0.10238 F1200
G1 X124.436 Y99.841 E0.10245 F1200
G1 X125.120 Y100.868 E0.10251 F1200
G1 X125.730 Y101.940 E0.10258 F1200
G1 X126.264 Y103.053 E0.10264 F1200
G1 X126.720 Y104.201 E0.10271 F1200
G1 X127.094 Y105.379 E0.10277 F1200
G1 X127.386 Y106.580 E0.10284 F1200
G1 X127.593 Y107.800 E0.10290 F1200
G1 X127.715 Y109.033 E0.10296 F1200
G1 X127.750 Y110.271 E0.10303 F1200
G1 X127.699 Y111.510 E0.10309 F1200
G1 X127.562 Y112.743 E0.10316 F1200
G1 X127.338 Y113.964 E0.10322 F1200
G1 X127.030 Y115.167 E0.10329 F1200
G1 X126.638 Y116.347 E0.10335 F1200
G1 X126.165 Y117.497 E0.10342 F1200
G1 X125.612 Y118.612 E0.10348 F1200
G1 X124.983 Y119.687 E0.10354 F1200
G1 X124.279 Y120.715 E0.10361 F1200
G1 X123.505 Y121.693 E0.10367 F1200
G1 X122.664 Y122.614 E0.10374 F1200
G1 X121.761 Y123.475 E0.10380 F1200
G1 X120.799 Y124.272 E0.10387 F1200
G1 X119.782 Y125.000 E0.10393 F1200
G1 X118.717 Y125.656 E0.10400 F1200
G1 X117.609 Y126.236 E0.10406 F1200
G1 X116.461 Y126.738 E0.10413 F1200
G1 X115.281 Y127.158 E0.10419 F1200
G1 X114.073 Y127.496 E0.10425 F1200
G1 X112.844 Y127.748 E0.10432 F1200
G1 X111.600 Y127.915 E0.10438 F1200
G1 X110.346 Y127.994 E0.10445 F1200
G1 X109.090 Y127.985 E0.10451 F1200
G1 X107.836 Y127.889 E0.10458 F1200
G1 X106.591 Y127.705 E0.10464 F1200
G1 X105.361 Y127.435 E0.10471 F1200
G1 X104.152 Y127.079 E0.10477 F1200
G1 X102.970 Y126.640 E0.10484 F1200
G1 X101.821 Y126.118 E0.10490 F1200
G1 X100.711 Y125.518 E0.10496 F1200
G1 X99.644 Y124.841 E0.10503 F1200
G1 X98.627 Y124.091 E0.10509 F1200
G1 X97.664 Y123.271 E0.10516 F1200
G1 X96.760 Y122.386 E0.10522 F1200
G1 X95.920 Y121.439 E0.10529 F1200
G1 X95.147 Y120.435 E0.10535 F1200
G1 X94.445 Y119.379 E0.10542 F1200
G1 X93.819 Y118.276 E0.10548 F1200
G1 X93.271 Y117.131 E0.10554 F1200
G1 X92.803 Y115.950 E0.10561 F1200
G1 X92.419 Y114.739 E0.10567 F1200
G1 X92.121 Y113.502 E0.10574 F1200
G1 X91.909 Y112.248 E0.10580 F1200
G1 X91.785 Y110.981 E0.10587 F1200
G1 X91.750 Y109.707 E0.10593 F1200
G1 X91.804 Y108.434 E0.10600 F1200
G1 X91.946 Y107.166 E0.10606 F1200
G1 X92.177 Y105.911 E0.10613 F1200
G1 X92.495 Y104.674 E0.10619 F1200
G1 X92.899 Y103.462 E0.10625 F1200
G1 X93.387 Y102.280 E0.10632 F1200
G1 X93.956 Y101.134 E0.10638 F1200
G1 X94.605 Y100.030 E0.10645 F1200
G1 X95.329 Y98.974 E0.10651 F1200
G1 X96.126 Y97.970 E0.10658 F1200
G1 X96.991 Y97.023 E0.10664 F1200
G1 X97.921 Y96.139 E0.10671 F1200
G1 X98.911 Y95.321 E0.10677 F1200
G1 X99.956 Y94.573 E0.10684 F1200
G1 X101.052 Y93.900 E0.10690 F1200
G1 X102.192 Y93.305 E0.10696 F1200
G1 X103.372 Y92.791 E0.10703 F1200
G1 X104.586 Y92.360 E0.10709 F1200
G1 X105.827 Y92.014 E0.10716 F1200
G1 X107.090 Y91.756 E0.10722 F1200
G1 X108.369 Y91.586 E0.10729 F1200
G1 X109.658 Y91.506 E0.10735 F1200
G1 X110.950 Y91.516 E0.10742 F1200
G1 X112.239 Y91.617 E0.10748 F1200
G1 X113.518 Y91.807 E0.10754 F1200
G1 X114.782 Y92.086 E0.10761 F1200
G1 X116.023 Y92.452 E0.10767 F1200
G1 X117.237 Y92.905 E0.10774 F1200
G1 X118.418 Y93.442 E0.10780 F1200
G1 X119.558 Y94.060 E0.10787 F1200
G1 X120.653 Y94.757 E0.10793 F1200
G1 X121.698 Y95.529 E0.10800 F1200
G1 X122.687 Y96.372 E0.10806 F1200
G1 X123.615 Y97.283 E0.10813 F1200
G1 X124.478 Y98.257 E0.10819 F1200
G1 X125.271 Y99.289 E0.10825 F1200
G1 X125.990 Y100.375 E0.10832 F1200
G1 X126.633 Y101.509 E0.10838 F1200
G1 X127.195 Y102.686 E0.10845 F1200
G1 X127.674 Y103.900 E0.10851 F1200
G1 X128.067 Y105.145 E0.10858 F1200
G1 X128.373 Y106.415 E0.10864 F1200
G1 X128.589 Y107.705 E0.10871 F1200
G1 X128.715 Y109.007 E0.10877 F1200
G1 X128.750 Y110.315 E0.10884 F1200
G1 X128.693 Y111.624 E0.10890 F1200
G1 X128.546 Y112.926 E0.10896 F1200
G1 X128.307 Y114.215 E0.10903 F1200
G1 X127.979 Y115.485 E0.10909 F1200
G1 X127.563 Y116.730 E0.10916 F1200
G1 X127.060 Y117.944 E0.10922 F1200
G1 X126.474 Y119.121 E0.10929 F1200
G1 X125.807 Y120.254 E0.10935 F1200
G1 X125.062 Y121.338 E0.10942 F1200
G1 X124.243 Y122.369 E0.10948 F1200
G1 X123.353 Y123.340 E0.10954 F1200
G1 X122.397 Y124.248 E0.10961 F1200
G1 X121.379 Y125.087 E0.10967 F1200
G1 X120.305 Y125.854 E0.10974 F1200
G1 X119.179 Y126.544 E0.10980 F1200
G1 X118.007 Y127.154 E0.10987 F1200
G1 X116.794 Y127.681 E0.10993 F1200
G1 X115.547 Y128.123 E0.11000 F1200
G1 X114.272 Y128.476 E0.11006 F1200
G1 X112.974 Y128.740 E0.11013 F1200
G1 X111.660 Y128.913 E0.11019 F1200
G1 X110.337 Y128.994 E0.11025 F1200
G1 X109.010 Y128.982 E0.11032 F1200
G1 X107.687 Y128.878 E0.11038 F1200
G1 X106.373 Y128.682 E0.11045 F1200
G1 X105.075 Y128.394 E0.11051 F1200
G1 X103.800 Y128.016 E0.11058 F1200
G1 X102.554 Y127.550 E0.11064 F1200
G1 X101.343 Y126.997 E0.11071 F1200
G1 X100.172 Y126.361 E0.11077 F1200
G1 X99.048 Y125.645 E0.11084 F1200
G1 X97.976 Y124.851 E0.11090 F1200
G1 X96.962 Y123.984 E0.11096 F1200
G1 X96.010 Y123.048 E0.11103 F1200
G1 X95.125 Y122.047 E0.11109 F1200
G1 X94.311 Y120.986 E0.11116 F1200
G1 X93.574 Y119.870 E0.11122 F1200
G1 X92.915 Y118.705 E0.11129 F1200
G1 X92.339 Y117.496 E0.11135 F1200
G1 X91.848 Y116.249 E0.11142 F1200
G1 X91.446 Y114.971 E0.11148 F1200
G1 X91.133 Y113.666 E0.11154 F1200
G1 X90.913 Y112.342 E0.11161 F1200
G1 X90.785 Y111.005 E0.11167 F1200
G1 X90.750 Y109.662 E0.11174 F1200
G1 X90.810 Y108.318 E0.11180 F1200
G1 X90.963 Y106.982 E0.11187 F1200
G1 X91.209 Y105.658 E0.11193 F1200
G1 X91.547 Y104.355 E0.11200 F1200
G1 X91.975 Y103.077 E0.11206 F1200
G1 X92.492 Y101.831 E0.11213 F1200
G1 X93.095 Y100.624 E0.11219 F1200
G1 X93.781 Y99.462 E0.11225 F1200
G1 X94.547 Y98.349 E0.11232 F1200
G1 X95.390 Y97.292 E0.11238 F1200
G1 X96.304 Y96.296 E0.11245 F1200
G1 X97.286 Y95.365 E0.11251 F1200
G1 X98.332 Y94.505 E0.11258 F1200
G1 X99.435 Y93.719 E0.11264 F1200
G1 X100.592 Y93.012 E0.11271 F1200
G1 X101.795 Y92.387 E0.11277 F1200
G1 X103.040 Y91.847 E0.11284 F1200
G1 X104.320 Y91.395 E0.11290 F1200
G1 X105.630 Y91.033 E0.11296 F1200
G1 X106.962 Y90.763 E0.11303 F1200
G1 X108.311 Y90.587 E0.11309 F1200
G1 X109.669 Y90.506 E0.11316 F1200
G1 X111.031 Y90.519 E0.11322 F1200
G1 X112.389 Y90.627 E0.11329 F1200
G1 X113.737 Y90.830 E0.11335 F1200
G1 X115.068 Y91.127 E0.11342 F1200
G1 X116.376 Y91.516 E0.11348 F1200
G1 X117.655 Y91.996 E0.11354 F1200
G1 X118.898 Y92.564 E0.11361 F1200
G1 X120.098 Y93.218 E0.11367 F1200
G1 X121.251 Y93.954 E0.11374 F1200
G1 X122.350 Y94.770 E0.11380 F1200
G1 X123.390 Y95.660 E0.11387 F1200
G1 X124.366 Y96.622 E0.11393 F1200
G1 X125.273 Y97.650 E0.11400 F1200
G1 X126.107 Y98.739 E0.11406 F1200
G1 X126.863 Y99.885 E0.11413 F1200
G1 X127.537 Y101.081 E0.11419 F1200
G1 X128.127 Y102.322 E0.11425 F1200
G1 X128.629 Y103.602 E0.11432 F1200
G1 X129.041 Y104.915 E0.11438 F1200
G1 X129.360 Y106.253 E0.11445 F1200
G1 X129.586 Y107.612 E0.11451 F1200
G1 X129.716 Y108.984 E0.11458 F1200
G1 X129.750 Y110.362 E0.11464 F1200
G1 X129.687 Y111.740 E0.11471 F1200
G1 X129.529 Y113.111 E0.11477 F1200
G1 X129.275 Y114.469 E0.11484 F1200
G1 X128.927 Y115.806 E0.11490 F1200
G1 X128.486 Y117.117 E0.11496 F1200
G1 X127.954 Y118.394 E0.11503 F1200
G1 X127.335 Y119.631 E0.11509 F1200
G1 X126.630 Y120.824 E0.11516 F1200
G1 X125.843 Y121.964 E0.11522 F1200
G1 X124.978 Y123.048 E0.11529 F1200
G1 X124.039 Y124.069 E0.11535 F1200
G1 X123.030 Y125.023 E0.11542 F1200
G1 X121.957 Y125.904 E0.11548 F1200
G1 X120.824 Y126.709 E0.11554 F1200
G1 X119.637 Y127.433 E0.11561 F1200
G1 X118.402 Y128.073 E0.11567 F1200
G1 X117.125 Y128.626 E0.11574 F1200
G1 X115.811 Y129.088 E0.11580 F1200
G1 X114.467 Y129.458 E0.11587 F1200
G1 X113.101 Y129.733 E0.11593 F1200
G1 X111.717 Y129.912 E0.11600 F1200
G1 X110.324 Y129.995 E0.11606 F1200
G1 X108.927 Y129.980 E0.11613 F1200
G1 X107.535 Y129.867 E0.11619 F1200
G1 X106.152 Y129.658 E0.11625 F1200
G1 X104.787 Y129.352 E0.11632 F1200
G1 X103.446 Y128.952 E0.11638 F1200
G1 X102.135 Y128.458 E0.11645 F1200
G1 X100.861 Y127.875 E0.11651 F1200
G1 X99.631 Y127.203 E0.11658 F1200
G1 X98.449 Y126.447 E0.11664 F1200
G1 X97.323 Y125.609 E0.11671 F1200
G1 X96.257 Y124.695 E0.11677 F1200
G1 X95.257 Y123.708 E0.11684 F1200
G1 X94.328 Y122.653 E0.11690 F1200
G1 X93.474 Y121.535 E0.11696 F1200
G1 X92.700 Y120.359 E0.11703 F1200
G1 X92.010 Y119.132 E0.11709 F1200
G1 X91.406 Y117.859 E0.11716 F1200
G1 X90.893 Y116.546 E0.11722 F1200
G1 X90.472 Y115.200 E0.11729 F1200
G1 X90.146 Y113.826 E0.11735 F1200
G1 X89.916 Y112.433 E0.11742 F1200
G1 X89.784 Y111.026 E0.11748 F1200
G1 X89.751 Y109.613 E0.11754 F1200
G1 X89.816 Y108.200 E0.11761 F1200
G1 X89.980 Y106.795 E0.11767 F1200
G1 X90.241 Y105.403 E0.11774 F1200
G1 X90.600 Y104.032 E0.11780 F1200
G1 X91.053 Y102.689 E0.11787 F1200
G1 X91.599 Y101.380 E0.11793 F1200
G1 X92.236 Y100.112 E0.11800 F1200
G1 X92.960 Y98.891 E0.11806 F1200
G1 X93.767 Y97.722 E0.11813 F1200
G1 X94.655 Y96.612 E0.11819 F1200
G1 X95.619 Y95.566 E0.11825 F1200
G1 X96.654 Y94.589 E0.11832 F1200
G1 X97.755 Y93.687 E0.11838 F1200
G1 X98.917 Y92.863 E0.11845 F1200
G1 X100.134 Y92.122 E0.11851 F1200
G1 X101.401 Y91.467 E0.11858 F1200
G1 X102.711 Y90.902 E0.11864 F1200
G1 X104.058 Y90.429 E0.11871 F1200
G1 X105.436 Y90.051 E0.11877 F1200
G1 X106.837 Y89.770 E0.11884 F1200
G1 X108.255 Y89.588 E0.11890 F1200
G1 X109.684 Y89.505 E0.11896 F1200
G1 X111.115 Y89.522 E0.11903 F1200
G1 X112.543 Y89.638 E0.11909 F1200
G1 X113.959 Y89.854 E0.11916 F1200
G1 X115.358 Y90.169 E0.11922 F1200
G1 X116.732 Y90.581 E0.11929 F1200
G1 X118.075 Y91.088 E0.11935 F1200
G1 X119.380 Y91.687 E0.11942 F1200
G1 X120.641 Y92.377 E0.11948 F1200
G1 X121.851 Y93.153 E0.11954 F1200
G1 X123.005 Y94.012 E0.11961 F1200
G1 X124.096 Y94.951 E0.11967 F1200
G1 X125.120 Y95.963 E0.11974 F1200
G1 X126.071 Y97.046 E0.11980 F1200
G1 X126.945 Y98.192 E0.11987 F1200
G1 X127.737 Y99.397 E0.11993 F1200
G1 X128.443 Y100.656 E0.12000 F1200
G1 X129.061 Y101.961 E0.12006 F1200
G1 X129.586 Y103.307 E0.12013 F1200
G1 X130.016 Y104.687 E0.12019 F1200
G1 X130.348 Y106.094 E0.12025 F1200
G1 X130.582 Y107.522 E0.12032 F1200
G1 X130.716 Y108.964 E0.12038 F1200
G1 X130.749 Y110.412 E0.12045 F1200
G1 X130.681 Y111.860 E0.12051 F1200
G1 X130.512 Y113.300 E0.12058 F1200
G1 X130.242 Y114.726 E0.12064 F1200
G1 X129.874 Y116.130 E0.12071 F1200
G1 X129.408 Y117.506 E0.12077 F1200
G1 X128.847 Y118.846 E0.12084 F1200
G1 X128.194 Y120.145 E0.12090 F1200
G1 X127.451 Y121.396 E0.12096 F1200
G1 X126.622 Y122.592 E0.12103 F1200
G1 X125.711 Y123.729 E0.12109 F1200
G1 X124.723 Y124.799 E0.12116 F1200
G1 X123.662 Y125.799 E0.12122 F1200
G1 X122.533 Y126.723 E0.12129 F1200
G1 X121.341 Y127.566 E0.12135 F1200
G1 X120.093 Y128.324 E0.12142 F1200
G1 X118.795 Y128.994 E0.12148 F1200
G1 X117.452 Y129.571 E0.12154 F1200
G1 X116.072 Y130.054 E0.12161 F1200
G1 X114.660 Y130.440 E0.12167 F1200
G1 X113.224 Y130.726 E0.12174 F1200
G1 X111.771 Y130.912 E0.12180 F1200
G1 X110.308 Y130.995 E0.12187 F1200
G1 X108.842 Y130.977 E0.12193 F1200
G1 X107.380 Y130.856 E0.12200 F1200
G1 X105.929 Y130.633 E0.12206 F1200
G1 X104.496 Y130.310 E0.12213 F1200
G1 X103.089 Y129.886 E0.12219 F1200
G1 X101.714 Y129.366 E0.12225 F1200
G1 X100.377 Y128.751 E0.12232 F1200
G1 X99.087 Y128.043 E0.12238 F1200
G1 X97.848 Y127.247 E0.12245 F1200
G1 X96.667 Y126.365 E0.12251 F1200
G1 X95.550 Y125.403 E0.12258 F1200
G1 X94.503 Y124.365 E0.12264 F1200
G1 X93.530 Y123.256 E0.12271 F1200
G1 X92.636 Y122.081 E0.12277 F1200
G1 X91.826 Y120.845 E0.12284 F1200
G1 X91.103 Y119.556 E0.12290 F1200
G1 X90.472 Y118.218 E0.12296 F1200
G1 X89.936 Y116.839 E0.12303 F1200
G1 X89.497 Y115.426 E0.12309 F1200
G1 X89.157 Y113.984 E0.12316 F1200
G1 X88.919 Y112.521 E0.12322 F1200
G1 X88.784 Y111.045 E0.12329 F1200
G1 X88.751 Y109.562 E0.12335 F1200
G1 X88.823 Y108.079 E0.12342 F1200
G1 X88.997 Y106.604 E0.12348 F1200
G1 X89.275 Y105.145 E0.12354 F1200
G1 X89.653 Y103.707 E0.12361 F1200
G1 X90.131 Y102.299 E0.12367 F1200
G1 X90.707 Y100.927 E0.12374 F1200
G1 X91.378 Y99.597 E0.12380 F1200
G1 X92.140 Y98.317 E0.12387 F1200
G1 X92.989 Y97.093 E0.12393 F1200
G1 X93.923 Y95.930 E0.12400 F1200
G1 X94.936 Y94.834 E0.12406 F1200
G1 X96.024 Y93.812 E0.12413 F1200
G1 X97.181 Y92.867 E0.12419 F1200
G1 X98.401 Y92.005 E0.12425 F1200
G1 X99.680 Y91.230 E0.12432 F1200
G1 X101.010 Y90.546 E0.12438 F1200
G1 X102.385 Y89.955 E0.12445 F1200
G1 X103.799 Y89.462 E0.12451 F1200
G1 X105.245 Y89.069 E0.12458 F1200
G1 X106.715 Y88.777 E0.12464 F1200
G1 X108.203 Y88.589 E0.12471 F1200
G1 X109.701 Y88.504 E0.12477 F1200
G1 X111.202 Y88.525 E0.12484 F1200
G1 X112.699 Y88.650 E0.12490 F1200
G1 X114.184 Y88.879 E0.12496 F1200
G1 X115.651 Y89.212 E0.12503 F1200
G1 X117.091 Y89.647 E0.12509 F1200
G1 X118.498 Y90.181 E0.12516 F1200
G1 X119.866 Y90.812 E0.12522 F1200
G1 X121.186 Y91.538 E0.12529 F1200
G1 X122.453 Y92.354 E0.12535 F1200
G1 X123.661 Y93.257 E0.12542 F1200
G1 X124.804 Y94.243 E0.12548 F1200
G1 X125.875 Y95.307 E0.12554 F1200
G1 X126.870 Y96.444 E0.12561 F1200
G1 X127.784 Y97.647 E0.12567 F1200
G1 X128.612 Y98.913 E0.12574 F1200
G1 X129.351 Y100.233 E0.12580 F1200
G1 X129.995 Y101.603 E0.12587 F1200
G1 X130.543 Y103.015 E0.12593 F1200
G1 X130.991 Y104.463 E0.12600 F1200
G1 X131.337 Y105.939 E0.12606 F1200
G1 X131.579 Y107.436 E0.12613 F1200
G1 X131.717 Y108.947 E0.12619 F1200
G1 X131.748 Y110.465 E0.12625 F1200
G1 X131.674 Y111.983 E0.12632 F1200
G1 X131.494 Y113.492 E0.12638 F1200
G1 X131.209 Y114.986 E0.12645 F1200
G1 X130.820 Y116.457 E0.12651 F1200
G1 X130.329 Y117.897 E0.12658 F1200
G1 X129.738 Y119.301 E0.12664 F1200
G1 X129.051 Y120.661 E0.12671 F1200
G1 X128.270 Y121.971 E0.12677 F1200
G1 X127.399 Y123.223 E0.12684 F1200
G1 X126.442 Y124.412 E0.12690 F1200
G1 X125.404 Y125.532 E0.12696 F1200
G1 X124.290 Y126.577 E0.12703 F1200
G1 X123.106 Y127.543 E0.12709 F1200
G1 X121.856 Y128.424 E0.12716 F1200
G1 X120.547 Y129.216 E0.12722 F1200
G1 X119.185 Y129.915 E0.12729 F1200
G1 X117.777 Y130.518 E0.12735 F1200
G1 X116.329 Y131.021 E0.12742 F1200
G1 X114.850 Y131.422 E0.12748 F1200
G1 X113.345 Y131.720 E0.12754 F1200
G1 X111.822 Y131.911 E0.12761 F1200
G1 X110.289 Y131.996 E0.12767 F1200
G1 X108.753 Y131.974 E0.12774 F1200
G1 X107.221 Y131.844 E0.12780 F1200
G1 X105.702 Y131.608 E0.12787 F1200
G1 X104.202 Y131.266 E0.12793 F1200
G1 X102.728 Y130.820 E0.12800 F1200
G1 X101.289 Y130.272 E0.12806 F1200
G1 X99.891 Y129.625 E0.12813 F1200
G1 X98.540 Y128.881 E0.12819 F1200
G1 X97.244 Y128.045 E0.12825 F1200
G1 X96.009 Y127.119 E0.12832 F1200
G1 X94.841 Y126.110 E0.12838 F1200
G1 X93.746 Y125.020 E0.12845 F1200
G1 X92.729 Y123.857 E0.12851 F1200
G1 X91.795 Y122.624 E0.12858 F1200
G1 X90.949 Y121.329 E0.12864 F1200
G1 X90.195 Y119.977 E0.12871 F1200
G1 X89.537 Y118.575 E0.12877 F1200
G1 X88.978 Y117.130 E0.12884 F1200
G1 X88.521 Y115.649 E0.12890 F1200
G1 X88.169 Y114.138 E0.12896 F1200
G1 X87.922 Y112.606 E0.12903 F1200
G1 X87.783 Y111.060 E0.12909 F1200
G1 X87.752 Y109.507 E0.12916 F1200
G1 X87.829 Y107.955 E0.12922 F1200
G1 X88.015 Y106.411 E0.12929 F1200
G1 X88.308 Y104.883 E0.12935 F1200
G1 X88.708 Y103.379 E0.12942 F1200
G1 X89.211 Y101.906 E0.12948 F1200
G1 X89.817 Y100.470 E0.12954 F1200
G1 X90.521 Y99.080 E0.12961 F1200
G1 X91.321 Y97.741 E0.12967 F1200
G1 X92.213 Y96.461 E0.12974 F1200
G1 X93.193 Y95.245 E0.12980 F1200
G1 X94.255 Y94.101 E0.12987 F1200
G1 X95.396 Y93.033 E0.12993 F1200
G1 X96.609 Y92.046 E0.13000 F1200
G1 X97.888 Y91.146 E0.13006 F1200
G1 X99.228 Y90.337 E0.13013 F1200
G1 X100.621 Y89.623 E0.13019 F1200
G1 X102.062 Y89.008 E0.13025 F1200
G1 X103.543 Y88.495 E0.13032 F1200
G1 X105.057 Y88.086 E0.13038 F1200
G1 X106.596 Y87.783 E0.13045 F1200
G1 X108.153 Y87.589 E0.13051 F1200
G1 X109.722 Y87.504 E0.13058 F1200
G1 X111.293 Y87.528 E0.13064 F1200
G1 X112.859 Y87.662 E0.13071 F1200
G1 X114.413 Y87.905 E0.13077 F1200
G1 X115.946 Y88.256 E0.13084 F1200
G1 X117.453 Y88.713 E0.13090 F1200
G1 X118.924 Y89.275 E0.13096 F1200
G1 X120.354 Y89.938 E0.13103 F1200
G1 X121.734 Y90.700 E0.13109 F1200
G1 X123.058 Y91.557 E0.13116 F1200
G1 X124.320 Y92.504 E0.13122 F1200
G1 X125.514 Y93.538 E0.13129 F1200
G1 X126.633 Y94.653 E0.13135 F1200
G1 X127.672 Y95.844 E0.13142 F1200
G1 X128.626 Y97.105 E0.13148 F1200
G1 X129.489 Y98.431 E0.13154 F1200
G1 X130.259 Y99.814 E0.13161 F1200
G1 X130.931 Y101.248 E0.13167 F1200
G1 X131.501 Y102.726 E0.13174 F1200
G1 X131.967 Y104.241 E0.13180 F1200
G1 X132.326 Y105.786 E0.13187 F1200
G1 X132.577 Y107.352 E0.13193 F1200
G1 X132.718 Y108.934 E0.13200 F1200
G1 X132.748 Y110.521 E0.13206 F1200
G1 X132.667 Y112.108 E0.13213 F1200
G1 X132.476 Y113.687 E0.13219 F1200
G1 X132.174 Y115.248 E0.13225 F1200
G1 X131.765 Y116.786 E0.13232 F1200
G1 X131.249 Y118.292 E0.13238 F1200
G1 X130.628 Y119.759 E0.13245 F1200
G1 X129.907 Y121.180 E0.13251 F1200
G1 X129.087 Y122.548 E0.13258 F1200
G1 X128.174 Y123.856 E0.13264 F1200
G1 X127.171 Y125.098 E0.13271 F1200
G1 X126.084 Y126.267 E0.13277 F1200
G1 X124.917 Y127.358 E0.13284 F1200
G1 X123.676 Y128.365 E0.13290 F1200
G1 X122.367 Y129.284 E0.13296 F1200
G1 X120.997 Y130.110 E0.13303 F1200
G1 X119.572 Y130.838 E0.13309 F1200
G1 X118.098 Y131.466 E0.13316 F1200
G1 X116.584 Y131.989 E0.13322 F1200
G1 X115.036 Y132.406 E0.13329 F1200
G1 X113.462 Y132.714 E0.13335 F1200
G1 X111.870 Y132.911 E0.13342 F1200
G1 X110.267 Y132.997 E0.13348 F1200
G1 X108.661 Y132.970 E0.13354 F1200
G1 X107.060 Y132.832 E0.13361 F1200
G1 X105.472 Y132.582 E0.13367 F1200
G1 X103.905 Y132.222 E0.13374 F1200
G1 X102.365 Y131.753 E0.13380 F1200
G1 X100.862 Y131.177 E0.13387 F1200
G1 X99.401 Y130.498 E0.13393 F1200
G1 X97.991 Y129.718 E0.13400 F1200
G1 X96.638 Y128.841 E0.13406 F1200
G1 X95.349 Y127.872 E0.13413 F1200
G1 X94.130 Y126.814 E0.13419 F1200
G1 X92.988 Y125.673 E0.13425 F1200
G1 X91.927 Y124.455 E0.13432 F1200
G1 X90.953 Y123.165 E0.13438 F1200
G1 X90.071 Y121.810 E0.13445 F1200
G1 X89.286 Y120.395 E0.13451 F1200
G1 X88.601 Y118.929 E0.13458 F1200
G1 X88.020 Y117.418 E0.13464 F1200
G1 X87.545 Y115.869 E0.13471 F1200
G1 X87.179 Y114.290 E0.13477 F1200
G1 X86.925 Y112.688 E0.13484 F1200
G1 X86.782 Y111.072 E0.13490 F1200
G1 X86.753 Y109.449 E0.13496 F1200
G1 X86.837 Y107.828 E0.13503 F1200
G1 X87.034 Y106.215 E0.13509 F1200
G1 X87.343 Y104.619 E0.13516 F1200
G1 X87.763 Y103.048 E0.13522 F1200
G1 X88.292 Y101.509 E0.13529 F1200
G1 X88.927 Y100.011 E0.13535 F1200
G1 X89.666 Y98.559 E0.13542 F1200
G1 X90.505 Y97.162 E0.13548 F1200
G1 X91.439 Y95.827 E0.13554 F1200
G1 X92.465 Y94.559 E0.13561 F1200
G1 X93.577 Y93.365 E0.13567 F1200
G1 X94.771 Y92.251 E0.13574 F1200
G1 X96.039 Y91.223 E0.13580 F1200
G1 X97.378 Y90.285 E0.13587 F1200
G1 X98.779 Y89.443 E0.13593 F1200
G1 X100.236 Y88.700 E0.13600 F1200
G1 X101.742 Y88.060 E0.13606 F1200
G1 X103.290 Y87.527 E0.13613 F1200
G1 X104.871 Y87.102 E0.13619 F1200
G1 X106.480 Y86.789 E0.13625 F1200
G1 X108.107 Y86.589 E0.13632 F1200
G1 X109.745 Y86.503 E0.13638 F1200
G1 X111.386 Y86.531 E0.13645 F1200
G1 X113.021 Y86.674 E0.13651 F1200
G1 X114.644 Y86.931 E0.13658 F1200
G1 X116.245 Y87.301 E0.13664 F1200
G1 X117.817 Y87.781 E0.13671 F1200
G1 X119.353 Y88.371 E0.13677 F1200
G1 X120.844 Y89.066 E0.13684 F1200
G1 X122.284 Y89.864 E0.13690 F1200
G1 X123.666 Y90.761 E0.13696 F1200
G1 X124.982 Y91.753 E0.13703 F1200
G1 X126.226 Y92.835 E0.13709 F1200
G1 X127.392 Y94.001 E0.13716 F1200
G1 X128.475 Y95.247 E0.13722 F1200
G1 X129.468 Y96.566 E0.13729 F1200
G1 X130.368 Y97.951 E0.13735 F1200
G1 X131.169 Y99.397 E0.13742 F1200
G1 X131.867 Y100.895 E0.13748 F1200
G1 X132.460 Y102.440 E0.13754 F1200
G1 X132.944 Y104.022 E0.13761 F1200
G1 X133.316 Y105.636 E0.13767 F1200
G1 X133.574 Y107.272 E0.13774 F1200
G1 X133.718 Y108.923 E0.13780 F1200
G1 X133.747 Y110.581 E0.13787 F1200
G1 X133.659 Y112.237 E0.13793 F1200
G1 X133.457 Y113.884 E0.13800 F1200
G1 X133.139 Y115.514 E0.13806 F1200
G1 X132.709 Y117.119 E0.13813 F1200
G1 X132.167 Y118.690 E0.13819 F1200
G1 X131.517 Y120.220 E0.13825 F1200
G1 X130.761 Y121.702 E0.13832 F1200
G1 X129.903 Y123.128 E0.13838 F1200
G1 X128.947 Y124.491 E0.13845 F1200
G1 X127.899 Y125.786 E0.13851 F1200
G1 X126.761 Y127.004 E0.13858 F1200
G1 X125.541 Y128.140 E0.13864 F1200
G1 X124.244 Y129.189 E0.13871 F1200
G1 X122.877 Y130.146 E0.13877 F1200
G1 X121.445 Y131.005 E0.13884 F1200
G1 X119.956 Y131.762 E0.13890 F1200
G1 X118.417 Y132.414 E0.13896 F1200
G1 X116.836 Y132.958 E0.13903 F1200
G1 X115.220 Y133.390 E0.13909 F1200
G1 X113.577 Y133.708 E0.13916 F1200
G1 X111.915 Y133.911 E0.13922 F1200
G1 X110.242 Y133.997 E0.13929 F1200
G1 X108.566 Y133.967 E0.13935 F1200
G1 X106.896 Y133.819 E0.13942 F1200
G1 X105.240 Y133.556 E0.13948 F1200
G1 X103.605 Y133.177 E0.13954 F1200
G1 X102.000 Y132.684 E0.13961 F1200
G1 X100.432 Y132.081 E0.13967 F1200
G1 X98.909 Y131.370 E0.13974 F1200
G1 X97.440 Y130.553 E0.13980 F1200
G1 X96.030 Y129.636 E0.13987 F1200
G1 X94.687 Y128.622 E0.13993 F1200
G1 X93.417 Y127.516 E0.14000 F1200
G1 X92.227 Y126.324 E0.14006 F1200
G1 X91.123 Y125.051 E0.14013 F1200
G1 X90.109 Y123.703 E0.14019 F1200
G1 X89.192 Y122.288 E0.14025 F1200
G1 X88.376 Y120.811 E0.14032 F1200
G1 X87.664 Y119.280 E0.14038 F1200
G1 X87.060 Y117.702 E0.14045 F1200
G1 X86.568 Y116.086 E0.14051 F1200
G1 X86.189 Y114.438 E0.14058 F1200
G1 X85.927 Y112.767 E0.14064 F1200
G1 X85.781 Y111.081 E0.14071 F1200
G1 X85.754 Y109.389 E0.14077 F1200
G1 X85.844 Y107.697 E0.14084 F1200
G1 X86.053 Y106.016 E0.14090 F1200
G1 X86.379 Y104.352 E0.14096 F1200
G1 X86.820 Y102.714 E0.14103 F1200
G1 X87.374 Y101.110 E0.14109 F1200
G1 X88.039 Y99.549 E0.14116 F1200
G1 X88.813 Y98.036 E0.14122 F1200
G1 X89.690 Y96.581 E0.14129 F1200
G1 X90.667 Y95.190 E0.14135 F1200
G1 X91.739 Y93.870 E0.14142 F1200
G1 X92.901 Y92.627 E0.14148 F1200
G1 X94.148 Y91.468 E0.14154 F1200
G1 X95.473 Y90.398 E0.14161 F1200
G1 X96.870 Y89.423 E0.14167 F1200
G1 X98.332 Y88.547 E0.14174 F1200
G1 X99.853 Y87.775 E0.14180 F1200
G1 X101.424 Y87.111 E0.14187 F1200
G1 X103.039 Y86.558 E0.14193 F1200
G1 X104.689 Y86.118 E0.14200 F1200
G1 X106.367 Y85.795 E0.14206 F1200
G1 X108.064 Y85.589 E0.14213 F1200
G1 X109.772 Y85.503 E0.14219 F1200
G1 X111.482 Y85.535 E0.14225 F1200
G1 X113.187 Y85.687 E0.14232 F1200
G1 X114.878 Y85.958 E0.14238 F1200
G1 X116.546 Y86.346 E0.14245 F1200
G1 X118.185 Y86.850 E0.14251 F1200
G1 X119.784 Y87.467 E0.14258 F1200
G1 X121.338 Y88.195 E0.14264 F1200
G1 X122.837 Y89.030 E0.14271 F1200
G1 X124.276 Y89.968 E0.14277 F1200
G1 X125.646 Y91.004 E0.14284 F1200
G1 X126.941 Y92.134 E0.14290 F1200
G1 X128.154 Y93.352 E0.14296 F1200
G1 X129.280 Y94.652 E0.14303 F1200
G1 X130.313 Y96.029 E0.14309 F1200
G1 X131.248 Y97.474 E0.14316 F1200
G1 X132.080 Y98.982 E0.14322 F1200
G1 X132.805 Y100.546 E0.14329 F1200
G1 X133.420 Y102.156 E0.14335 F1200
G1 X133.921 Y103.807 E0.14342 F1200
G1 X134.306 Y105.489 E0.14348 F1200
G1 X134.572 Y107.194 E0.14354 F1200
G1 X134.719 Y108.915 E0.14361 F1200
G1 X134.746 Y110.643 E0.14367 F1200
G1 X134.652 Y112.369 E0.14374 F1200
G1 X134.437 Y114.085 E0.14380 F1200
G1 X134.103 Y115.783 E0.14387 F1200
G1 X133.652 Y117.454 E0.14393 F1200
G1 X133.084 Y119.090 E0.14400 F1200
G1 X132.404 Y120.683 E0.14406 F1200
G1 X131.614 Y122.226 E0.14413 F1200
G1 X130.717 Y123.710 E0.14419 F1200
G1 X129.719 Y125.129 E0.14425 F1200
G1 X128.624 Y126.476 E0.14432 F1200
G1 X127.436 Y127.743 E0.14438 F1200
G1 X126.163 Y128.925 E0.14445 F1200
G1 X124.810 Y130.015 E0.14451 F1200
G1 X123.383 Y131.009 E0.14458 F1200
G1 X121.890 Y131.901 E0.14464 F1200
G1 X120.338 Y132.688 E0.14471 F1200
G1 X118.733 Y133.364 E0.14477 F1200
G1 X117.085 Y133.927 E0.14484 F1200
G1 X115.401 Y134.374 E0.14490 F1200
G1 X113.688 Y134.703 E0.14496 F1200
G1 X111.957 Y134.911 E0.14503 F1200
G1 X110.214 Y134.998 E0.14509 F1200
G1 X108.469 Y134.963 E0.14516 F1200
G1 X106.729 Y134.806 E0.14522 F1200
G1 X105.004 Y134.528 E0.14529 F1200
G1 X103.302 Y134.131 E0.14535 F1200
G1 X101.631 Y133.615 E0.14542 F1200
G1 X99.999 Y132.984 E0.14548 F1200
G1 X98.415 Y132.240 E0.14554 F1200
G1 X96.885 Y131.387 E0.14561 F1200
G1 X95.419 Y130.429 E0.14567 F1200
G1 X94.022 Y129.370 E0.14574 F1200
G1 X92.701 Y128.216 E0.14580 F1200
G1 X91.464 Y126.972 E0.14587 F1200
G1 X90.317 Y125.644 E0.14593 F1200
G1 X89.264 Y124.239 E0.14600 F1200
G1 X88.311 Y122.763 E0.14606 F1200
G1 X87.464 Y121.224 E0.14613 F1200
G1 X86.725 Y119.628 E0.14619 F1200
G1 X86.100 Y117.984 E0.14625 F1200
G1 X85.590 Y116.300 E0.14632 F1200
G1 X85.199 Y114.584 E0.14638 F1200
G1 X84.929 Y112.843 E0.14645 F1200
G1 X84.780 Y111.087 E0.14651 F1200
G1 X84.755 Y109.325 E0.14658 F1200
G1 X84.852 Y107.564 E0.14664 F1200
G1 X85.073 Y105.813 E0.14671 F1200
G1 X85.415 Y104.082 E0.14677 F1200
G1 X85.877 Y102.377 E0.14684 F1200
G1 X86.457 Y100.709 E0.14690 F1200
G1 X87.153 Y99.084 E0.14696 F1200
G1 X87.961 Y97.511 E0.14703 F1200
G1 X88.876 Y95.997 E0.14709 F1200
G1 X89.896 Y94.551 E0.14716 F1200
G1 X91.015 Y93.179 E0.14722 F1200
G1 X92.227 Y91.887 E0.14729 F1200
G1 X93.527 Y90.683 E0.14735 F1200
G1 X94.908 Y89.571 E0.14742 F1200
G1 X96.364 Y88.559 E0.14748 F1200
G1 X97.888 Y87.650 E0.14754 F1200
G1 X99.473 Y86.849 E0.14761 F1200
G1 X101.110 Y86.161 E0.14767 F1200
G1 X102.792 Y85.588 E0.14774 F1200
G1 X104.510 Y85.133 E0.14780 F1200
G1 X106.257 Y84.800 E0.14787 F1200
G1 X108.024 Y84.589 E0.14793 F1200
G1 X109.801 Y84.502 E0.14800 F1200
G1 X111.582 Y84.539 E0.14806 F1200
G1 X113.356 Y84.701 E0.14813 F1200
G1 X115.115 Y84.985 E0.14819 F1200
G1 X116.851 Y85.393 E0.14825 F1200
G1 X118.555 Y85.920 E0.14832 F1200
G1 X120.218 Y86.566 E0.14838 F1200
G1 X121.834 Y87.326 E0.14845 F1200
G1 X123.393 Y88.197 E0.14851 F1200
G1 X124.888 Y89.176 E0.14858 F1200
G1 X126.312 Y90.257 E0.14864 F1200
G1 X127.657 Y91.435 E0.14871 F1200
G1 X128.918 Y92.705 E0.14877 F1200
G1 X130.087 Y94.060 E0.14884 F1200
G1 X131.159 Y95.494 E0.14890 F1200
G1 X132.130 Y97.000 E0.14896 F1200
G1 X132.993 Y98.571 E0.14903 F1200
G1 X133.744 Y100.199 E0.14909 F1200
G1 X134.381 Y101.876 E0.14916 F1200
G1 X134.899 Y103.594 E0.14922 F1200
G1 X135.296 Y105.345 E0.14929 F1200
G1 X135.570 Y107.120 E0.14935 F1200
G1 X135.720 Y108.911 E0.14942 F1200
G1 X135.745 Y110.708 E0.14948 F1200
G1 X135.644 Y112.504 E0.14954 F1200
G1 X135.417 Y114.289 E0.14961 F1200
G1 X135.067 Y116.055 E0.14967 F1200
G1 X134.594 Y117.792 E0.14974 F1200
G1 X134.001 Y119.493 E0.14980 F1200
G1 X133.290 Y121.149 E0.14987 F1200
G1 X132.465 Y122.753 E0.14993 F1200
G1 X131.530 Y124.295 E0.15000 F1200
G1 X130.488 Y125.769 E0.15006 F1200
G1 X129.346 Y127.168 E0.15013 F1200
G1 X128.109 Y128.484 E0.15019 F1200
G1 X126.783 Y129.711 E0.15025 F1200
G1 X125.373 Y130.843 E0.15032 F1200
G1 X123.887 Y131.874 E0.15038 F1200
G1 X122.332 Y132.799 E0.15045 F1200
G1 X120.716 Y133.614 E0.15051 F1200
G1 X119.046 Y134.315 E0.15058 F1200
G1 X117.331 Y134.898 E0.15064 F1200
G1 X115.578 Y135.359 E0.15071 F1200
G1 X113.797 Y135.698 E0.15077 F1200
G1 X111.995 Y135.911 E0.15084 F1200
G1 X110.183 Y135.998 E0.15090 F1200
G1 X108.368 Y135.959 E0.15096 F1200
G1 X106.559 Y135.793 E0.15103 F1200
G1 X104.765 Y135.501 E0.15109 F1200
G1 X102.996 Y135.084 E0.15116 F1200
G1 X101.259 Y134.544 E0.15122 F1200
G1 X99.563 Y133.885 E0.15129 F1200
G1 X97.917 Y133.108 E0.15135 F1200
G1 X96.328 Y132.218 E0.15142 F1200
G1 X94.805 Y131.219 E0.15148 F1200
G1 X93.354 Y130.116 E0.15154 F1200
G1 X91.984 Y128.914 E0.15161 F1200
G1 X90.700 Y127.618 E0.15167 F1200
G1 X89.509 Y126.235 E0.15174 F1200
G1 X88.417 Y124.772 E0.15180 F1200
G1 X87.429 Y123.236 E0.15187 F1200
G1 X86.551 Y121.634 E0.15193 F1200
G1 X85.786 Y119.974 E0.15200 F1200
G1 X85.138 Y118.263 E0.15206 F1200
G1 X84.612 Y116.511 E0.15213 F1200
G1 X84.208 Y114.726 E0.15219 F1200
G1 X83.930 Y112.916 E0.15225 F1200
G1 X83.779 Y111.090 E0.15232 F1200
G1 X83.756 Y109.258 E0.15238 F1200
G1 X83.861 Y107.428 E0.15245 F1200
G1 X84.093 Y105.608 E0.15251 F1200
G1 X84.452 Y103.809 E0.15258 F1200
G1 X84.935 Y102.038 E0.15264 F1200
G1 X85.542 Y100.304 E0.15271 F1200
G1 X86.268 Y98.616 E0.15277 F1200
G1 X87.110 Y96.983 E0.15284 F1200
G1 X88.065 Y95.411 E0.15290 F1200
G1 X89.128 Y93.910 E0.15296 F1200
G1 X90.293 Y92.485 E0.15303 F1200
G1 X91.555 Y91.145 E0.15309 F1200
G1 X92.908 Y89.895 E0.15316 F1200
G1 X94.346 Y88.743 E0.15322 F1200
G1 X95.862 Y87.693 E0.15329 F1200
G1 X97.447 Y86.751 E0.15335 F1200
G1 X99.095 Y85.922 E0.15342 F1200
G1 X100.798 Y85.209 E0.15348 F1200
G1 X102.547 Y84.617 E0.15355 F1200
G1 X104.334 Y84.148 E0.15361 F1200
G1 X106.150 Y83.805 E0.15367 F1200
G1 X107.986 Y83.589 E0.15374 F1200
G1 X109.834 Y83.502 E0.15380 F1200
G1 X111.684 Y83.543 E0.15387 F1200
G1 X113.527 Y83.714 E0.15393 F1200
G1 X115.355 Y84.014 E0.15400 F1200
G1 X117.158 Y84.440 E0.15406 F1200
G1 X118.928 Y84.991 E0.15413 F1200
G1 X120.655 Y85.665 E0.15419 F1200
G1 X122.333 Y86.458 E0.15425 F1200
G1 X123.951 Y87.366 E0.15432 F1200
G1 X125.503 Y88.386 E0.15438 F1200
G1 X126.980 Y89.512 E0.15445 F1200
G1 X128.376 Y90.738 E0.15451 F1200
G1 X129.683 Y92.060 E0.15458 F1200
G1 X130.896 Y93.470 E0.15464 F1200
G1 X132.007 Y94.962 E0.15471 F1200
G1 X133.013 Y96.529 E0.15477 F1200
G1 X133.906 Y98.162 E0.15484 F1200
G1 X134.684 Y99.855 E0.15490 F1200
G1 X135.343 Y101.598 E0.15496 F1200
G1 X135.878 Y103.384 E0.15503 F1200
G1 X136.287 Y105.204 E0.15509 F1200
G1 X136.569 Y107.049 E0.15516 F1200
G1 X136.721 Y108.909 E0.15522 F1200
G1 X136.743 Y110.777 E0.15529 F1200
G1 X136.635 Y112.642 E0.15535 F1200
G1 X136.397 Y114.496 E0.15542 F1200
G1 X136.030 Y116.329 E0.15548 F1200
G1 X135.535 Y118.133 E0.15555 F1200
G1 X134.916 Y119.899 E0.15561 F1200
G1 X134.174 Y121.618 E0.15567 F1200
G1 X133.314 Y123.282 E0.15574 F1200
G1 X132.340 Y124.883 E0.15580 F1200
G1 X131.256 Y126.412 E0.15587 F1200
G1 X130.067 Y127.863 E0.15593 F1200
G1 X128.780 Y129.227 E0.15600 F1200
G1 X127.400 Y130.499 E0.15606 F1200
G1 X125.934 Y131.672 E0.15613 F1200
G1 X124.389 Y132.740 E0.15619 F1200
G1 X122.772 Y133.699 E0.15625 F1200
G1 X121.092 Y134.542 E0.15632 F1200
G1 X119.357 Y135.267 E0.15638 F1200
G1 X117.574 Y135.869 E0.15645 F1200
G1 X115.753 Y136.345 E0.15651 F1200
G1 X113.902 Y136.693 E0.15658 F1200
G1 X112.031 Y136.911 E0.15664 F1200
G1 X110.149 Y136.999 E0.15671 F1200
G1 X108.264 Y136.954 E0.15677 F1200
G1 X106.386 Y136.779 E0.15684 F1200
G1 X104.524 Y136.472 E0.15690 F1200
G1 X102.687 Y136.036 E0.15696 F1200
G1 X100.885 Y135.473 E0.15703 F1200
G1 X99.125 Y134.785 E0.15709 F1200
G1 X97.417 Y133.976 E0.15716 F1200
G1 X95.769 Y133.049 E0.15722 F1200
G1 X94.189 Y132.009 E0.15729 F1200
G1 X92.685 Y130.860 E0.15735 F1200
G1 X91.264 Y129.609 E0.15742 F1200
G1 X89.933 Y128.262 E0.15748 F1200
G1 X88.699 Y126.824 E0.15755 F1200
G1 X87.568 Y125.303 E0.15761 F1200
G1 X86.545 Y123.706 E0.15767 F1200
G1 X85.636 Y122.041 E0.15774 F1200
G1 X84.845 Y120.316 E0.15780 F1200
G1 X84.176 Y118.539 E0.15787 F1200
G1 X83.632 Y116.719 E0.15793 F1200
G1 X83.217 Y114.865 E0.15800 F1200
G1 X82.932 Y112.986 E0.15806 F1200
G1 X82.778 Y111.090 E0.15813 F1200
G1 X82.757 Y109.188 E0.15819 F1200
G1 X82.869 Y107.288 E0.15825 F1200
G1 X83.114 Y105.400 E0.15832 F1200
G1 X83.489 Y103.532 E0.15838 F1200
G1 X83.995 Y101.695 E0.15845 F1200
G1 X84.627 Y99.897 E0.15851 F1200
G1 X85.384 Y98.146 E0.15858 F1200
G1 X86.261 Y96.452 E0.15864 F1200
G1 X87.255 Y94.823 E0.15871 F1200
G1 X88.361 Y93.266 E0.15877 F1200
G1 X89.573 Y91.789 E0.15884 F1200
G1 X90.886 Y90.401 E0.15890 F1200
G1 X92.293 Y89.106 E0.15896 F1200
G1 X93.787 Y87.913 E0.15903 F1200
G1 X95.362 Y86.826 E0.15909 F1200
G1 X97.009 Y85.851 E0.15916 F1200
G1 X98.721 Y84.993 E0.15922 F1200
G1 X100.489 Y84.257 E0.15929 F1200
G1 X102.306 Y83.645 E0.15935 F1200
G1 X104.161 Y83.162 E0.15942 F1200
G1 X106.046 Y82.809 E0.15948 F1200
G1 X107.952 Y82.588 E0.15955 F1200
G1 X109.870 Y82.501 E0.15961 F1200
G1 X111.789 Y82.548 E0.15967 F1200
G1 X113.702 Y82.729 E0.15974 F1200
G1 X115.598 Y83.043 E0.15980 F1200
G1 X117.468 Y83.488 E0.15987 F1200
G1 X119.304 Y84.063 E0.15993 F1200
G1 X121.095 Y84.766 E0.16000 F1200
G1 X122.834 Y85.591 E0.16006 F1200
G1 X124.512 Y86.537 E0.16013 F1200
G1 X126.120 Y87.598 E0.16019 F1200
G1 X127.651 Y88.768 E0.16025 F1200
G1 X129.097 Y90.044 E0.16032 F1200
G1 X130.451 Y91.417 E0.16038 F1200
G1 X131.706 Y92.883 E0.16045 F1200
G1 X132.857 Y94.433 E0.16051 F1200
G1 X133.897 Y96.060 E0.16058 F1200
G1 X134.822 Y97.756 E0.16064 F1200
G1 X135.626 Y99.514 E0.16071 F1200
G1 X136.305 Y101.324 E0.16077 F1200
G1 X136.857 Y103.178 E0.16084 F1200
G1 X137.279 Y105.066 E0.16090 F1200
G1 X137.568 Y106.980 E0.16096 F1200
G1 X137.722 Y108.911 E0.16103 F1200
G1 X137.742 Y110.848 E0.16109 F1200
G1 X137.626 Y112.783 E0.16116 F1200
G1 X137.376 Y114.705 E0.16122 F1200
G1 X136.991 Y116.607 E0.16129 F1200
G1 X136.475 Y118.477 E0.16135 F1200
G1 X135.830 Y120.308 E0.16142 F1200
G1 X135.057 Y122.090 E0.16148 F1200
G1 X134.162 Y123.814 E0.16155 F1200
G1 X133.149 Y125.473 E0.16161 F1200
G1 X132.022 Y127.057 E0.16167 F1200
G1 X130.786 Y128.559 E0.16174 F1200
G1 X129.448 Y129.972 E0.16180 F1200
G1 X128.015 Y131.289 E0.16187 F1200
G1 X126.492 Y132.503 E0.16193 F1200
G1 X124.887 Y133.608 E0.16200 F1200
G1 X123.209 Y134.599 E0.16206 F1200
G1 X121.465 Y135.471 E0.16213 F1200
G1 X119.664 Y136.220 E0.16219 F1200
G1 X117.814 Y136.841 E0.16225 F1200
G1 X115.924 Y137.331 E0.16232 F1200
G1 X114.005 Y137.689 E0.16238 F1200
G1 X112.064 Y137.912 E0.16245 F1200
G1 X110.111 Y137.999 E0.16251 F1200
G1 X108.157 Y137.950 E0.16258 F1200
G1 X106.209 Y137.764 E0.16264 F1200
G1 X104.279 Y137.443 E0.16271 F1200
G1 X102.375 Y136.987 E0.16277 F1200
G1 X100.507 Y136.400 E0.16284 F1200
G1 X98.684 Y135.684 E0.16290 F1200
G1 X96.914 Y134.841 E0.16296 F1200
G1 X95.207 Y133.877 E0.16303 F1200
G1 X93.571 Y132.796 E0.16309 F1200
G1 X92.013 Y131.602 E0.16316 F1200
G1 X90.542 Y130.303 E0.16322 F1200
G1 X89.164 Y128.903 E0.16329 F1200
G1 X87.888 Y127.410 E0.16335 F1200
G1 X86.717 Y125.831 E0.16342 F1200
G1 X85.660 Y124.174 E0.16348 F1200
G1 X84.720 Y122.446 E0.16355 F1200
G1 X83.903 Y120.656 E0.16361 F1200
G1 X83.213 Y118.812 E0.16367 F1200
G1 X82.653 Y116.925 E0.16374 F1200
G1 X82.225 Y115.002 E0.16380 F1200
G1 X81.933 Y113.053 E0.16387 F1200
G1 X81.777 Y111.087 E0.16393 F1200
G1 X81.759 Y109.115 E0.16400 F1200
G1 X81.878 Y107.146 E0.16406 F1200
G1 X82.135 Y105.189 E0.16413 F1200
G1 X82.528 Y103.253 E0.16419 F1200
G1 X83.055 Y101.350 E0.16425 F1200
G1 X83.714 Y99.487 E0.16432 F1200
G1 X84.502 Y97.673 E0.16438 F1200
G1 X85.414 Y95.919 E0.16445 F1200
G1 X86.447 Y94.231 E0.16451 F1200
G1 X87.596 Y92.620 E0.16458 F1200
G1 X88.855 Y91.091 E0.16464 F1200
G1 X90.218 Y89.654 E0.16471 F1200
G1 X91.679 Y88.315 E0.16477 F1200
G1 X93.230 Y87.081 E0.16484 F1200
G1 X94.864 Y85.957 E0.16490 F1200
G1 X96.573 Y84.950 E0.16496 F1200
G1 X98.349 Y84.064 E0.16503 F1200
G1 X100.184 Y83.304 E0.16509 F1200
G1 X102.067 Y82.673 E0.16516 F1200
G1 X103.991 Y82.175 E0.16522 F1200
G1 X105.945 Y81.813 E0.16529 F1200
G1 X107.921 Y81.588 E0.16535 F1200
G1 X109.909 Y81.501 E0.16542 F1200
G1 X111.898 Y81.553 E0.16548 F1200
G1 X113.880 Y81.743 E0.16555 F1200
G1 X115.844 Y82.072 E0.16561 F1200
G1 X117.782 Y82.537 E0.16567 F1200
G1 X119.683 Y83.137 E0.16574 F1200
G1 X121.538 Y83.868 E0.16580 F1200
G1 X123.338 Y84.726 E0.16587 F1200
G1 X125.075 Y85.709 E0.16593 F1200
G1 X126.740 Y86.811 E0.16600 F1200
G1 X128.324 Y88.027 E0.16606 F1200
G1 X129.820 Y89.351 E0.16613 F1200
G1 X131.221 Y90.777 E0.16619 F1200
G1 X132.519 Y92.298 E0.16625 F1200
G1 X133.708 Y93.906 E0.16632 F1200
G1 X134.783 Y95.594 E0.16638 F1200
G1 X135.738 Y97.353 E0.16645 F1200
G1 X136.568 Y99.175 E0.16651 F1200
G1 X137.269 Y101.052 E0.16658 F1200
G1 X137.838 Y102.974 E0.16664 F1200
G1 X138.271 Y104.931 E0.16671 F1200
G1 X138.567 Y106.915 E0.16677 F1200
G1 X138.724 Y108.915 E0.16684 F1200
G1 X138.740 Y110.923 E0.16690 F1200
G1 X138.617 Y112.927 E0.16696 F1200
G1 X138.354 Y114.918 E0.16703 F1200
G1 X137.952 Y116.887 E0.16709 F1200
G1 X137.414 Y118.824 E0.16716 F1200
G1 X136.742 Y120.720 E0.16722 F1200
G1 X135.939 Y122.564 E0.16729 F1200
G1 X135.009 Y124.349 E0.16735 F1200
G1 X133.956 Y126.065 E0.16742 F1200
G1 X132.785 Y127.704 E0.16748 F1200
G1 X131.503 Y129.258 E0.16755 F1200
G1 X130.114 Y130.720 E0.16761 F1200
G1 X128.627 Y132.081 E0.16767 F1200
G1 X127.047 Y133.336 E0.16774 F1200
G1 X125.384 Y134.478 E0.16780 F1200
G1 X123.643 Y135.502 E0.16787 F1200
G1 X121.835 Y136.401 E0.16793 F1200
G1 X119.968 Y137.173 E0.16800 F1200
G1 X118.051 Y137.813 E0.16806 F1200
G1 X116.093 Y138.318 E0.16813 F1200
G1 X114.104 Y138.685 E0.16819 F1200
G1 X112.093 Y138.913 E0.16825 F1200
G1 X110.071 Y139.000 E0.16832 F1200
G1 X108.047 Y138.945 E0.16838 F1200
G1 X106.030 Y138.749 E0.16845 F1200
G1 X104.032 Y138.413 E0.16851 F1200
G1 X102.061 Y137.938 E0.16858 F1200
G1 X100.127 Y137.326 E0.16864 F1200
G1 X98.240 Y136.581 E0.16871 F1200
G1 X96.409 Y135.706 E0.16877 F1200
G1 X94.642 Y134.704 E0.16884 F1200
G1 X92.950 Y133.581 E0.16890 F1200
G1 X91.339 Y132.343 E0.16896 F1200
G1 X89.818 Y130.994 E0.16903 F1200
G1 X88.394 Y129.542 E0.16909 F1200
G1 X87.074 Y127.994 E0.16916 F1200
G1 X85.865 Y126.357 E0.16922 F1200
G1 X84.773 Y124.638 E0.16929 F1200
G1 X83.803 Y122.848 E0.16935 F1200
G1 X82.960 Y120.993 E0.16942 F1200
G1 X82.249 Y119.083 E0.16948 F1200
G1 X81.672 Y117.127 E0.16955 F1200
G1 X81.233 Y115.135 E0.16961 F1200
G1 X80.934 Y113.116 E0.16967 F1200
G1 X80.776 Y111.081 E0.16974 F1200
G1 X80.761 Y109.039 E0.16980 F1200
G1 X80.888 Y107.000 E0.16987 F1200
G1 X81.157 Y104.974 E0.16993 F1200
G1 X81.567 Y102.971 E0.17000 F1200
G1 X82.116 Y101.001 E0.17006 F1200
G1 X82.802 Y99.074 E0.17013 F1200
G1 X83.621 Y97.198 E0.17019 F1200
G1 X84.569 Y95.383 E0.17025 F1200
G1 X85.641 Y93.638 E0.17032 F1200
G1 X86.833 Y91.971 E0.17038 F1200
G1 X88.140 Y90.391 E0.17045 F1200
G1 X89.553 Y88.906 E0.17051 F1200
G1 X91.068 Y87.522 E0.17058 F1200
G1 X92.676 Y86.247 E0.17064 F1200
G1 X94.369 Y85.087 E0.17071 F1200
G1 X96.141 Y84.047 E0.17077 F1200
G1 X97.981 Y83.133 E0.17084 F1200
G1 X99.881 Y82.349 E0.17090 F1200
G1 X101.832 Y81.700 E0.17096 F1200
G1 X103.824 Y81.188 E0.17103 F1200
G1 X105.847 Y80.816 E0.17109 F1200
G1 X107.893 Y80.587 E0.17116 F1200
G1 X109.950 Y80.500 E0.17122 F1200
G1 X112.010 Y80.558 E0.17129 F1200
G1 X114.061 Y80.759 E0.17135 F1200
G1 X116.093 Y81.102 E0.17142 F1200
G1 X118.098 Y81.587 E0.17148 F1200
G1 X120.064 Y82.211 E0.17155 F1200
G1 X121.983 Y82.971 E0.17161 F1200
G1 X123.845 Y83.863 E0.17167 F1200
G1 X125.641 Y84.883 E0.17174 F1200
G1 X127.362 Y86.027 E0.17180 F1200
G1 X128.999 Y87.288 E0.17187 F1200
G1 X130.545 Y88.661 E0.17193 F1200
G1 X131.992 Y90.139 E0.17200 F1200
G1 X133.333 Y91.715 E0.17206 F1200
G1 X134.561 Y93.381 E0.17213 F1200
G1 X135.671 Y95.130 E0.17219 F1200
G1 X136.656 Y96.953 E0.17225 F1200
G1 X137.511 Y98.840 E0.17232 F1200
G1 X138.234 Y100.783 E0.17238 F1200
G1 X138.819 Y102.773 E0.17245 F1200
G1 X139.264 Y104.800 E0.17251 F1200
G1 X139.566 Y106.853 E0.17258 F1200
G1 X139.725 Y108.923 E0.17264 F1200
G1 X139.739 Y111.000 E0.17271 F1200
G1 X139.607 Y113.074 E0.17277 F1200
G1 X139.332 Y115.134 E0.17284 F1200
G1 X138.913 Y117.171 E0.17290 F1200
G1 X138.353 Y119.174 E0.17296 F1200
G1 X137.654 Y121.134 E0.17303 F1200
G1 X136.819 Y123.041 E0.17309 F1200
G1 X135.854 Y124.886 E0.17316 F1200
G1 X134.761 Y126.660 E0.17322 F1200
G1 X133.547 Y128.354 E0.17329 F1200
G1 X132.218 Y129.960 E0.17335 F1200
G1 X130.778 Y131.469 E0.17342 F1200
G1 X129.237 Y132.875 E0.17348 F1200
G1 X127.601 Y134.171 E0.17355 F1200
G1 X125.877 Y135.349 E0.17361 F1200
G1 X124.075 Y136.405 E0.17367 F1200
G1 X122.203 Y137.333 E0.17374 F1200
G1 X120.270 Y138.128 E0.17380 F1200
G1 X118.285 Y138.787 E0.17387 F1200
G1 X116.259 Y139.306 E0.17393 F1200
G1 X114.200 Y139.682 E0.17400 F1200
G1 X112.120 Y139.914 E0.17406 F1200
G1 X110.028 Y140.000 E0.17413 F1200
G1 X107.933 Y139.940 E0.17419 F1200
G1 X105.848 Y139.734 E0.17425 F1200
G1 X103.781 Y139.382 E0.17432 F1200
G1 X101.743 Y138.887 E0.17438 F1200
G1 X99.744 Y138.251 E0.17445 F1200
G1 X97.793 Y137.477 E0.17451 F1200
G1 X95.901 Y136.568 E0.17458 F1200
G1 X94.075 Y135.529 E0.17464 F1200
G1 X92.326 Y134.365 E0.17471 F1200
G1 X90.662 Y133.081 E0.17477 F1200
G1 X89.091 Y131.683 E0.17484 F1200
G1 X87.621 Y130.179 E0.17490 F1200
G1 X86.259 Y128.575 E0.17496 F1200
G1 X85.011 Y126.880 E0.17503 F1200
G1 X83.885 Y125.101 E0.17509 F1200
G1 X82.885 Y123.247 E0.17516 F1200
G1 X82.017 Y121.327 E0.17522 F1200
G1 X81.284 Y119.350 E0.17529 F1200
G1 X80.691 Y117.326 E0.17535 F1200
G1 X80.240 Y115.265 E0.17542 F1200
G1 X79.934 Y113.177 E0.17548 F1200
G1 X79.775 Y111.072 E0.17555 F1200
G1 X79.762 Y108.960 E0.17561 F1200
G1 X79.898 Y106.852 E0.17567 F1200
G1 X80.180 Y104.757 E0.17574 F1200
G1 X80.607 Y102.686 E0.17580 F1200
G1 X81.179 Y100.650 E0.17587 F1200
G1 X81.891 Y98.658 E0.17593 F1200
G1 X82.741 Y96.719 E0.17600 F1200
G1 X83.724 Y94.844 E0.17606 F1200
G1 X84.837 Y93.041 E0.17613 F1200
G1 X86.073 Y91.320 E0.17619 F1200
G1 X87.426 Y89.689 E0.17626 F1200
G1 X88.890 Y88.155 E0.17632 F1200
G1 X90.459 Y86.727 E0.17638 F1200
G1 X92.124 Y85.411 E0.17645 F1200
G1 X93.877 Y84.215 E0.17651 F1200
G1 X95.710 Y83.143 E0.17658 F1200
G1 X97.615 Y82.201 E0.17664 F1200
G1 X99.581 Y81.394 E0.17671 F1200
G1 X101.599 Y80.726 E0.17677 F1200
G1 X103.660 Y80.200 E0.17684 F1200
G1 X105.753 Y79.820 E0.17690 F1200
G1 X107.868 Y79.586 E0.17696 F1200
G1 X109.995 Y79.500 E0.17703 F1200
G1 X112.124 Y79.563 E0.17709 F1200
G1 X114.244 Y79.774 E0.17716 F1200
G1 X116.345 Y80.133 E0.17722 F1200
G1 X118.417 Y80.638 E0.17729 F1200
G1 X120.449 Y81.286 E0.17735 F1200
G1 X122.431 Y82.075 E0.17742 F1200
G1 X124.354 Y83.001 E0.17748 F1200
G1 X126.209 Y84.059 E0.17755 F1200
G1 X127.986 Y85.244 E0.17761 F1200
;LAYER:1
;Z:0.600
;PLY:CAP
G1 Z0.600 F600
;TYPE:WALL
G1 E-1.0000 F2400
G1 Z1.000 F600 ; Zfix hop up
G0 X142.600 Y110.000 F9000
G1 Z0.600 F600 ; Zfix hop down
G1 E1.0000 F2400
G1 X142.521 Y112.274 E0.37841 F1800
G1 X142.283 Y114.537 E0.37841 F1800
G1 X141.888 Y116.778 E0.37841 F1800
G1 X141.337 Y118.986 E0.37841 F1800
G1 X140.634 Y121.150 E0.37841 F1800
G1 X139.782 Y123.260 E0.37841 F1800
G1 X138.784 Y125.305 E0.37841 F1800
G1 X137.646 Y127.275 E0.37841 F1800
G1 X136.374 Y129.162 E0.37841 F1800
G1 X134.973 Y130.955 E0.37841 F1800
G1 X133.450 Y132.646 E0.37841 F1800
G1 X131.814 Y134.227 E0.37841 F1800
G1 X130.071 Y135.689 E0.37841 F1800
G1 X128.230 Y137.027 E0.37841 F1800
G1 X126.300 Y138.232 E0.37841 F1800
G1 X124.291 Y139.301 E0.37841 F1800
G1 X122.212 Y140.226 E0.37841 F1800
G1 X120.074 Y141.004 E0.37841 F1800
G1 X117.887 Y141.632 E0.37841 F1800
G1 X115.661 Y142.105 E0.37841 F1800
G1 X113.408 Y142.421 E0.37841 F1800
G1 X111.138 Y142.580 E0.37841 F1800
G1 X108.862 Y142.580 E0.37841 F1800
G1 X106.592 Y142.421 E0.37841 F1800
G1 X104.339 Y142.105 E0.37841 F1800
G1 X102.113 Y141.632 E0.37841 F1800
G1 X99.926 Y141.004 E0.37841 F1800
G1 X97.788 Y140.226 E0.37841 F1800
G1 X95.709 Y139.301 E0.37841 F1800
G1 X93.700 Y138.232 E0.37841 F1800
G1 X91.770 Y137.027 E0.37841 F1800
G1 X89.929 Y135.689 E0.37841 F1800
G1 X88.186 Y134.227 E0.37841 F1800
G1 X86.550 Y132.646 E0.37841 F1800
G1 X85.027 Y130.955 E0.37841 F1800
G1 X83.626 Y129.162 E0.37841 F1800
G1 X82.354 Y127.275 E0.37841 F1800
G1 X81.216 Y125.305 E0.37841 F1800
G1 X80.218 Y123.260 E0.37841 F1800
G1 X79.366 Y121.150 E0.37841 F1800
G1 X78.663 Y118.986 E0.37841 F1800
G1 X78.112 Y116.778 E0.37841 F1800
G1 X77.717 Y114.537 E0.37841 F1800
G1 X77.479 Y112.274 E0.37841 F1800
G1 X77.400 Y110.000 E0.37841 F1800
G1 X77.479 Y107.726 E0.37841 F1800
G1 X77.717 Y105.463 E0.37841 F1800
G1 X78.112 Y103.222 E0.37841 F1800
G1 X78.663 Y101.014 E0.37841 F1800
G1 X79.366 Y98.850 E0.37841 F1800
G1 X80.218 Y96.740 E0.37841 F1800
G1 X81.216 Y94.695 E0.37841 F1800
G1 X82.354 Y92.725 E0.37841 F1800
G1 X83.626 Y90.838 E0.37841 F1800
G1 X85.027 Y89.045 E0.37841 F1800
G1 X86.550 Y87.354 E0.37841 F1800
G1 X88.186 Y85.773 E0.37841 F1800
G1 X89.929 Y84.311 E0.37841 F1800
G1 X91.770 Y82.973 E0.37841 F1800
G1 X93.700 Y81.768 E0.37841 F1800
G1 X95.709 Y80.699 E0.37841 F1800
G1 X97.788 Y79.774 E0.37841 F1800
G1 X99.926 Y78.996 E0.37841 F1800
G1 X102.113 Y78.368 E0.37841 F1800
G1 X104.339 Y77.895 E0.37841 F1800
G1 X106.592 Y77.579 E0.37841 F1800
G1 X108.862 Y77.420 E0.37841 F1800
G1 X111.138 Y77.420 E0.37841 F1800
G1 X113.408 Y77.579 E0.37841 F1800
G1 X115.661 Y77.895 E0.37841 F1800
G1 X117.887 Y78.368 E0.37841 F1800
G1 X120.074 Y78.996 E0.37841 F1800
G1 X122.212 Y79.774 E0.37841 F1800
G1 X124.291 Y80.699 E0.37841 F1800
G1 X126.300 Y81.768 E0.37841 F1800
G1 X128.230 Y82.973 E0.37841 F1800
G1 X130.071 Y84.311 E0.37841 F1800
G1 X131.814 Y85.773 E0.37841 F1800
G1 X133.450 Y87.354 E0.37841 F1800
G1 X134.973 Y89.045 E0.37841 F1800
G1 X136.374 Y90.838 E0.37841 F1800
G1 X137.646 Y92.725 E0.37841 F1800
G1 X138.784 Y94.695 E0.37841 F1800
G1 X139.782 Y96.740 E0.37841 F1800
G1 X140.634 Y98.850 E0.37841 F1800
G1 X141.337 Y101.014 E0.37841 F1800
G1 X141.888 Y103.222 E0.37841 F1800
G1 X142.283 Y105.463 E0.37841 F1800
G1 X142.521 Y107.726 E0.37841 F1800
G1 X142.600 Y110.000 E0.37841 F1800
G0 X141.600 Y110.000 F9000
G1 X141.523 Y112.204 E0.36680 F1800
G1 X141.292 Y114.398 E0.36680 F1800
G1 X140.909 Y116.570 E0.36680 F1800
G1 X140.376 Y118.710 E0.36680 F1800
G1 X139.694 Y120.808 E0.36680 F1800
G1 X138.868 Y122.853 E0.36680 F1800
G1 X137.901 Y124.835 E0.36680 F1800
G1 X136.798 Y126.745 E0.36680 F1800
G1 X135.565 Y128.574 E0.36680 F1800
G1 X134.207 Y130.312 E0.36680 F1800
G1 X132.731 Y131.951 E0.36680 F1800
G1 X131.145 Y133.483 E0.36680 F1800
G1 X129.455 Y134.901 E0.36680 F1800
G1 X127.670 Y136.198 E0.36680 F1800
G1 X125.800 Y137.366 E0.36680 F1800
G1 X123.853 Y138.402 E0.36680 F1800
G1 X121.838 Y139.299 E0.36680 F1800
G1 X119.765 Y140.053 E0.36680 F1800
G1 X117.645 Y140.661 E0.36680 F1800
G1 X115.487 Y141.120 E0.36680 F1800
G1 X113.303 Y141.427 E0.36680 F1800
G1 X111.103 Y141.581 E0.36680 F1800
G1 X108.897 Y141.581 E0.36680 F1800
G1 X106.697 Y141.427 E0.36680 F1800
G1 X104.513 Y141.120 E0.36680 F1800
G1 X102.355 Y140.661 E0.36680 F1800
G1 X100.235 Y140.053 E0.36680 F1800
G1 X98.162 Y139.299 E0.36680 F1800
G1 X96.147 Y138.402 E0.36680 F1800
G1 X94.200 Y137.366 E0.36680 F1800
G1 X92.330 Y136.198 E0.36680 F1800
G1 X90.545 Y134.901 E0.36680 F1800
G1 X88.855 Y133.483 E0.36680 F1800
G1 X87.269 Y131.951 E0.36680 F1800
G1 X85.793 Y130.312 E0.36680 F1800
G1 X84.435 Y128.574 E0.36680 F1800
G1 X83.202 Y126.745 E0.36680 F1800
G1 X82.099 Y124.835 E0.36680 F1800
G1 X81.132 Y122.853 E0.36680 F1800
G1 X80.306 Y120.808 E0.36680 F1800
G1 X79.624 Y118.710 E0.36680 F1800
G1 X79.091 Y116.570 E0.36680 F1800
G1 X78.708 Y114.398 E0.36680 F1800
G1 X78.477 Y112.204 E0.36680 F1800
G1 X78.400 Y110.000 E0.36680 F1800
G1 X78.477 Y107.796 E0.36680 F1800
G1 X78.708 Y105.602 E0.36680 F1800
G1 X79.091 Y103.430 E0.36680 F1800
G1 X79.624 Y101.290 E0.36680 F1800
G1 X80.306 Y99.192 E0.36680 F1800
G1 X81.132 Y97.147 E0.36680 F1800
G1 X82.099 Y95.165 E0.36680 F1800
G1 X83.202 Y93.255 E0.36680 F1800
G1 X84.435 Y91.426 E0.36680 F1800
G1 X85.793 Y89.688 E0.36680 F1800
G1 X87.269 Y88.049 E0.36680 F1800
G1 X88.855 Y86.517 E0.36680 F1800
G1 X90.545 Y85.099 E0.36680 F1800
G1 X92.330 Y83.802 E0.36680 F1800
G1 X94.200 Y82.634 E0.36680 F1800
G1 X96.147 Y81.598 E0.36680 F1800
G1 X98.162 Y80.701 E0.36680 F1800
G1 X100.235 Y79.947 E0.36680 F1800
G1 X102.355 Y79.339 E0.36680 F1800
G1 X104.513 Y78.880 E0.36680 F1800
G1 X106.697 Y78.573 E0.36680 F1800
G1 X108.897 Y78.419 E0.36680 F1800
G1 X111.103 Y78.419 E0.36680 F1800
G1 X113.303 Y78.573 E0.36680 F1800
G1 X115.487 Y78.880 E0.36680 F1800
G1 X117.645 Y79.339 E0.36680 F1800
G1 X119.765 Y79.947 E0.36680 F1800
G1 X121.838 Y80.701 E0.36680 F1800
G1 X123.853 Y81.598 E0.36680 F1800
G1 X125.800 Y82.634 E0.36680 F1800
G1 X127.670 Y83.802 E0.36680 F1800
G1 X129.455 Y85.099 E0.36680 F1800
G1 X131.145 Y86.517 E0.36680 F1800
G1 X132.731 Y88.049 E0.36680 F1800
G1 X134.207 Y89.688 E0.36680 F1800
G1 X135.565 Y91.426 E0.36680 F1800
G1 X136.798 Y93.255 E0.36680 F1800
G1 X137.901 Y95.165 E0.36680 F1800
G1 X138.868 Y97.147 E0.36680 F1800
G1 X139.694 Y99.192 E0.36680 F1800
G1 X140.376 Y101.290 E0.36680 F1800
G1 X140.909 Y103.430 E0.36680 F1800
G1 X141.292 Y105.602 E0.36680 F1800
G1 X141.523 Y107.796 E0.36680 F1800
G1 X141.600 Y110.000 E0.36680 F1800
G1 E-1.0000 F2400
G1 Z1.000 F600 ; Zfix hop up
G0 X115.750 Y110.000 F9000
G1 Z0.600 F600 ; Zfix hop down
G1 E1.0000 F2400
G1 X115.736 Y110.401 E0.06674 F1800
G1 X115.694 Y110.800 E0.06674 F1800
G1 X115.624 Y111.195 E0.06674 F1800
G1 X115.527 Y111.585 E0.06674 F1800
G1 X115.403 Y111.967 E0.06674 F1800
G1 X115.253 Y112.339 E0.06674 F1800
G1 X115.077 Y112.699 E0.06674 F1800
G1 X114.876 Y113.047 E0.06674 F1800
G1 X114.652 Y113.380 E0.06674 F1800
G1 X114.405 Y113.696 E0.06674 F1800
G1 X114.136 Y113.994 E0.06674 F1800
G1 X113.848 Y114.273 E0.06674 F1800
G1 X113.540 Y114.531 E0.06674 F1800
G1 X113.215 Y114.767 E0.06674 F1800
G1 X112.875 Y114.980 E0.06674 F1800
G1 X112.521 Y115.168 E0.06674 F1800
G1 X112.154 Y115.331 E0.06674 F1800
G1 X111.777 Y115.469 E0.06674 F1800
G1 X111.391 Y115.579 E0.06674 F1800
G1 X110.998 Y115.663 E0.06674 F1800
G1 X110.601 Y115.719 E0.06674 F1800
G1 X110.201 Y115.746 E0.06674 F1800
G1 X109.799 Y115.746 E0.06674 F1800
G1 X109.399 Y115.719 E0.06674 F1800
G1 X109.002 Y115.663 E0.06674 F1800
G1 X108.609 Y115.579 E0.06674 F1800
G1 X108.223 Y115.469 E0.06674 F1800
G1 X107.846 Y115.331 E0.06674 F1800
G1 X107.479 Y115.168 E0.06674 F1800
G1 X107.125 Y114.980 E0.06674 F1800
G1 X106.785 Y114.767 E0.06674 F1800
G1 X106.460 Y114.531 E0.06674 F1800
G1 X106.152 Y114.273 E0.06674 F1800
G1 X105.864 Y113.994 E0.06674 F1800
G1 X105.595 Y113.696 E0.06674 F1800
G1 X105.348 Y113.380 E0.06674 F1800
G1 X105.124 Y113.047 E0.06674 F1800
G1 X104.923 Y112.699 E0.06674 F1800
G1 X104.747 Y112.339 E0.06674 F1800
G1 X104.597 Y111.967 E0.06674 F1800
G1 X104.473 Y111.585 E0.06674 F1800
G1 X104.376 Y111.195 E0.06674 F1800
G1 X104.306 Y110.800 E0.06674 F1800
G1 X104.264 Y110.401 E0.06674 F1800
G1 X104.250 Y110.000 E0.06674 F1800
G1 X104.264 Y109.599 E0.06674 F1800
G1 X104.306 Y109.200 E0.06674 F1800
G1 X104.376 Y108.805 E0.06674 F1800
G1 X104.473 Y108.415 E0.06674 F1800
G1 X104.597 Y108.033 E0.06674 F1800
G1 X104.747 Y107.661 E0.06674 F1800
G1 X104.923 Y107.301 E0.06674 F1800
G1 X105.124 Y106.953 E0.06674 F1800
G1 X105.348 Y106.620 E0.06674 F1800
G1 X105.595 Y106.304 E0.06674 F1800
G1 X105.864 Y106.006 E0.06674 F1800
G1 X106.152 Y105.727 E0.06674 F1800
G1 X106.460 Y105.469 E0.06674 F1800
G1 X106.785 Y105.233 E0.06674 F1800
G1 X107.125 Y105.020 E0.06674 F1800
G1 X107.479 Y104.832 E0.06674 F1800
G1 X107.846 Y104.669 E0.06674 F1800
G1 X108.223 Y104.531 E0.06674 F1800
G1 X108.609 Y104.421 E0.06674 F1800
G1 X109.002 Y104.337 E0.06674 F1800
G1 X109.399 Y104.281 E0.06674 F1800
G1 X109.799 Y104.254 E0.06674 F1800
G1 X110.201 Y104.254 E0.06674 F1800
G1 X110.601 Y104.281 E0.06674 F1800
G1 X110.998 Y104.337 E0.06674 F1800
G1 X111.391 Y104.421 E0.06674 F1800
G1 X111.777 Y104.531 E0.06674 F1800
G1 X112.154 Y104.669 E0.06674 F1800
G1 X112.521 Y104.832 E0.06674 F1800
G1 X112.875 Y105.020 E0.06674 F1800
G1 X113.215 Y105.233 E0.06674 F1800
G1 X113.540 Y105.469 E0.06674 F1800
G1 X113.848 Y105.727 E0.06674 F1800
G1 X114.136 Y106.006 E0.06674 F1800
G1 X114.405 Y106.304 E0.06674 F1800
G1 X114.652 Y106.620 E0.06674 F1800
G1 X114.876 Y106.953 E0.06674 F1800
G1 X115.077 Y107.301 E0.06674 F1800
G1 X115.253 Y107.661 E0.06674 F1800
G1 X115.403 Y108.033 E0.06674 F1800
G1 X115.527 Y108.415 E0.06674 F1800
G1 X115.624 Y108.805 E0.06674 F1800
G1 X115.694 Y109.200 E0.06674 F1800
G1 X115.736 Y109.599 E0.06674 F1800
G1 X115.750 Y110.000 E0.06674 F1800
G0 X116.750 Y110.000 F9000
G1 X116.734 Y110.471 E0.07835 F1800
G1 X116.684 Y110.939 E0.07835 F1800
G1 X116.602 Y111.403 E0.07835 F1800
G1 X116.489 Y111.861 E0.07835 F1800
G1 X116.343 Y112.309 E0.07835 F1800
G1 X116.166 Y112.745 E0.07835 F1800
G1 X115.960 Y113.169 E0.07835 F1800
G1 X115.724 Y113.577 E0.07835 F1800
G1 X115.461 Y113.968 E0.07835 F1800
G1 X115.171 Y114.339 E0.07835 F1800
G1 X114.856 Y114.689 E0.07835 F1800
G1 X114.517 Y115.016 E0.07835 F1800
G1 X114.156 Y115.319 E0.07835 F1800
G1 X113.775 Y115.596 E0.07835 F1800
G1 X113.375 Y115.846 E0.07835 F1800
G1 X112.959 Y116.067 E0.07835 F1800
G1 X112.529 Y116.258 E0.07835 F1800
G1 X112.086 Y116.420 E0.07835 F1800
G1 X111.633 Y116.549 E0.07835 F1800
G1 X111.172 Y116.647 E0.07835 F1800
G1 X110.706 Y116.713 E0.07835 F1800
G1 X110.236 Y116.746 E0.07835 F1800
G1 X109.764 Y116.746 E0.07835 F1800
G1 X109.294 Y116.713 E0.07835 F1800
G1 X108.828 Y116.647 E0.07835 F1800
G1 X108.367 Y116.549 E0.07835 F1800
G1 X107.914 Y116.420 E0.07835 F1800
G1 X107.471 Y116.258 E0.07835 F1800
G1 X107.041 Y116.067 E0.07835 F1800
G1 X106.625 Y115.846 E0.07835 F1800
G1 X106.225 Y115.596 E0.07835 F1800
G1 X105.844 Y115.319 E0.07835 F1800
G1 X105.483 Y115.016 E0.07835 F1800
G1 X105.144 Y114.689 E0.07835 F1800
G1 X104.829 Y114.339 E0.07835 F1800
G1 X104.539 Y113.968 E0.07835 F1800
G1 X104.276 Y113.577 E0.07835 F1800
G1 X104.040 Y113.169 E0.07835 F1800
G1 X103.834 Y112.745 E0.07835 F1800
G1 X103.657 Y112.309 E0.07835 F1800
G1 X103.511 Y111.861 E0.07835 F1800
G1 X103.398 Y111.403 E0.07835 F1800
G1 X103.316 Y110.939 E0.07835 F1800
G1 X103.266 Y110.471 E0.07835 F1800
G1 X103.250 Y110.000 E0.07835 F1800
G1 X103.266 Y109.529 E0.07835 F1800
G1 X103.316 Y109.061 E0.07835 F1800
G1 X103.398 Y108.597 E0.07835 F1800
G1 X103.511 Y108.139 E0.07835 F1800
G1 X103.657 Y107.691 E0.07835 F1800
G1 X103.834 Y107.255 E0.07835 F1800
G1 X104.040 Y106.831 E0.07835 F1800
G1 X104.276 Y106.423 E0.07835 F1800
G1 X104.539 Y106.032 E0.07835 F1800
G1 X104.829 Y105.661 E0.07835 F1800
G1 X105.144 Y105.311 E0.07835 F1800
G1 X105.483 Y104.984 E0.07835 F1800
G1 X105.844 Y104.681 E0.07835 F1800
G1 X106.225 Y104.404 E0.07835 F1800
G1 X106.625 Y104.154 E0.07835 F1800
G1 X107.041 Y103.933 E0.07835 F1800
G1 X107.471 Y103.742 E0.07835 F1800
G1 X107.914 Y103.580 E0.07835 F1800
G1 X108.367 Y103.451 E0.07835 F1800
G1 X108.828 Y103.353 E0.07835 F1800
G1 X109.294 Y103.287 E0.07835 F1800
G1 X109.764 Y103.254 E0.07835 F1800
G1 X110.236 Y103.254 E0.07835 F1800
G1 X110.706 Y103.287 E0.07835 F1800
G1 X111.172 Y103.353 E0.07835 F1800
G1 X111.633 Y103.451 E0.07835 F1800
G1 X112.086 Y103.580 E0.07835 F1800
G1 X112.529 Y103.742 E0.07835 F1800
G1 X112.959 Y103.933 E0.07835 F1800
G1 X113.375 Y104.154 E0.07835 F1800
G1 X113.775 Y104.404 E0.07835 F1800
G1 X114.156 Y104.681 E0.07835 F1800
G1 X114.517 Y104.984 E0.07835 F1800
G1 X114.856 Y105.311 E0.07835 F1800
G1 X115.171 Y105.661 E0.07835 F1800
G1 X115.461 Y106.032 E0.07835 F1800
G1 X115.724 Y106.423 E0.07835 F1800
G1 X115.960 Y106.831 E0.07835 F1800
G1 X116.166 Y107.255 E0.07835 F1800
G1 X116.343 Y107.691 E0.07835 F1800
G1 X116.489 Y108.139 E0.07835 F1800
G1 X116.602 Y108.597 E0.07835 F1800
G1 X116.684 Y109.061 E0.07835 F1800
G1 X116.734 Y109.529 E0.07835 F1800
G1 X116.750 Y110.000 E0.07835 F1800
;TYPE:SOLID
G0 X117.750 Y110.000 F9000
G1 X117.742 Y110.542 E0.09006 F2100
G1 X117.697 Y111.082 E0.09019 F2100
G1 X117.613 Y111.619 E0.09032 F2100
G1 X117.492 Y112.149 E0.09045 F2100
G1 X117.335 Y112.670 E0.09058 F2100
G1 X117.141 Y113.180 E0.09071 F2100
G1 X116.911 Y113.676 E0.09084 F2100
G1 X116.647 Y114.155 E0.09097 F2100
G1 X116.350 Y114.615 E0.09110 F2100
