; ---- START (generic Marlin; replace with your printer's) ----
G90                      ; absolute XYZ
M83                      ; relative extrusion
M104 S210      ; set hotend
M140 S60         ; set bed
M190 S60         ; wait bed
M109 S210      ; wait hotend
G28                      ; home all
G1 Z5 F600
; prime line
G1 X10.0 Y10.0 Z0.2 F9000
G1 X210.0 Y10.0 E12 F1000
G92 E0
M83
;LAYER:0
;Z:0.200
;PLY:CAP
G1 Z0.200 F600
;TYPE:WALL
G1 E-1.0000 F2400
G1 Z0.600 F600 ; Zfix hop up
G0 X142.600 Y110.000 F9000
G1 Z0.200 F600 ; Zfix hop down
G1 E1.0000 F2400
G1 X142.521 Y112.274 E0.18920 F1200
G1 X142.283 Y114.537 E0.18920 F1200
G1 X141.888 Y116.778 E0.18920 F1200
G1 X141.337 Y118.986 E0.18920 F1200
G1 X140.634 Y121.150 E0.18920 F1200
G1 X139.782 Y123.260 E0.18920 F1200
G1 X138.784 Y125.305 E0.18920 F1200
G1 X137.646 Y127.275 E0.18920 F1200
G1 X136.374 Y129.162 E0.18920 F1200
G1 X134.973 Y130.955 E0.18920 F1200
G1 X133.450 Y132.646 E0.18920 F1200
G1 X131.814 Y134.227 E0.18920 F1200
G1 X130.071 Y135.689 E0.18920 F1200
G1 X128.230 Y137.027 E0.18920 F1200
G1 X126.300 Y138.232 E0.18920 F1200
G1 X124.291 Y139.301 E0.18920 F1200
G1 X122.212 Y140.226 E0.18920 F1200
G1 X120.074 Y141.004 E0.18920 F1200
G1 X117.887 Y141.632 E0.18920 F1200
G1 X115.661 Y142.105 E0.18920 F1200
G1 X113.408 Y142.421 E0.18920 F1200
G1 X111.138 Y142.580 E0.18920 F1200
G1 X108.862 Y142.580 E0.18920 F1200
G1 X106.592 Y142.421 E0.18920 F1200
G1 X104.339 Y142.105 E0.18920 F1200
G1 X102.113 Y141.632 E0.18920 F1200
G1 X99.926 Y141.004 E0.18920 F1200
G1 X97.788 Y140.226 E0.18920 F1200
G1 X95.709 Y139.301 E0.18920 F1200
G1 X93.700 Y138.232 E0.18920 F1200
G1 X91.770 Y137.027 E0.18920 F1200
G1 X89.929 Y135.689 E0.18920 F1200
G1 X88.186 Y134.227 E0.18920 F1200
G1 X86.550 Y132.646 E0.18920 F1200
G1 X85.027 Y130.955 E0.18920 F1200
G1 X83.626 Y129.162 E0.18920 F1200
G1 X82.354 Y127.275 E0.18920 F1200
G1 X81.216 Y125.305 E0.18920 F1200
G1 X80.218 Y123.260 E0.18920 F1200
G1 X79.366 Y121.150 E0.18920 F1200
G1 X78.663 Y118.986 E0.18920 F1200
G1 X78.112 Y116.778 E0.18920 F1200
G1 X77.717 Y114.537 E0.18920 F1200
G1 X77.479 Y112.274 E0.18920 F1200
G1 X77.400 Y110.000 E0.18920 F1200
G1 X77.479 Y107.726 E0.18920 F1200
G1 X77.717 Y105.463 E0.18920 F1200
G1 X78.112 Y103.222 E0.18920 F1200
G1 X78.663 Y101.014 E0.18920 F1200
G1 X79.366 Y98.850 E0.18920 F1200
G1 X80.218 Y96.740 E0.18920 F1200
G1 X81.216 Y94.695 E0.18920 F1200
G1 X82.354 Y92.725 E0.18920 F1200
G1 X83.626 Y90.838 E0.18920 F1200
G1 X85.027 Y89.045 E0.18920 F1200
G1 X86.550 Y87.354 E0.18920 F1200
G1 X88.186 Y85.773 E0.18920 F1200
G1 X89.929 Y84.311 E0.18920 F1200
G1 X91.770 Y82.973 E0.18920 F1200
G1 X93.700 Y81.768 E0.18920 F1200
G1 X95.709 Y80.699 E0.18920 F1200
G1 X97.788 Y79.774 E0.18920 F1200
G1 X99.926 Y78.996 E0.18920 F1200
G1 X102.113 Y78.368 E0.18920 F1200
G1 X104.339 Y77.895 E0.18920 F1200
G1 X106.592 Y77.579 E0.18920 F1200
G1 X108.862 Y77.420 E0.18920 F1200
G1 X111.138 Y77.420 E0.18920 F1200
G1 X113.408 Y77.579 E0.18920 F1200
G1 X115.661 Y77.895 E0.18920 F1200
G1 X117.887 Y78.368 E0.18920 F1200
G1 X120.074 Y78.996 E0.18920 F1200
G1 X122.212 Y79.774 E0.18920 F1200
G1 X124.291 Y80.699 E0.18920 F1200
G1 X126.300 Y81.768 E0.18920 F1200
G1 X128.230 Y82.973 E0.18920 F1200
G1 X130.071 Y84.311 E0.18920 F1200
G1 X131.814 Y85.773 E0.18920 F1200
G1 X133.450 Y87.354 E0.18920 F1200
G1 X134.973 Y89.045 E0.18920 F1200
G1 X136.374 Y90.838 E0.18920 F1200
G1 X137.646 Y92.725 E0.18920 F1200
G1 X138.784 Y94.695 E0.18920 F1200
G1 X139.782 Y96.740 E0.18920 F1200
G1 X140.634 Y98.850 E0.18920 F1200
G1 X141.337 Y101.014 E0.18920 F1200
G1 X141.888 Y103.222 E0.18920 F1200
G1 X142.283 Y105.463 E0.18920 F1200
G1 X142.521 Y107.726 E0.18920 F1200
G1 X142.600 Y110.000 E0.18920 F1200
G0 X141.600 Y110.000 F9000
G1 X141.523 Y112.204 E0.18340 F1200
G1 X141.292 Y114.398 E0.18340 F1200
G1 X140.909 Y116.570 E0.18340 F1200
G1 X140.376 Y118.710 E0.18340 F1200
G1 X139.694 Y120.808 E0.18340 F1200
G1 X138.868 Y122.853 E0.18340 F1200
G1 X137.901 Y124.835 E0.18340 F1200
G1 X136.798 Y126.745 E0.18340 F1200
G1 X135.565 Y128.574 E0.18340 F1200
G1 X134.207 Y130.312 E0.18340 F1200
G1 X132.731 Y131.951 E0.18340 F1200
G1 X131.145 Y133.483 E0.18340 F1200
G1 X129.455 Y134.901 E0.18340 F1200
G1 X127.670 Y136.198 E0.18340 F1200
G1 X125.800 Y137.366 E0.18340 F1200
G1 X123.853 Y138.402 E0.18340 F1200
G1 X121.838 Y139.299 E0.18340 F1200
G1 X119.765 Y140.053 E0.18340 F1200
G1 X117.645 Y140.661 E0.18340 F1200
G1 X115.487 Y141.120 E0.18340 F1200
G1 X113.303 Y141.427 E0.18340 F1200
G1 X111.103 Y141.581 E0.18340 F1200
G1 X108.897 Y141.581 E0.18340 F1200
G1 X106.697 Y141.427 E0.18340 F1200
G1 X104.513 Y141.120 E0.18340 F1200
G1 X102.355 Y140.661 E0.18340 F1200
G1 X100.235 Y140.053 E0.18340 F1200
G1 X98.162 Y139.299 E0.18340 F1200
G1 X96.147 Y138.402 E0.18340 F1200
G1 X94.200 Y137.366 E0.18340 F1200
G1 X92.330 Y136.198 E0.18340 F1200
G1 X90.545 Y134.901 E0.18340 F1200
G1 X88.855 Y133.483 E0.18340 F1200
G1 X87.269 Y131.951 E0.18340 F1200
G1 X85.793 Y130.312 E0.18340 F1200
G1 X84.435 Y128.574 E0.18340 F1200
G1 X83.202 Y126.745 E0.18340 F1200
G1 X82.099 Y124.835 E0.18340 F1200
G1 X81.132 Y122.853 E0.18340 F1200
G1 X80.306 Y120.808 E0.18340 F1200
G1 X79.624 Y118.710 E0.18340 F1200
G1 X79.091 Y116.570 E0.18340 F1200
G1 X78.708 Y114.398 E0.18340 F1200
G1 X78.477 Y112.204 E0.18340 F1200
G1 X78.400 Y110.000 E0.18340 F1200
G1 X78.477 Y107.796 E0.18340 F1200
G1 X78.708 Y105.602 E0.18340 F1200
G1 X79.091 Y103.430 E0.18340 F1200
G1 X79.624 Y101.290 E0.18340 F1200
G1 X80.306 Y99.192 E0.18340 F1200
G1 X81.132 Y97.147 E0.18340 F1200
G1 X82.099 Y95.165 E0.18340 F1200
G1 X83.202 Y93.255 E0.18340 F1200
G1 X84.435 Y91.426 E0.18340 F1200
G1 X85.793 Y89.688 E0.18340 F1200
G1 X87.269 Y88.049 E0.18340 F1200
G1 X88.855 Y86.517 E0.18340 F1200
G1 X90.545 Y85.099 E0.18340 F1200
G1 X92.330 Y83.802 E0.18340 F1200
G1 X94.200 Y82.634 E0.18340 F1200
G1 X96.147 Y81.598 E0.18340 F1200
G1 X98.162 Y80.701 E0.18340 F1200
G1 X100.235 Y79.947 E0.18340 F1200
G1 X102.355 Y79.339 E0.18340 F1200
G1 X104.513 Y78.880 E0.18340 F1200
G1 X106.697 Y78.573 E0.18340 F1200
G1 X108.897 Y78.419 E0.18340 F1200
G1 X111.103 Y78.419 E0.18340 F1200
G1 X113.303 Y78.573 E0.18340 F1200
G1 X115.487 Y78.880 E0.18340 F1200
G1 X117.645 Y79.339 E0.18340 F1200
G1 X119.765 Y79.947 E0.18340 F1200
G1 X121.838 Y80.701 E0.18340 F1200
G1 X123.853 Y81.598 E0.18340 F1200
G1 X125.800 Y82.634 E0.18340 F1200
G1 X127.670 Y83.802 E0.18340 F1200
G1 X129.455 Y85.099 E0.18340 F1200
G1 X131.145 Y86.517 E0.18340 F1200
G1 X132.731 Y88.049 E0.18340 F1200
G1 X134.207 Y89.688 E0.18340 F1200
G1 X135.565 Y91.426 E0.18340 F1200
G1 X136.798 Y93.255 E0.18340 F1200
G1 X137.901 Y95.165 E0.18340 F1200
G1 X138.868 Y97.147 E0.18340 F1200
G1 X139.694 Y99.192 E0.18340 F1200
G1 X140.376 Y101.290 E0.18340 F1200
G1 X140.909 Y103.430 E0.18340 F1200
G1 X141.292 Y105.602 E0.18340 F1200
G1 X141.523 Y107.796 E0.18340 F1200
G1 X141.600 Y110.000 E0.18340 F1200
G1 E-1.0000 F2400
G1 Z0.600 F600 ; Zfix hop up
G0 X115.750 Y110.000 F9000
G1 Z0.200 F600 ; Zfix hop down
G1 E1.0000 F2400
G1 X115.736 Y110.401 E0.03337 F1200
G1 X115.694 Y110.800 E0.03337 F1200
G1 X115.624 Y111.195 E0.03337 F1200
G1 X115.527 Y111.585 E0.03337 F1200
G1 X115.403 Y111.967 E0.03337 F1200
G1 X115.253 Y112.339 E0.03337 F1200
G1 X115.077 Y112.699 E0.03337 F1200
G1 X114.876 Y113.047 E0.03337 F1200
G1 X114.652 Y113.380 E0.03337 F1200
G1 X114.405 Y113.696 E0.03337 F1200
G1 X114.136 Y113.994 E0.03337 F1200
G1 X113.848 Y114.273 E0.03337 F1200
G1 X113.540 Y114.531 E0.03337 F1200
G1 X113.215 Y114.767 E0.03337 F1200
G1 X112.875 Y114.980 E0.03337 F1200
G1 X112.521 Y115.168 E0.03337 F1200
G1 X112.154 Y115.331 E0.03337 F1200
G1 X111.777 Y115.469 E0.03337 F1200
G1 X111.391 Y115.579 E0.03337 F1200
G1 X110.998 Y115.663 E0.03337 F1200
G1 X110.601 Y115.719 E0.03337 F1200
G1 X110.201 Y115.746 E0.03337 F1200
G1 X109.799 Y115.746 E0.03337 F1200
G1 X109.399 Y115.719 E0.03337 F1200
G1 X109.002 Y115.663 E0.03337 F1200
G1 X108.609 Y115.579 E0.03337 F1200
G1 X108.223 Y115.469 E0.03337 F1200
G1 X107.846 Y115.331 E0.03337 F1200
G1 X107.479 Y115.168 E0.03337 F1200
G1 X107.125 Y114.980 E0.03337 F1200
G1 X106.785 Y114.767 E0.03337 F1200
G1 X106.460 Y114.531 E0.03337 F1200
G1 X106.152 Y114.273 E0.03337 F1200
G1 X105.864 Y113.994 E0.03337 F1200
G1 X105.595 Y113.696 E0.03337 F1200
G1 X105.348 Y113.380 E0.03337 F1200
G1 X105.124 Y113.047 E0.03337 F1200
G1 X104.923 Y112.699 E0.03337 F1200
G1 X104.747 Y112.339 E0.03337 F1200
G1 X104.597 Y111.967 E0.03337 F1200
G1 X104.473 Y111.585 E0.03337 F1200
G1 X104.376 Y111.195 E0.03337 F1200
G1 X104.306 Y110.800 E0.03337 F1200
G1 X104.264 Y110.401 E0.03337 F1200
G1 X104.250 Y110.000 E0.03337 F1200
G1 X104.264 Y109.599 E0.03337 F1200
G1 X104.306 Y109.200 E0.03337 F1200
G1 X104.376 Y108.805 E0.03337 F1200
G1 X104.473 Y108.415 E0.03337 F1200
G1 X104.597 Y108.033 E0.03337 F1200
G1 X104.747 Y107.661 E0.03337 F1200
G1 X104.923 Y107.301 E0.03337 F1200
G1 X105.124 Y106.953 E0.03337 F1200
G1 X105.348 Y106.620 E0.03337 F1200
G1 X105.595 Y106.304 E0.03337 F1200
G1 X105.864 Y106.006 E0.03337 F1200
G1 X106.152 Y105.727 E0.03337 F1200
G1 X106.460 Y105.469 E0.03337 F1200
G1 X106.785 Y105.233 E0.03337 F1200
G1 X107.125 Y105.020 E0.03337 F1200
G1 X107.479 Y104.832 E0.03337 F1200
G1 X107.846 Y104.669 E0.03337 F1200
G1 X108.223 Y104.531 E0.03337 F1200
G1 X108.609 Y104.421 E0.03337 F1200
G1 X109.002 Y104.337 E0.03337 F1200
G1 X109.399 Y104.281 E0.03337 F1200
G1 X109.799 Y104.254 E0.03337 F1200
G1 X110.201 Y104.254 E0.03337 F1200
G1 X110.601 Y104.281 E0.03337 F1200
G1 X110.998 Y104.337 E0.03337 F1200
G1 X111.391 Y104.421 E0.03337 F1200
G1 X111.777 Y104.531 E0.03337 F1200
G1 X112.154 Y104.669 E0.03337 F1200
G1 X112.521 Y104.832 E0.03337 F1200
G1 X112.875 Y105.020 E0.03337 F1200
G1 X113.215 Y105.233 E0.03337 F1200
G1 X113.540 Y105.469 E0.03337 F1200
G1 X113.848 Y105.727 E0.03337 F1200
G1 X114.136 Y106.006 E0.03337 F1200
G1 X114.405 Y106.304 E0.03337 F1200
G1 X114.652 Y106.620 E0.03337 F1200
G1 X114.876 Y106.953 E0.03337 F1200
G1 X115.077 Y107.301 E0.03337 F1200
G1 X115.253 Y107.661 E0.03337 F1200
G1 X115.403 Y108.033 E0.03337 F1200
G1 X115.527 Y108.415 E0.03337 F1200
G1 X115.624 Y108.805 E0.03337 F1200
G1 X115.694 Y109.200 E0.03337 F1200
G1 X115.736 Y109.599 E0.03337 F1200
G1 X115.750 Y110.000 E0.03337 F1200
G0 X116.750 Y110.000 F9000
G1 X116.734 Y110.471 E0.03918 F1200
G1 X116.684 Y110.939 E0.03918 F1200
G1 X116.602 Y111.403 E0.03918 F1200
G1 X116.489 Y111.861 E0.03918 F1200
G1 X116.343 Y112.309 E0.03918 F1200
G1 X116.166 Y112.745 E0.03918 F1200
G1 X115.960 Y113.169 E0.03918 F1200
G1 X115.724 Y113.577 E0.03918 F1200
G1 X115.461 Y113.968 E0.03918 F1200
G1 X115.171 Y114.339 E0.03918 F1200
G1 X114.856 Y114.689 E0.03918 F1200
G1 X114.517 Y115.016 E0.03918 F1200
G1 X114.156 Y115.319 E0.03918 F1200
G1 X113.775 Y115.596 E0.03918 F1200
G1 X113.375 Y115.846 E0.03918 F1200
G1 X112.959 Y116.067 E0.03918 F1200
G1 X112.529 Y116.258 E0.03918 F1200
G1 X112.086 Y116.420 E0.03918 F1200
G1 X111.633 Y116.549 E0.03918 F1200
G1 X111.172 Y116.647 E0.03918 F1200
G1 X110.706 Y116.713 E0.03918 F1200
G1 X110.236 Y116.746 E0.03918 F1200
G1 X109.764 Y116.746 E0.03918 F1200
G1 X109.294 Y116.713 E0.03918 F1200
G1 X108.828 Y116.647 E0.03918 F1200
G1 X108.367 Y116.549 E0.03918 F1200
G1 X107.914 Y116.420 E0.03918 F1200
G1 X107.471 Y116.258 E0.03918 F1200
G1 X107.041 Y116.067 E0.03918 F1200
G1 X106.625 Y115.846 E0.03918 F1200
G1 X106.225 Y115.596 E0.03918 F1200
G1 X105.844 Y115.319 E0.03918 F1200
G1 X105.483 Y115.016 E0.03918 F1200
G1 X105.144 Y114.689 E0.03918 F1200
G1 X104.829 Y114.339 E0.03918 F1200
G1 X104.539 Y113.968 E0.03918 F1200
G1 X104.276 Y113.577 E0.03918 F1200
G1 X104.040 Y113.169 E0.03918 F1200
G1 X103.834 Y112.745 E0.03918 F1200
G1 X103.657 Y112.309 E0.03918 F1200
G1 X103.511 Y111.861 E0.03918 F1200
G1 X103.398 Y111.403 E0.03918 F1200
G1 X103.316 Y110.939 E0.03918 F1200
G1 X103.266 Y110.471 E0.03918 F1200
G1 X103.250 Y110.000 E0.03918 F1200
G1 X103.266 Y109.529 E0.03918 F1200
G1 X103.316 Y109.061 E0.03918 F1200
G1 X103.398 Y108.597 E0.03918 F1200
G1 X103.511 Y108.139 E0.03918 F1200
G1 X103.657 Y107.691 E0.03918 F1200
G1 X103.834 Y107.255 E0.03918 F1200
G1 X104.040 Y106.831 E0.03918 F1200
G1 X104.276 Y106.423 E0.03918 F1200
G1 X104.539 Y106.032 E0.03918 F1200
G1 X104.829 Y105.661 E0.03918 F1200
G1 X105.144 Y105.311 E0.03918 F1200
G1 X105.483 Y104.984 E0.03918 F1200
G1 X105.844 Y104.681 E0.03918 F1200
G1 X106.225 Y104.404 E0.03918 F1200
G1 X106.625 Y104.154 E0.03918 F1200
G1 X107.041 Y103.933 E0.03918 F1200
G1 X107.471 Y103.742 E0.03918 F1200
G1 X107.914 Y103.580 E0.03918 F1200
G1 X108.367 Y103.451 E0.03918 F1200
G1 X108.828 Y103.353 E0.03918 F1200
G1 X109.294 Y103.287 E0.03918 F1200
G1 X109.764 Y103.254 E0.03918 F1200
G1 X110.236 Y103.254 E0.03918 F1200
G1 X110.706 Y103.287 E0.03918 F1200
G1 X111.172 Y103.353 E0.03918 F1200
G1 X111.633 Y103.451 E0.03918 F1200
G1 X112.086 Y103.580 E0.03918 F1200
G1 X112.529 Y103.742 E0.03918 F1200
G1 X112.959 Y103.933 E0.03918 F1200
G1 X113.375 Y104.154 E0.03918 F1200
G1 X113.775 Y104.404 E0.03918 F1200
G1 X114.156 Y104.681 E0.03918 F1200
G1 X114.517 Y104.984 E0.03918 F1200
G1 X114.856 Y105.311 E0.03918 F1200
G1 X115.171 Y105.661 E0.03918 F1200
G1 X115.461 Y106.032 E0.03918 F1200
G1 X115.724 Y106.423 E0.03918 F1200
G1 X115.960 Y106.831 E0.03918 F1200
G1 X116.166 Y107.255 E0.03918 F1200
G1 X116.343 Y107.691 E0.03918 F1200
G1 X116.489 Y108.139 E0.03918 F1200
G1 X116.602 Y108.597 E0.03918 F1200
G1 X116.684 Y109.061 E0.03918 F1200
G1 X116.734 Y109.529 E0.03918 F1200
G1 X116.750 Y110.000 E0.03918 F1200
;TYPE:SOLID
G0 X117.750 Y110.000 F9000
G1 X117.731 Y110.541 E0.04498 F1200
G1 X117.675 Y111.079 E0.04498 F1200
G1 X117.581 Y111.611 E0.04498 F1200
G1 X117.450 Y112.136 E0.04498 F1200
G1 X117.283 Y112.651 E0.04498 F1200
G1 X117.080 Y113.152 E0.04498 F1200
G1 X116.843 Y113.638 E0.04498 F1200
G1 X116.572 Y114.107 E0.04498 F1200
G1 X116.270 Y114.555 E0.04498 F1200
G1 X115.937 Y114.982 E0.04498 F1200
G1 X115.575 Y115.384 E0.04498 F1200
G1 X115.186 Y115.759 E0.04498 F1200
G1 X114.771 Y116.107 E0.04498 F1200
G1 X114.334 Y116.425 E0.04498 F1200
G1 X113.875 Y116.712 E0.04498 F1200
G1 X113.397 Y116.966 E0.04498 F1200
G1 X112.903 Y117.186 E0.04498 F1200
G1 X112.395 Y117.371 E0.04498 F1200
G1 X111.875 Y117.520 E0.04498 F1200
G1 X111.346 Y117.632 E0.04498 F1200
G1 X110.810 Y117.708 E0.04498 F1200
G1 X110.270 Y117.745 E0.04498 F1200
G1 X109.730 Y117.745 E0.04498 F1200
G1 X109.190 Y117.708 E0.04498 F1200
G1 X108.654 Y117.632 E0.04498 F1200
G1 X108.125 Y117.520 E0.04498 F1200
G1 X107.605 Y117.371 E0.04498 F1200
G1 X107.097 Y117.186 E0.04498 F1200
G1 X106.603 Y116.966 E0.04498 F1200
G1 X106.125 Y116.712 E0.04498 F1200
G1 X105.666 Y116.425 E0.04498 F1200
G1 X105.229 Y116.107 E0.04498 F1200
G1 X104.814 Y115.759 E0.04498 F1200
G1 X104.425 Y115.384 E0.04498 F1200
G1 X104.063 Y114.982 E0.04498 F1200
G1 X103.730 Y114.555 E0.04498 F1200
G1 X103.428 Y114.107 E0.04498 F1200
G1 X103.157 Y113.638 E0.04498 F1200
G1 X102.920 Y113.152 E0.04498 F1200
G1 X102.717 Y112.651 E0.04498 F1200
G1 X102.550 Y112.136 E0.04498 F1200
G1 X102.419 Y111.611 E0.04498 F1200
G1 X102.325 Y111.079 E0.04498 F1200
G1 X102.269 Y110.541 E0.04498 F1200
G1 X102.250 Y110.000 E0.04498 F1200
G1 X102.269 Y109.459 E0.04498 F1200
G1 X102.325 Y108.921 E0.04498 F1200
G1 X102.419 Y108.389 E0.04498 F1200
G1 X102.550 Y107.864 E0.04498 F1200
G1 X102.717 Y107.349 E0.04498 F1200
G1 X102.920 Y106.848 E0.04498 F1200
G1 X103.157 Y106.362 E0.04498 F1200
G1 X103.428 Y105.893 E0.04498 F1200
G1 X103.730 Y105.445 E0.04498 F1200
G1 X104.063 Y105.018 E0.04498 F1200
G1 X104.425 Y104.616 E0.04498 F1200
G1 X104.814 Y104.241 E0.04498 F1200
G1 X105.229 Y103.893 E0.04498 F1200
G1 X105.666 Y103.575 E0.04498 F1200
G1 X106.125 Y103.288 E0.04498 F1200
G1 X106.603 Y103.034 E0.04498 F1200
G1 X107.097 Y102.814 E0.04498 F1200
G1 X107.605 Y102.629 E0.04498 F1200
G1 X108.125 Y102.480 E0.04498 F1200
G1 X108.654 Y102.368 E0.04498 F1200
G1 X109.190 Y102.292 E0.04498 F1200
G1 X109.730 Y102.255 E0.04498 F1200
G1 X110.270 Y102.255 E0.04498 F1200
G1 X110.810 Y102.292 E0.04498 F1200
G1 X111.346 Y102.368 E0.04498 F1200
G1 X111.875 Y102.480 E0.04498 F1200
G1 X112.395 Y102.629 E0.04498 F1200
G1 X112.903 Y102.814 E0.04498 F1200
G1 X113.397 Y103.034 E0.04498 F1200
G1 X113.875 Y103.288 E0.04498 F1200
G1 X114.334 Y103.575 E0.04498 F1200
G1 X114.771 Y103.893 E0.04498 F1200
G1 X115.186 Y104.241 E0.04498 F1200
G1 X115.575 Y104.616 E0.04498 F1200
G1 X115.937 Y105.018 E0.04498 F1200
G1 X116.270 Y105.445 E0.04498 F1200
G1 X116.572 Y105.893 E0.04498 F1200
G1 X116.843 Y106.362 E0.04498 F1200
G1 X117.080 Y106.848 E0.04498 F1200
G1 X117.283 Y107.349 E0.04498 F1200
G1 X117.450 Y107.864 E0.04498 F1200
G1 X117.581 Y108.389 E0.04498 F1200
G1 X117.675 Y108.921 E0.04498 F1200
G1 X117.731 Y109.459 E0.04498 F1200
G1 X117.750 Y110.000 E0.04498 F1200
G0 X118.750 Y110.000 F9000
G1 X118.729 Y110.610 E0.05078 F1200
G1 X118.665 Y111.218 E0.05078 F1200
G1 X118.559 Y111.819 E0.05078 F1200
G1 X118.411 Y112.412 E0.05078 F1200
G1 X118.222 Y112.993 E0.05078 F1200
G1 X117.994 Y113.559 E0.05078 F1200
G1 X117.726 Y114.108 E0.05078 F1200
G1 X117.420 Y114.637 E0.05078 F1200
G1 X117.079 Y115.143 E0.05078 F1200
G1 X116.703 Y115.624 E0.05078 F1200
G1 X116.294 Y116.078 E0.05078 F1200
G1 X115.855 Y116.503 E0.05078 F1200
G1 X115.387 Y116.895 E0.05078 F1200
G1 X114.893 Y117.254 E0.05078 F1200
G1 X114.375 Y117.578 E0.05078 F1200
G1 X113.836 Y117.864 E0.05078 F1200
G1 X113.278 Y118.113 E0.05078 F1200
G1 X112.704 Y118.322 E0.05078 F1200
G1 X112.117 Y118.490 E0.05078 F1200
G1 X111.519 Y118.617 E0.05078 F1200
G1 X110.915 Y118.702 E0.05078 F1200
G1 X110.305 Y118.745 E0.05078 F1200
G1 X109.695 Y118.745 E0.05078 F1200
G1 X109.085 Y118.702 E0.05078 F1200
G1 X108.481 Y118.617 E0.05078 F1200
G1 X107.883 Y118.490 E0.05078 F1200
G1 X107.296 Y118.322 E0.05078 F1200
G1 X106.722 Y118.113 E0.05078 F1200
G1 X106.164 Y117.864 E0.05078 F1200
G1 X105.625 Y117.578 E0.05078 F1200
G1 X105.107 Y117.254 E0.05078 F1200
G1 X104.613 Y116.895 E0.05078 F1200
G1 X104.145 Y116.503 E0.05078 F1200
G1 X103.706 Y116.078 E0.05078 F1200
G1 X103.297 Y115.624 E0.05078 F1200
G1 X102.921 Y115.143 E0.05078 F1200
G1 X102.580 Y114.637 E0.05078 F1200
G1 X102.274 Y114.108 E0.05078 F1200
G1 X102.006 Y113.559 E0.05078 F1200
G1 X101.778 Y112.993 E0.05078 F1200
G1 X101.589 Y112.412 E0.05078 F1200
G1 X101.441 Y111.819 E0.05078 F1200
G1 X101.335 Y111.218 E0.05078 F1200
G1 X101.271 Y110.610 E0.05078 F1200
G1 X101.250 Y110.000 E0.05078 F1200
G1 X101.271 Y109.390 E0.05078 F1200
G1 X101.335 Y108.782 E0.05078 F1200
G1 X101.441 Y108.181 E0.05078 F1200
G1 X101.589 Y107.588 E0.05078 F1200
G1 X101.778 Y107.007 E0.05078 F1200
G1 X102.006 Y106.441 E0.05078 F1200
G1 X102.274 Y105.892 E0.05078 F1200
G1 X102.580 Y105.363 E0.05078 F1200
G1 X102.921 Y104.857 E0.05078 F1200
G1 X103.297 Y104.376 E0.05078 F1200
G1 X103.706 Y103.922 E0.05078 F1200
G1 X104.145 Y103.497 E0.05078 F1200
G1 X104.613 Y103.105 E0.05078 F1200
G1 X105.107 Y102.746 E0.05078 F1200
G1 X105.625 Y102.422 E0.05078 F1200
G1 X106.164 Y102.136 E0.05078 F1200
G1 X106.722 Y101.887 E0.05078 F1200
G1 X107.296 Y101.678 E0.05078 F1200
G1 X107.883 Y101.510 E0.05078 F1200
G1 X108.481 Y101.383 E0.05078 F1200
G1 X109.085 Y101.298 E0.05078 F1200
G1 X109.695 Y101.255 E0.05078 F1200
G1 X110.305 Y101.255 E0.05078 F1200
G1 X110.915 Y101.298 E0.05078 F1200
G1 X111.519 Y101.383 E0.05078 F1200
G1 X112.117 Y101.510 E0.05078 F1200
G1 X112.704 Y101.678 E0.05078 F1200
G1 X113.278 Y101.887 E0.05078 F1200
G1 X113.836 Y102.136 E0.05078 F1200
G1 X114.375 Y102.422 E0.05078 F1200
G1 X114.893 Y102.746 E0.05078 F1200
G1 X115.387 Y103.105 E0.05078 F1200
G1 X115.855 Y103.497 E0.05078 F1200
G1 X116.294 Y103.922 E0.05078 F1200
G1 X116.703 Y104.376 E0.05078 F1200
G1 X117.079 Y104.857 E0.05078 F1200
G1 X117.420 Y105.363 E0.05078 F1200
G1 X117.726 Y105.892 E0.05078 F1200
G1 X117.994 Y106.441 E0.05078 F1200
G1 X118.222 Y107.007 E0.05078 F1200
G1 X118.411 Y107.588 E0.05078 F1200
G1 X118.559 Y108.181 E0.05078 F1200
G1 X118.665 Y108.782 E0.05078 F1200
G1 X118.729 Y109.390 E0.05078 F1200
G1 X118.750 Y110.000 E0.05078 F1200
G0 X119.750 Y110.000 F9000
G1 X119.726 Y110.680 E0.05659 F1200
G1 X119.655 Y111.357 E0.05659 F1200
G1 X119.537 Y112.027 E0.05659 F1200
G1 X119.372 Y112.687 E0.05659 F1200
G1 X119.162 Y113.335 E0.05659 F1200
G1 X118.907 Y113.966 E0.05659 F1200
G1 X118.609 Y114.577 E0.05659 F1200
G1 X118.268 Y115.167 E0.05659 F1200
G1 X117.888 Y115.731 E0.05659 F1200
G1 X117.469 Y116.267 E0.05659 F1200
G1 X117.014 Y116.773 E0.05659 F1200
G1 X116.524 Y117.246 E0.05659 F1200
G1 X116.003 Y117.683 E0.05659 F1200
G1 X115.452 Y118.083 E0.05659 F1200
G1 X114.875 Y118.444 E0.05659 F1200
G1 X114.274 Y118.763 E0.05659 F1200
G1 X113.652 Y119.040 E0.05659 F1200
G1 X113.013 Y119.273 E0.05659 F1200
G1 X112.359 Y119.460 E0.05659 F1200
G1 X111.693 Y119.602 E0.05659 F1200
G1 X111.019 Y119.697 E0.05659 F1200
G1 X110.340 Y119.744 E0.05659 F1200
G1 X109.660 Y119.744 E0.05659 F1200
G1 X108.981 Y119.697 E0.05659 F1200
G1 X108.307 Y119.602 E0.05659 F1200
G1 X107.641 Y119.460 E0.05659 F1200
G1 X106.987 Y119.273 E0.05659 F1200
G1 X106.348 Y119.040 E0.05659 F1200
G1 X105.726 Y118.763 E0.05659 F1200
G1 X105.125 Y118.444 E0.05659 F1200
G1 X104.548 Y118.083 E0.05659 F1200
G1 X103.997 Y117.683 E0.05659 F1200
G1 X103.476 Y117.246 E0.05659 F1200
G1 X102.986 Y116.773 E0.05659 F1200
G1 X102.531 Y116.267 E0.05659 F1200
G1 X102.112 Y115.731 E0.05659 F1200
G1 X101.732 Y115.167 E0.05659 F1200
G1 X101.391 Y114.577 E0.05659 F1200
G1 X101.093 Y113.966 E0.05659 F1200
G1 X100.838 Y113.335 E0.05659 F1200
G1 X100.628 Y112.687 E0.05659 F1200
G1 X100.463 Y112.027 E0.05659 F1200
G1 X100.345 Y111.357 E0.05659 F1200
G1 X100.274 Y110.680 E0.05659 F1200
G1 X100.250 Y110.000 E0.05659 F1200
G1 X100.274 Y109.320 E0.05659 F1200
G1 X100.345 Y108.643 E0.05659 F1200
G1 X100.463 Y107.973 E0.05659 F1200
G1 X100.628 Y107.313 E0.05659 F1200
G1 X100.838 Y106.665 E0.05659 F1200
G1 X101.093 Y106.034 E0.05659 F1200
G1 X101.391 Y105.423 E0.05659 F1200
G1 X101.732 Y104.833 E0.05659 F1200
G1 X102.112 Y104.269 E0.05659 F1200
G1 X102.531 Y103.733 E0.05659 F1200
G1 X102.986 Y103.227 E0.05659 F1200
G1 X103.476 Y102.754 E0.05659 F1200
G1 X103.997 Y102.317 E0.05659 F1200
G1 X104.548 Y101.917 E0.05659 F1200
G1 X105.125 Y101.556 E0.05659 F1200
G1 X105.726 Y101.237 E0.05659 F1200
G1 X106.348 Y100.960 E0.05659 F1200
G1 X106.987 Y100.727 E0.05659 F1200
G1 X107.641 Y100.540 E0.05659 F1200
G1 X108.307 Y100.398 E0.05659 F1200
G1 X108.981 Y100.303 E0.05659 F1200
G1 X109.660 Y100.256 E0.05659 F1200
G1 X110.340 Y100.256 E0.05659 F1200
G1 X111.019 Y100.303 E0.05659 F1200
G1 X111.693 Y100.398 E0.05659 F1200
G1 X112.359 Y100.540 E0.05659 F1200
G1 X113.013 Y100.727 E0.05659 F1200
G1 X113.652 Y100.960 E0.05659 F1200
G1 X114.274 Y101.237 E0.05659 F1200
G1 X114.875 Y101.556 E0.05659 F1200
G1 X115.452 Y101.917 E0.05659 F1200
G1 X116.003 Y102.317 E0.05659 F1200
G1 X116.524 Y102.754 E0.05659 F1200
G1 X117.014 Y103.227 E0.05659 F1200
G1 X117.469 Y103.733 E0.05659 F1200
G1 X117.888 Y104.269 E0.05659 F1200
G1 X118.268 Y104.833 E0.05659 F1200
G1 X118.609 Y105.423 E0.05659 F1200
G1 X118.907 Y106.034 E0.05659 F1200
G1 X119.162 Y106.665 E0.05659 F1200
G1 X119.372 Y107.313 E0.05659 F1200
G1 X119.537 Y107.973 E0.05659 F1200
G1 X119.655 Y108.643 E0.05659 F1200
G1 X119.726 Y109.320 E0.05659 F1200
G1 X119.750 Y110.000 E0.05659 F1200
G0 X120.750 Y110.000 F9000
G1 X120.724 Y110.750 E0.06239 F1200
G1 X120.645 Y111.496 E0.06239 F1200
G1 X120.515 Y112.235 E0.06239 F1200
G1 X120.334 Y112.963 E0.06239 F1200
G1 X120.102 Y113.677 E0.06239 F1200
G1 X119.821 Y114.372 E0.06239 F1200
G1 X119.492 Y115.047 E0.06239 F1200
G1 X119.117 Y115.697 E0.06239 F1200
G1 X118.697 Y116.319 E0.06239 F1200
G1 X118.235 Y116.910 E0.06239 F1200
G1 X117.733 Y117.468 E0.06239 F1200
G1 X117.193 Y117.989 E0.06239 F1200
G1 X116.618 Y118.471 E0.06239 F1200
G1 X116.011 Y118.912 E0.06239 F1200
G1 X115.375 Y119.310 E0.06239 F1200
G1 X114.712 Y119.662 E0.06239 F1200
G1 X114.027 Y119.967 E0.06239 F1200
G1 X113.322 Y120.224 E0.06239 F1200
G1 X112.601 Y120.431 E0.06239 F1200
G1 X111.867 Y120.587 E0.06239 F1200
G1 X111.124 Y120.691 E0.06239 F1200
G1 X110.375 Y120.743 E0.06239 F1200
G1 X109.625 Y120.743 E0.06239 F1200
G1 X108.876 Y120.691 E0.06239 F1200
G1 X108.133 Y120.587 E0.06239 F1200
G1 X107.399 Y120.431 E0.06239 F1200
G1 X106.678 Y120.224 E0.06239 F1200
G1 X105.973 Y119.967 E0.06239 F1200
G1 X105.288 Y119.662 E0.06239 F1200
G1 X104.625 Y119.310 E0.06239 F1200
G1 X103.989 Y118.912 E0.06239 F1200
G1 X103.382 Y118.471 E0.06239 F1200
G1 X102.807 Y117.989 E0.06239 F1200
G1 X102.267 Y117.468 E0.06239 F1200
G1 X101.765 Y116.910 E0.06239 F1200
G1 X101.303 Y116.319 E0.06239 F1200
G1 X100.883 Y115.697 E0.06239 F1200
G1 X100.508 Y115.047 E0.06239 F1200
G1 X100.179 Y114.372 E0.06239 F1200
G1 X99.898 Y113.677 E0.06239 F1200
G1 X99.666 Y112.963 E0.06239 F1200
G1 X99.485 Y112.235 E0.06239 F1200
G1 X99.355 Y111.496 E0.06239 F1200
G1 X99.276 Y110.750 E0.06239 F1200
G1 X99.250 Y110.000 E0.06239 F1200
G1 X99.276 Y109.250 E0.06239 F1200
G1 X99.355 Y108.504 E0.06239 F1200
G1 X99.485 Y107.765 E0.06239 F1200
G1 X99.666 Y107.037 E0.06239 F1200
G1 X99.898 Y106.323 E0.06239 F1200
G1 X100.179 Y105.628 E0.06239 F1200
G1 X100.508 Y104.953 E0.06239 F1200
G1 X100.883 Y104.303 E0.06239 F1200
G1 X101.303 Y103.681 E0.06239 F1200
G1 X101.765 Y103.090 E0.06239 F1200
G1 X102.267 Y102.532 E0.06239 F1200
G1 X102.807 Y102.011 E0.06239 F1200
G1 X103.382 Y101.529 E0.06239 F1200
G1 X103.989 Y101.088 E0.06239 F1200
G1 X104.625 Y100.690 E0.06239 F1200
G1 X105.288 Y100.338 E0.06239 F1200
G1 X105.973 Y100.033 E0.06239 F1200
G1 X106.678 Y99.776 E0.06239 F1200
G1 X107.399 Y99.569 E0.06239 F1200
G1 X108.133 Y99.413 E0.06239 F1200
G1 X108.876 Y99.309 E0.06239 F1200
G1 X109.625 Y99.257 E0.06239 F1200
G1 X110.375 Y99.257 E0.06239 F1200
G1 X111.124 Y99.309 E0.06239 F1200
G1 X111.867 Y99.413 E0.06239 F1200
G1 X112.601 Y99.569 E0.06239 F1200
G1 X113.322 Y99.776 E0.06239 F1200
G1 X114.027 Y100.033 E0.06239 F1200
G1 X114.712 Y100.338 E0.06239 F1200
G1 X115.375 Y100.690 E0.06239 F1200
G1 X116.011 Y101.088 E0.06239 F1200
G1 X116.618 Y101.529 E0.06239 F1200
G1 X117.193 Y102.011 E0.06239 F1200
G1 X117.733 Y102.532 E0.06239 F1200
G1 X118.235 Y103.090 E0.06239 F1200
G1 X118.697 Y103.681 E0.06239 F1200
G1 X119.117 Y104.303 E0.06239 F1200
G1 X119.492 Y104.953 E0.06239 F1200
G1 X119.821 Y105.628 E0.06239 F1200
G1 X120.102 Y106.323 E0.06239 F1200
G1 X120.334 Y107.037 E0.06239 F1200
G1 X120.515 Y107.765 E0.06239 F1200
G1 X120.645 Y108.504 E0.06239 F1200
G1 X120.724 Y109.250 E0.06239 F1200
G1 X120.750 Y110.000 E0.06239 F1200
G0 X121.750 Y110.000 F9000
G1 X121.721 Y110.820 E0.06819 F1200
G1 X121.636 Y111.635 E0.06819 F1200
G1 X121.493 Y112.443 E0.06819 F1200
G1 X121.295 Y113.239 E0.06819 F1200
G1 X121.041 Y114.019 E0.06819 F1200
G1 X120.734 Y114.779 E0.06819 F1200
G1 X120.375 Y115.516 E0.06819 F1200
G1 X119.965 Y116.227 E0.06819 F1200
G1 X119.506 Y116.906 E0.06819 F1200
G1 X119.001 Y117.553 E0.06819 F1200
G1 X118.452 Y118.162 E0.06819 F1200
G1 X117.862 Y118.732 E0.06819 F1200
G1 X117.234 Y119.259 E0.06819 F1200
G1 X116.571 Y119.741 E0.06819 F1200
G1 X115.875 Y120.176 E0.06819 F1200
G1 X115.151 Y120.561 E0.06819 F1200
G1 X114.402 Y120.894 E0.06819 F1200
G1 X113.631 Y121.175 E0.06819 F1200
G1 X112.843 Y121.401 E0.06819 F1200
G1 X112.040 Y121.571 E0.06819 F1200
G1 X111.228 Y121.686 E0.06819 F1200
G1 X110.410 Y121.743 E0.06819 F1200
G1 X109.590 Y121.743 E0.06819 F1200
G1 X108.772 Y121.686 E0.06819 F1200
G1 X107.960 Y121.571 E0.06819 F1200
G1 X107.157 Y121.401 E0.06819 F1200
G1 X106.369 Y121.175 E0.06819 F1200
G1 X105.598 Y120.894 E0.06819 F1200
G1 X104.849 Y120.561 E0.06819 F1200
G1 X104.125 Y120.176 E0.06819 F1200
G1 X103.429 Y119.741 E0.06819 F1200
G1 X102.766 Y119.259 E0.06819 F1200
G1 X102.138 Y118.732 E0.06819 F1200
G1 X101.548 Y118.162 E0.06819 F1200
G1 X100.999 Y117.553 E0.06819 F1200
G1 X100.494 Y116.906 E0.06819 F1200
G1 X100.035 Y116.227 E0.06819 F1200
G1 X99.625 Y115.516 E0.06819 F1200
G1 X99.266 Y114.779 E0.06819 F1200
G1 X98.959 Y114.019 E0.06819 F1200
G1 X98.705 Y113.239 E0.06819 F1200
G1 X98.507 Y112.443 E0.06819 F1200
G1 X98.364 Y111.635 E0.06819 F1200
G1 X98.279 Y110.820 E0.06819 F1200
G1 X98.250 Y110.000 E0.06819 F1200
G1 X98.279 Y109.180 E0.06819 F1200
G1 X98.364 Y108.365 E0.06819 F1200
G1 X98.507 Y107.557 E0.06819 F1200
G1 X98.705 Y106.761 E0.06819 F1200
G1 X98.959 Y105.981 E0.06819 F1200
G1 X99.266 Y105.221 E0.06819 F1200
G1 X99.625 Y104.484 E0.06819 F1200
G1 X100.035 Y103.773 E0.06819 F1200
G1 X100.494 Y103.094 E0.06819 F1200
G1 X100.999 Y102.447 E0.06819 F1200
G1 X101.548 Y101.838 E0.06819 F1200
G1 X102.138 Y101.268 E0.06819 F1200
G1 X102.766 Y100.741 E0.06819 F1200
G1 X103.429 Y100.259 E0.06819 F1200
G1 X104.125 Y99.824 E0.06819 F1200
G1 X104.849 Y99.439 E0.06819 F1200
G1 X105.598 Y99.106 E0.06819 F1200
G1 X106.369 Y98.825 E0.06819 F1200
G1 X107.157 Y98.599 E0.06819 F1200
G1 X107.960 Y98.429 E0.06819 F1200
G1 X108.772 Y98.314 E0.06819 F1200
G1 X109.590 Y98.257 E0.06819 F1200
G1 X110.410 Y98.257 E0.06819 F1200
G1 X111.228 Y98.314 E0.06819 F1200
G1 X112.040 Y98.429 E0.06819 F1200
G1 X112.843 Y98.599 E0.06819 F1200
G1 X113.631 Y98.825 E0.06819 F1200
G1 X114.402 Y99.106 E0.06819 F1200
G1 X115.151 Y99.439 E0.06819 F1200
G1 X115.875 Y99.824 E0.06819 F1200
G1 X116.571 Y100.259 E0.06819 F1200
G1 X117.234 Y100.741 E0.06819 F1200
G1 X117.862 Y101.268 E0.06819 F1200
G1 X118.452 Y101.838 E0.06819 F1200
G1 X119.001 Y102.447 E0.06819 F1200
G1 X119.506 Y103.094 E0.06819 F1200
G1 X119.965 Y103.773 E0.06819 F1200
G1 X120.375 Y104.484 E0.06819 F1200
G1 X120.734 Y105.221 E0.06819 F1200
G1 X121.041 Y105.981 E0.06819 F1200
G1 X121.295 Y106.761 E0.06819 F1200
G1 X121.493 Y107.557 E0.06819 F1200
G1 X121.636 Y108.365 E0.06819 F1200
G1 X121.721 Y109.180 E0.06819 F1200
G1 X121.750 Y110.000 E0.06819 F1200
G0 X122.750 Y110.000 F9000
G1 X122.719 Y110.889 E0.07400 F1200
G1 X122.626 Y111.774 E0.07400 F1200
G1 X122.471 Y112.651 E0.07400 F1200
G1 X122.256 Y113.514 E0.07400 F1200
G1 X121.981 Y114.361 E0.07400 F1200
G1 X121.648 Y115.186 E0.07400 F1200
G1 X121.258 Y115.986 E0.07400 F1200
G1 X120.813 Y116.756 E0.07400 F1200
G1 X120.315 Y117.494 E0.07400 F1200
G1 X119.767 Y118.196 E0.07400 F1200
G1 X119.172 Y118.857 E0.07400 F1200
G1 X118.531 Y119.475 E0.07400 F1200
G1 X117.850 Y120.047 E0.07400 F1200
G1 X117.130 Y120.570 E0.07400 F1200
G1 X116.375 Y121.042 E0.07400 F1200
G1 X115.589 Y121.460 E0.07400 F1200
G1 X114.776 Y121.822 E0.07400 F1200
G1 X113.940 Y122.126 E0.07400 F1200
G1 X113.085 Y122.371 E0.07400 F1200
G1 X112.214 Y122.556 E0.07400 F1200
G1 X111.333 Y122.680 E0.07400 F1200
G1 X110.445 Y122.742 E0.07400 F1200
G1 X109.555 Y122.742 E0.07400 F1200
G1 X108.667 Y122.680 E0.07400 F1200
G1 X107.786 Y122.556 E0.07400 F1200
G1 X106.915 Y122.371 E0.07400 F1200
G1 X106.060 Y122.126 E0.07400 F1200
G1 X105.224 Y121.822 E0.07400 F1200
G1 X104.411 Y121.460 E0.07400 F1200
G1 X103.625 Y121.042 E0.07400 F1200
G1 X102.870 Y120.570 E0.07400 F1200
G1 X102.150 Y120.047 E0.07400 F1200
G1 X101.469 Y119.475 E0.07400 F1200
G1 X100.828 Y118.857 E0.07400 F1200
G1 X100.233 Y118.196 E0.07400 F1200
G1 X99.685 Y117.494 E0.07400 F1200
G1 X99.187 Y116.756 E0.07400 F1200
G1 X98.742 Y115.986 E0.07400 F1200
G1 X98.352 Y115.186 E0.07400 F1200
G1 X98.019 Y114.361 E0.07400 F1200
G1 X97.744 Y113.514 E0.07400 F1200
G1 X97.529 Y112.651 E0.07400 F1200
G1 X97.374 Y111.774 E0.07400 F1200
G1 X97.281 Y110.889 E0.07400 F1200
G1 X97.250 Y110.000 E0.07400 F1200
G1 X97.281 Y109.111 E0.07400 F1200
G1 X97.374 Y108.226 E0.07400 F1200
G1 X97.529 Y107.349 E0.07400 F1200
G1 X97.744 Y106.486 E0.07400 F1200
G1 X98.019 Y105.639 E0.07400 F1200
G1 X98.352 Y104.814 E0.07400 F1200
G1 X98.742 Y104.014 E0.07400 F1200
G1 X99.187 Y103.244 E0.07400 F1200
G1 X99.685 Y102.506 E0.07400 F1200
G1 X100.233 Y101.804 E0.07400 F1200
G1 X100.828 Y101.143 E0.07400 F1200
G1 X101.469 Y100.525 E0.07400 F1200
G1 X102.150 Y99.953 E0.07400 F1200
G1 X102.870 Y99.430 E0.07400 F1200
G1 X103.625 Y98.958 E0.07400 F1200
G1 X104.411 Y98.540 E0.07400 F1200
G1 X105.224 Y98.178 E0.07400 F1200
G1 X106.060 Y97.874 E0.07400 F1200
G1 X106.915 Y97.629 E0.07400 F1200
G1 X107.786 Y97.444 E0.07400 F1200
G1 X108.667 Y97.320 E0.07400 F1200
G1 X109.555 Y97.258 E0.07400 F1200
G1 X110.445 Y97.258 E0.07400 F1200
G1 X111.333 Y97.320 E0.07400 F1200
G1 X112.214 Y97.444 E0.07400 F1200
G1 X113.085 Y97.629 E0.07400 F1200
G1 X113.940 Y97.874 E0.07400 F1200
G1 X114.776 Y98.178 E0.07400 F1200
G1 X115.589 Y98.540 E0.07400 F1200
G1 X116.375 Y98.958 E0.07400 F1200
G1 X117.130 Y99.430 E0.07400 F1200
G1 X117.850 Y99.953 E0.07400 F1200
G1 X118.531 Y100.525 E0.07400 F1200
G1 X119.172 Y101.143 E0.07400 F1200
G1 X119.767 Y101.804 E0.07400 F1200
G1 X120.315 Y102.506 E0.07400 F1200
G1 X120.813 Y103.244 E0.07400 F1200
G1 X121.258 Y104.014 E0.07400 F1200
G1 X121.648 Y104.814 E0.07400 F1200
G1 X121.981 Y105.639 E0.07400 F1200
G1 X122.256 Y106.486 E0.07400 F1200
G1 X122.471 Y107.349 E0.07400 F1200
G1 X122.626 Y108.226 E0.07400 F1200
G1 X122.719 Y109.111 E0.07400 F1200
G1 X122.750 Y110.000 E0.07400 F1200
G0 X123.750 Y110.000 F9000
G1 X123.717 Y110.959 E0.07980 F1200
G1 X123.616 Y111.914 E0.07980 F1200
G1 X123.450 Y112.859 E0.07980 F1200
G1 X123.217 Y113.790 E0.07980 F1200
G1 X122.921 Y114.703 E0.07980 F1200
G1 X122.561 Y115.593 E0.07980 F1200
G1 X122.141 Y116.455 E0.07980 F1200
G1 X121.661 Y117.286 E0.07980 F1200
G1 X121.124 Y118.082 E0.07980 F1200
G1 X120.533 Y118.838 E0.07980 F1200
G1 X119.891 Y119.552 E0.07980 F1200
G1 X119.201 Y120.218 E0.07980 F1200
G1 X118.465 Y120.835 E0.07980 F1200
G1 X117.689 Y121.399 E0.07980 F1200
G1 X116.875 Y121.908 E0.07980 F1200
G1 X116.028 Y122.358 E0.07980 F1200
G1 X115.151 Y122.749 E0.07980 F1200
G1 X114.249 Y123.077 E0.07980 F1200
G1 X113.326 Y123.342 E0.07980 F1200
G1 X112.388 Y123.541 E0.07980 F1200
G1 X111.437 Y123.675 E0.07980 F1200
G1 X110.480 Y123.742 E0.07980 F1200
G1 X109.520 Y123.742 E0.07980 F1200
G1 X108.563 Y123.675 E0.07980 F1200
G1 X107.612 Y123.541 E0.07980 F1200
G1 X106.674 Y123.342 E0.07980 F1200
G1 X105.751 Y123.077 E0.07980 F1200
G1 X104.849 Y122.749 E0.07980 F1200
G1 X103.972 Y122.358 E0.07980 F1200
G1 X103.125 Y121.908 E0.07980 F1200
G1 X102.311 Y121.399 E0.07980 F1200
G1 X101.535 Y120.835 E0.07980 F1200
G1 X100.799 Y120.218 E0.07980 F1200
G1 X100.109 Y119.552 E0.07980 F1200
G1 X99.467 Y118.838 E0.07980 F1200
G1 X98.876 Y118.082 E0.07980 F1200
G1 X98.339 Y117.286 E0.07980 F1200
G1 X97.859 Y116.455 E0.07980 F1200
G1 X97.439 Y115.593 E0.07980 F1200
G1 X97.079 Y114.703 E0.07980 F1200
G1 X96.783 Y113.790 E0.07980 F1200
G1 X96.550 Y112.859 E0.07980 F1200
G1 X96.384 Y111.914 E0.07980 F1200
G1 X96.283 Y110.959 E0.07980 F1200
G1 X96.250 Y110.000 E0.07980 F1200
G1 X96.283 Y109.041 E0.07980 F1200
G1 X96.384 Y108.086 E0.07980 F1200
G1 X96.550 Y107.141 E0.07980 F1200
G1 X96.783 Y106.210 E0.07980 F1200
G1 X97.079 Y105.297 E0.07980 F1200
G1 X97.439 Y104.407 E0.07980 F1200
G1 X97.859 Y103.545 E0.07980 F1200
G1 X98.339 Y102.714 E0.07980 F1200
G1 X98.876 Y101.918 E0.07980 F1200
G1 X99.467 Y101.162 E0.07980 F1200
G1 X100.109 Y100.448 E0.07980 F1200
G1 X100.799 Y99.782 E0.07980 F1200
G1 X101.535 Y99.165 E0.07980 F1200
G1 X102.311 Y98.601 E0.07980 F1200
G1 X103.125 Y98.092 E0.07980 F1200
G1 X103.972 Y97.642 E0.07980 F1200
G1 X104.849 Y97.251 E0.07980 F1200
G1 X105.751 Y96.923 E0.07980 F1200
G1 X106.674 Y96.658 E0.07980 F1200
G1 X107.612 Y96.459 E0.07980 F1200
G1 X108.563 Y96.325 E0.07980 F1200
G1 X109.520 Y96.258 E0.07980 F1200
G1 X110.480 Y96.258 E0.07980 F1200
G1 X111.437 Y96.325 E0.07980 F1200
G1 X112.388 Y96.459 E0.07980 F1200
G1 X113.326 Y96.658 E0.07980 F1200
G1 X114.249 Y96.923 E0.07980 F1200
G1 X115.151 Y97.251 E0.07980 F1200
G1 X116.028 Y97.642 E0.07980 F1200
G1 X116.875 Y98.092 E0.07980 F1200
G1 X117.689 Y98.601 E0.07980 F1200
G1 X118.465 Y99.165 E0.07980 F1200
G1 X119.201 Y99.782 E0.07980 F1200
G1 X119.891 Y100.448 E0.07980 F1200
G1 X120.533 Y101.162 E0.07980 F1200
G1 X121.124 Y101.918 E0.07980 F1200
G1 X121.661 Y102.714 E0.07980 F1200
G1 X122.141 Y103.545 E0.07980 F1200
G1 X122.561 Y104.407 E0.07980 F1200
G1 X122.921 Y105.297 E0.07980 F1200
G1 X123.217 Y106.210 E0.07980 F1200
G1 X123.450 Y107.141 E0.07980 F1200
G1 X123.616 Y108.086 E0.07980 F1200
G1 X123.717 Y109.041 E0.07980 F1200
G1 X123.750 Y110.000 E0.07980 F1200
G0 X124.750 Y110.000 F9000
G1 X124.714 Y111.029 E0.08561 F1200
G1 X124.606 Y112.053 E0.08561 F1200
G1 X124.428 Y113.067 E0.08561 F1200
G1 X124.179 Y114.066 E0.08561 F1200
G1 X123.860 Y115.045 E0.08561 F1200
G1 X123.475 Y115.999 E0.08561 F1200
G1 X123.023 Y116.925 E0.08561 F1200
G1 X122.509 Y117.816 E0.08561 F1200
G1 X121.933 Y118.670 E0.08561 F1200
G1 X121.299 Y119.481 E0.08561 F1200
G1 X120.610 Y120.246 E0.08561 F1200
G1 X119.870 Y120.961 E0.08561 F1200
G1 X119.081 Y121.623 E0.08561 F1200
G1 X118.248 Y122.228 E0.08561 F1200
G1 X117.375 Y122.774 E0.08561 F1200
G1 X116.466 Y123.257 E0.08561 F1200
G1 X115.525 Y123.676 E0.08561 F1200
G1 X114.558 Y124.028 E0.08561 F1200
G1 X113.568 Y124.312 E0.08561 F1200
G1 X112.561 Y124.526 E0.08561 F1200
G1 X111.542 Y124.669 E0.08561 F1200
G1 X110.515 Y124.741 E0.08561 F1200
G1 X109.485 Y124.741 E0.08561 F1200
G1 X108.458 Y124.669 E0.08561 F1200
G1 X107.439 Y124.526 E0.08561 F1200
G1 X106.432 Y124.312 E0.08561 F1200
G1 X105.442 Y124.028 E0.08561 F1200
G1 X104.475 Y123.676 E0.08561 F1200
G1 X103.534 Y123.257 E0.08561 F1200
G1 X102.625 Y122.774 E0.08561 F1200
G1 X101.752 Y122.228 E0.08561 F1200
G1 X100.919 Y121.623 E0.08561 F1200
G1 X100.130 Y120.961 E0.08561 F1200
G1 X99.390 Y120.246 E0.08561 F1200
G1 X98.701 Y119.481 E0.08561 F1200
G1 X98.067 Y118.670 E0.08561 F1200
G1 X97.491 Y117.816 E0.08561 F1200
G1 X96.977 Y116.925 E0.08561 F1200
G1 X96.525 Y115.999 E0.08561 F1200
G1 X96.140 Y115.045 E0.08561 F1200
G1 X95.821 Y114.066 E0.08561 F1200
G1 X95.572 Y113.067 E0.08561 F1200
G1 X95.394 Y112.053 E0.08561 F1200
G1 X95.286 Y111.029 E0.08561 F1200
G1 X95.250 Y110.000 E0.08561 F1200
G1 X95.286 Y108.971 E0.08561 F1200
G1 X95.394 Y107.947 E0.08561 F1200
G1 X95.572 Y106.933 E0.08561 F1200
G1 X95.821 Y105.934 E0.08561 F1200
G1 X96.140 Y104.955 E0.08561 F1200
G1 X96.525 Y104.001 E0.08561 F1200
G1 X96.977 Y103.075 E0.08561 F1200
G1 X97.491 Y102.184 E0.08561 F1200
G1 X98.067 Y101.330 E0.08561 F1200
G1 X98.701 Y100.519 E0.08561 F1200
G1 X99.390 Y99.754 E0.08561 F1200
G1 X100.130 Y99.039 E0.08561 F1200
G1 X100.919 Y98.377 E0.08561 F1200
G1 X101.752 Y97.772 E0.08561 F1200
G1 X102.625 Y97.226 E0.08561 F1200
G1 X103.534 Y96.743 E0.08561 F1200
G1 X104.475 Y96.324 E0.08561 F1200
G1 X105.442 Y95.972 E0.08561 F1200
G1 X106.432 Y95.688 E0.08561 F1200
G1 X107.439 Y95.474 E0.08561 F1200
G1 X108.458 Y95.331 E0.08561 F1200
G1 X109.485 Y95.259 E0.08561 F1200
G1 X110.515 Y95.259 E0.08561 F1200
G1 X111.542 Y95.331 E0.08561 F1200
G1 X112.561 Y95.474 E0.08561 F1200
G1 X113.568 Y95.688 E0.08561 F1200
G1 X114.558 Y95.972 E0.08561 F1200
G1 X115.525 Y96.324 E0.08561 F1200
G1 X116.466 Y96.743 E0.08561 F1200
G1 X117.375 Y97.226 E0.08561 F1200
G1 X118.248 Y97.772 E0.08561 F1200
G1 X119.081 Y98.377 E0.08561 F1200
G1 X119.870 Y99.039 E0.08561 F1200
G1 X120.610 Y99.754 E0.08561 F1200
G1 X121.299 Y100.519 E0.08561 F1200
G1 X121.933 Y101.330 E0.08561 F1200
G1 X122.509 Y102.184 E0.08561 F1200
G1 X123.023 Y103.075 E0.08561 F1200
G1 X123.475 Y104.001 E0.08561 F1200
G1 X123.860 Y104.955 E0.08561 F1200
G1 X124.179 Y105.934 E0.08561 F1200
G1 X124.428 Y106.933 E0.08561 F1200
G1 X124.606 Y107.947 E0.08561 F1200
G1 X124.714 Y108.971 E0.08561 F1200
G1 X124.750 Y110.000 E0.08561 F1200
G0 X125.750 Y110.000 F9000
G1 X125.712 Y111.099 E0.09141 F1200
G1 X125.597 Y112.192 E0.09141 F1200
G1 X125.406 Y113.275 E0.09141 F1200
G1 X125.140 Y114.341 E0.09141 F1200
G1 X124.800 Y115.387 E0.09141 F1200
G1 X124.388 Y116.406 E0.09141 F1200
G1 X123.906 Y117.394 E0.09141 F1200
G1 X123.357 Y118.346 E0.09141 F1200
G1 X122.742 Y119.258 E0.09141 F1200
G1 X122.065 Y120.124 E0.09141 F1200
G1 X121.330 Y120.941 E0.09141 F1200
G1 X120.539 Y121.705 E0.09141 F1200
G1 X119.697 Y122.411 E0.09141 F1200
G1 X118.807 Y123.057 E0.09141 F1200
G1 X117.875 Y123.640 E0.09141 F1200
G1 X116.904 Y124.156 E0.09141 F1200
G1 X115.900 Y124.603 E0.09141 F1200
G1 X114.867 Y124.979 E0.09141 F1200
G1 X113.810 Y125.282 E0.09141 F1200
G1 X112.735 Y125.511 E0.09141 F1200
G1 X111.646 Y125.664 E0.09141 F1200
G1 X110.550 Y125.740 E0.09141 F1200
G1 X109.450 Y125.740 E0.09141 F1200
G1 X108.354 Y125.664 E0.09141 F1200
G1 X107.265 Y125.511 E0.09141 F1200
G1 X106.190 Y125.282 E0.09141 F1200
G1 X105.133 Y124.979 E0.09141 F1200
G1 X104.100 Y124.603 E0.09141 F1200
G1 X103.096 Y124.156 E0.09141 F1200
G1 X102.125 Y123.640 E0.09141 F1200
G1 X101.193 Y123.057 E0.09141 F1200
G1 X100.303 Y122.411 E0.09141 F1200
G1 X99.461 Y121.705 E0.09141 F1200
G1 X98.670 Y120.941 E0.09141 F1200
G1 X97.935 Y120.124 E0.09141 F1200
G1 X97.258 Y119.258 E0.09141 F1200
G1 X96.643 Y118.346 E0.09141 F1200
G1 X96.094 Y117.394 E0.09141 F1200
G1 X95.612 Y116.406 E0.09141 F1200
G1 X95.200 Y115.387 E0.09141 F1200
G1 X94.860 Y114.341 E0.09141 F1200
G1 X94.594 Y113.275 E0.09141 F1200
G1 X94.403 Y112.192 E0.09141 F1200
G1 X94.288 Y111.099 E0.09141 F1200
G1 X94.250 Y110.000 E0.09141 F1200
G1 X94.288 Y108.901 E0.09141 F1200
G1 X94.403 Y107.808 E0.09141 F1200
G1 X94.594 Y106.725 E0.09141 F1200
G1 X94.860 Y105.659 E0.09141 F1200
G1 X95.200 Y104.613 E0.09141 F1200
G1 X95.612 Y103.594 E0.09141 F1200
G1 X96.094 Y102.606 E0.09141 F1200
G1 X96.643 Y101.654 E0.09141 F1200
G1 X97.258 Y100.742 E0.09141 F1200
G1 X97.935 Y99.876 E0.09141 F1200
G1 X98.670 Y99.059 E0.09141 F1200
G1 X99.461 Y98.295 E0.09141 F1200
G1 X100.303 Y97.589 E0.09141 F1200
G1 X101.193 Y96.943 E0.09141 F1200
G1 X102.125 Y96.360 E0.09141 F1200
G1 X103.096 Y95.844 E0.09141 F1200
G1 X104.100 Y95.397 E0.09141 F1200
G1 X105.133 Y95.021 E0.09141 F1200
G1 X106.190 Y94.718 E0.09141 F1200
G1 X107.265 Y94.489 E0.09141 F1200
G1 X108.354 Y94.336 E0.09141 F1200
G1 X109.450 Y94.260 E0.09141 F1200
G1 X110.550 Y94.260 E0.09141 F1200
G1 X111.646 Y94.336 E0.09141 F1200
G1 X112.735 Y94.489 E0.09141 F1200
G1 X113.810 Y94.718 E0.09141 F1200
G1 X114.867 Y95.021 E0.09141 F1200
G1 X115.900 Y95.397 E0.09141 F1200
G1 X116.904 Y95.844 E0.09141 F1200
G1 X117.875 Y96.360 E0.09141 F1200
G1 X118.807 Y96.943 E0.09141 F1200
G1 X119.697 Y97.589 E0.09141 F1200
G1 X120.539 Y98.295 E0.09141 F1200
G1 X121.330 Y99.059 E0.09141 F1200
G1 X122.065 Y99.876 E0.09141 F1200
G1 X122.742 Y100.742 E0.09141 F1200
G1 X123.357 Y101.654 E0.09141 F1200
G1 X123.906 Y102.606 E0.09141 F1200
G1 X124.388 Y103.594 E0.09141 F1200
G1 X124.800 Y104.613 E0.09141 F1200
G1 X125.140 Y105.659 E0.09141 F1200
G1 X125.406 Y106.725 E0.09141 F1200
G1 X125.597 Y107.808 E0.09141 F1200
G1 X125.712 Y108.901 E0.09141 F1200
G1 X125.750 Y110.000 E0.09141 F1200
G0 X126.750 Y110.000 F9000
G1 X126.709 Y111.168 E0.09721 F1200
G1 X126.587 Y112.331 E0.09721 F1200
G1 X126.384 Y113.483 E0.09721 F1200
G1 X126.101 Y114.617 E0.09721 F1200
G1 X125.740 Y115.729 E0.09721 F1200
G1 X125.302 Y116.813 E0.09721 F1200
G1 X124.789 Y117.864 E0.09721 F1200
G1 X124.205 Y118.876 E0.09721 F1200
G1 X123.551 Y119.845 E0.09721 F1200
G1 X122.831 Y120.767 E0.09721 F1200
G1 X122.049 Y121.636 E0.09721 F1200
G1 X121.208 Y122.448 E0.09721 F1200
G1 X120.312 Y123.199 E0.09721 F1200
G1 X119.366 Y123.886 E0.09721 F1200
G1 X118.375 Y124.506 E0.09721 F1200
G1 X117.343 Y125.055 E0.09721 F1200
G1 X116.275 Y125.530 E0.09721 F1200
G1 X115.176 Y125.930 E0.09721 F1200
G1 X114.052 Y126.252 E0.09721 F1200
G1 X112.909 Y126.496 E0.09721 F1200
G1 X111.751 Y126.658 E0.09721 F1200
G1 X110.585 Y126.740 E0.09721 F1200
G1 X109.415 Y126.740 E0.09721 F1200
G1 X108.249 Y126.658 E0.09721 F1200
G1 X107.091 Y126.496 E0.09721 F1200
G1 X105.948 Y126.252 E0.09721 F1200
G1 X104.824 Y125.930 E0.09721 F1200
G1 X103.725 Y125.530 E0.09721 F1200
G1 X102.657 Y125.055 E0.09721 F1200
G1 X101.625 Y124.506 E0.09721 F1200
G1 X100.634 Y123.886 E0.09721 F1200
G1 X99.688 Y123.199 E0.09721 F1200
G1 X98.792 Y122.448 E0.09721 F1200
G1 X97.951 Y121.636 E0.09721 F1200
G1 X97.169 Y120.767 E0.09721 F1200
G1 X96.449 Y119.845 E0.09721 F1200
G1 X95.795 Y118.876 E0.09721 F1200
G1 X95.211 Y117.864 E0.09721 F1200
G1 X94.698 Y116.813 E0.09721 F1200
G1 X94.260 Y115.729 E0.09721 F1200
G1 X93.899 Y114.617 E0.09721 F1200
G1 X93.616 Y113.483 E0.09721 F1200
G1 X93.413 Y112.331 E0.09721 F1200
G1 X93.291 Y111.168 E0.09721 F1200
G1 X93.250 Y110.000 E0.09721 F1200
G1 X93.291 Y108.832 E0.09721 F1200
G1 X93.413 Y107.669 E0.09721 F1200
G1 X93.616 Y106.517 E0.09721 F1200
G1 X93.899 Y105.383 E0.09721 F1200
G1 X94.260 Y104.271 E0.09721 F1200
G1 X94.698 Y103.187 E0.09721 F1200
G1 X95.211 Y102.136 E0.09721 F1200
G1 X95.795 Y101.124 E0.09721 F1200
G1 X96.449 Y100.155 E0.09721 F1200
G1 X97.169 Y99.233 E0.09721 F1200
G1 X97.951 Y98.364 E0.09721 F1200
G1 X98.792 Y97.552 E0.09721 F1200
G1 X99.688 Y96.801 E0.09721 F1200
G1 X100.634 Y96.114 E0.09721 F1200
G1 X101.625 Y95.494 E0.09721 F1200
G1 X102.657 Y94.945 E0.09721 F1200
G1 X103.725 Y94.470 E0.09721 F1200
G1 X104.824 Y94.070 E0.09721 F1200
G1 X105.948 Y93.748 E0.09721 F1200
G1 X107.091 Y93.504 E0.09721 F1200
G1 X108.249 Y93.342 E0.09721 F1200
G1 X109.415 Y93.260 E0.09721 F1200
G1 X110.585 Y93.260 E0.09721 F1200
G1 X111.751 Y93.342 E0.09721 F1200
G1 X112.909 Y93.504 E0.09721 F1200
G1 X114.052 Y93.748 E0.09721 F1200
G1 X115.176 Y94.070 E0.09721 F1200
G1 X116.275 Y94.470 E0.09721 F1200
G1 X117.343 Y94.945 E0.09721 F1200
G1 X118.375 Y95.494 E0.09721 F1200
G1 X119.366 Y96.114 E0.09721 F1200
G1 X120.312 Y96.801 E0.09721 F1200
G1 X121.208 Y97.552 E0.09721 F1200
G1 X122.049 Y98.364 E0.09721 F1200
G1 X122.831 Y99.233 E0.09721 F1200
G1 X123.551 Y100.155 E0.09721 F1200
G1 X124.205 Y101.124 E0.09721 F1200
G1 X124.789 Y102.136 E0.09721 F1200
G1 X125.302 Y103.187 E0.09721 F1200
G1 X125.740 Y104.271 E0.09721 F1200
G1 X126.101 Y105.383 E0.09721 F1200
G1 X126.384 Y106.517 E0.09721 F1200
G1 X126.587 Y107.669 E0.09721 F1200
G1 X126.709 Y108.832 E0.09721 F1200
G1 X126.750 Y110.000 E0.09721 F1200
G0 X127.750 Y110.000 F9000
G1 X127.707 Y111.238 E0.10302 F1200
G1 X127.577 Y112.470 E0.10302 F1200
G1 X127.362 Y113.690 E0.10302 F1200
G1 X127.062 Y114.893 E0.10302 F1200
G1 X126.680 Y116.071 E0.10302 F1200
G1 X126.215 Y117.220 E0.10302 F1200
G1 X125.672 Y118.333 E0.10302 F1200
G1 X125.053 Y119.406 E0.10302 F1200
G1 X124.360 Y120.433 E0.10302 F1200
G1 X123.597 Y121.409 E0.10302 F1200
G1 X122.768 Y122.330 E0.10302 F1200
G1 X121.877 Y123.191 E0.10302 F1200
G1 X120.928 Y123.987 E0.10302 F1200
G1 X119.926 Y124.715 E0.10302 F1200
G1 X118.875 Y125.372 E0.10302 F1200
G1 X117.781 Y125.954 E0.10302 F1200
G1 X116.649 Y126.458 E0.10302 F1200
G1 X115.485 Y126.881 E0.10302 F1200
G1 X114.294 Y127.223 E0.10302 F1200
G1 X113.082 Y127.480 E0.10302 F1200
G1 X111.855 Y127.653 E0.10302 F1200
G1 X110.619 Y127.739 E0.10302 F1200
G1 X109.381 Y127.739 E0.10302 F1200
G1 X108.145 Y127.653 E0.10302 F1200
G1 X106.918 Y127.480 E0.10302 F1200
G1 X105.706 Y127.223 E0.10302 F1200
G1 X104.515 Y126.881 E0.10302 F1200
G1 X103.351 Y126.458 E0.10302 F1200
G1 X102.219 Y125.954 E0.10302 F1200
G1 X101.125 Y125.372 E0.10302 F1200
G1 X100.074 Y124.715 E0.10302 F1200
G1 X99.072 Y123.987 E0.10302 F1200
G1 X98.123 Y123.191 E0.10302 F1200
G1 X97.232 Y122.330 E0.10302 F1200
G1 X96.403 Y121.409 E0.10302 F1200
G1 X95.640 Y120.433 E0.10302 F1200
G1 X94.947 Y119.406 E0.10302 F1200
G1 X94.328 Y118.333 E0.10302 F1200
G1 X93.785 Y117.220 E0.10302 F1200
G1 X93.320 Y116.071 E0.10302 F1200
G1 X92.938 Y114.893 E0.10302 F1200
G1 X92.638 Y113.690 E0.10302 F1200
G1 X92.423 Y112.470 E0.10302 F1200
G1 X92.293 Y111.238 E0.10302 F1200
G1 X92.250 Y110.000 E0.10302 F1200
G1 X92.293 Y108.762 E0.10302 F1200
G1 X92.423 Y107.530 E0.10302 F1200
G1 X92.638 Y106.310 E0.10302 F1200
G1 X92.938 Y105.107 E0.10302 F1200
G1 X93.320 Y103.929 E0.10302 F1200
G1 X93.785 Y102.780 E0.10302 F1200
G1 X94.328 Y101.667 E0.10302 F1200
G1 X94.947 Y100.594 E0.10302 F1200
G1 X95.640 Y99.567 E0.10302 F1200
G1 X96.403 Y98.591 E0.10302 F1200
G1 X97.232 Y97.670 E0.10302 F1200
G1 X98.123 Y96.809 E0.10302 F1200
G1 X99.072 Y96.013 E0.10302 F1200
G1 X100.074 Y95.285 E0.10302 F1200
G1 X101.125 Y94.628 E0.10302 F1200
G1 X102.219 Y94.046 E0.10302 F1200
G1 X103.351 Y93.542 E0.10302 F1200
G1 X104.515 Y93.119 E0.10302 F1200
G1 X105.706 Y92.777 E0.10302 F1200
G1 X106.918 Y92.520 E0.10302 F1200
G1 X108.145 Y92.347 E0.10302 F1200
G1 X109.381 Y92.261 E0.10302 F1200
G1 X110.619 Y92.261 E0.10302 F1200
G1 X111.855 Y92.347 E0.10302 F1200
G1 X113.082 Y92.520 E0.10302 F1200
G1 X114.294 Y92.777 E0.10302 F1200
G1 X115.485 Y93.119 E0.10302 F1200
G1 X116.649 Y93.542 E0.10302 F1200
G1 X117.781 Y94.046 E0.10302 F1200
G1 X118.875 Y94.628 E0.10302 F1200
G1 X119.926 Y95.285 E0.10302 F1200
G1 X120.928 Y96.013 E0.10302 F1200
G1 X121.877 Y96.809 E0.10302 F1200
G1 X122.768 Y97.670 E0.10302 F1200
G1 X123.597 Y98.591 E0.10302 F1200
G1 X124.360 Y99.567 E0.10302 F1200
G1 X125.053 Y100.594 E0.10302 F1200
G1 X125.672 Y101.667 E0.10302 F1200
G1 X126.215 Y102.780 E0.10302 F1200
G1 X126.680 Y103.929 E0.10302 F1200
G1 X127.062 Y105.107 E0.10302 F1200
G1 X127.362 Y106.310 E0.10302 F1200
G1 X127.577 Y107.530 E0.10302 F1200
G1 X127.707 Y108.762 E0.10302 F1200
G1 X127.750 Y110.000 E0.10302 F1200
G0 X128.750 Y110.000 F9000
G1 X128.704 Y111.308 E0.10882 F1200
G1 X128.568 Y112.609 E0.10882 F1200
G1 X128.340 Y113.898 E0.10882 F1200
G1 X128.024 Y115.168 E0.10882 F1200
G1 X127.619 Y116.413 E0.10882 F1200
G1 X127.129 Y117.626 E0.10882 F1200
G1 X126.555 Y118.803 E0.10882 F1200
G1 X125.901 Y119.936 E0.10882 F1200
G1 X125.169 Y121.021 E0.10882 F1200
G1 X124.363 Y122.052 E0.10882 F1200
G1 X123.488 Y123.025 E0.10882 F1200
G1 X122.546 Y123.934 E0.10882 F1200
G1 X121.544 Y124.775 E0.10882 F1200
G1 X120.485 Y125.544 E0.10882 F1200
G1 X119.375 Y126.238 E0.10882 F1200
G1 X118.219 Y126.852 E0.10882 F1200
G1 X117.024 Y127.385 E0.10882 F1200
G1 X115.794 Y127.832 E0.10882 F1200
G1 X114.536 Y128.193 E0.10882 F1200
G1 X113.256 Y128.465 E0.10882 F1200
G1 X111.960 Y128.647 E0.10882 F1200
G1 X110.654 Y128.739 E0.10882 F1200
G1 X109.346 Y128.739 E0.10882 F1200
G1 X108.040 Y128.647 E0.10882 F1200
G1 X106.744 Y128.465 E0.10882 F1200
G1 X105.464 Y128.193 E0.10882 F1200
G1 X104.206 Y127.832 E0.10882 F1200
G1 X102.976 Y127.385 E0.10882 F1200
G1 X101.781 Y126.852 E0.10882 F1200
G1 X100.625 Y126.238 E0.10882 F1200
G1 X99.515 Y125.544 E0.10882 F1200
G1 X98.456 Y124.775 E0.10882 F1200
G1 X97.454 Y123.934 E0.10882 F1200
G1 X96.512 Y123.025 E0.10882 F1200
G1 X95.637 Y122.052 E0.10882 F1200
G1 X94.831 Y121.021 E0.10882 F1200
G1 X94.099 Y119.936 E0.10882 F1200
G1 X93.445 Y118.803 E0.10882 F1200
G1 X92.871 Y117.626 E0.10882 F1200
G1 X92.381 Y116.413 E0.10882 F1200
G1 X91.976 Y115.168 E0.10882 F1200
G1 X91.660 Y113.898 E0.10882 F1200
G1 X91.432 Y112.609 E0.10882 F1200
G1 X91.296 Y111.308 E0.10882 F1200
G1 X91.250 Y110.000 E0.10882 F1200
G1 X91.296 Y108.692 E0.10882 F1200
G1 X91.432 Y107.391 E0.10882 F1200
G1 X91.660 Y106.102 E0.10882 F1200
G1 X91.976 Y104.832 E0.10882 F1200
G1 X92.381 Y103.587 E0.10882 F1200
G1 X92.871 Y102.374 E0.10882 F1200
G1 X93.445 Y101.197 E0.10882 F1200
G1 X94.099 Y100.064 E0.10882 F1200
G1 X94.831 Y98.979 E0.10882 F1200
G1 X95.637 Y97.948 E0.10882 F1200
G1 X96.512 Y96.975 E0.10882 F1200
G1 X97.454 Y96.066 E0.10882 F1200
G1 X98.456 Y95.225 E0.10882 F1200
G1 X99.515 Y94.456 E0.10882 F1200
G1 X100.625 Y93.762 E0.10882 F1200
G1 X101.781 Y93.148 E0.10882 F1200
G1 X102.976 Y92.615 E0.10882 F1200
G1 X104.206 Y92.168 E0.10882 F1200
G1 X105.464 Y91.807 E0.10882 F1200
G1 X106.744 Y91.535 E0.10882 F1200
G1 X108.040 Y91.353 E0.10882 F1200
G1 X109.346 Y91.261 E0.10882 F1200
G1 X110.654 Y91.261 E0.10882 F1200
G1 X111.960 Y91.353 E0.10882 F1200
G1 X113.256 Y91.535 E0.10882 F1200
G1 X114.536 Y91.807 E0.10882 F1200
G1 X115.794 Y92.168 E0.10882 F1200
G1 X117.024 Y92.615 E0.10882 F1200
G1 X118.219 Y93.148 E0.10882 F1200
G1 X119.375 Y93.762 E0.10882 F1200
G1 X120.485 Y94.456 E0.10882 F1200
G1 X121.544 Y95.225 E0.10882 F1200
G1 X122.546 Y96.066 E0.10882 F1200
G1 X123.488 Y96.975 E0.10882 F1200
G1 X124.363 Y97.948 E0.10882 F1200
G1 X125.169 Y98.979 E0.10882 F1200
G1 X125.901 Y100.064 E0.10882 F1200
G1 X126.555 Y101.197 E0.10882 F1200
G1 X127.129 Y102.374 E0.10882 F1200
G1 X127.619 Y103.587 E0.10882 F1200
G1 X128.024 Y104.832 E0.10882 F1200
G1 X128.340 Y106.102 E0.10882 F1200
G1 X128.568 Y107.391 E0.10882 F1200
G1 X128.704 Y108.692 E0.10882 F1200
G1 X128.750 Y110.000 E0.10882 F1200
G0 X129.750 Y110.000 F9000
G1 X129.702 Y111.378 E0.11463 F1200
G1 X129.558 Y112.749 E0.11463 F1200
G1 X129.318 Y114.106 E0.11463 F1200
G1 X128.985 Y115.444 E0.11463 F1200
G1 X128.559 Y116.755 E0.11463 F1200
G1 X128.043 Y118.033 E0.11463 F1200
G1 X127.438 Y119.272 E0.11463 F1200
G1 X126.749 Y120.466 E0.11463 F1200
G1 X125.978 Y121.609 E0.11463 F1200
G1 X125.129 Y122.695 E0.11463 F1200
G1 X124.207 Y123.720 E0.11463 F1200
G1 X123.215 Y124.677 E0.11463 F1200
G1 X122.159 Y125.563 E0.11463 F1200
G1 X121.044 Y126.373 E0.11463 F1200
G1 X119.875 Y127.104 E0.11463 F1200
G1 X118.658 Y127.751 E0.11463 F1200
G1 X117.398 Y128.312 E0.11463 F1200
G1 X116.103 Y128.783 E0.11463 F1200
G1 X114.778 Y129.163 E0.11463 F1200
G1 X113.430 Y129.450 E0.11463 F1200
G1 X112.064 Y129.642 E0.11463 F1200
G1 X110.689 Y129.738 E0.11463 F1200
G1 X109.311 Y129.738 E0.11463 F1200
G1 X107.936 Y129.642 E0.11463 F1200
G1 X106.570 Y129.450 E0.11463 F1200
G1 X105.222 Y129.163 E0.11463 F1200
G1 X103.897 Y128.783 E0.11463 F1200
G1 X102.602 Y128.312 E0.11463 F1200
G1 X101.342 Y127.751 E0.11463 F1200
G1 X100.125 Y127.104 E0.11463 F1200
G1 X98.956 Y126.373 E0.11463 F1200
G1 X97.841 Y125.563 E0.11463 F1200
G1 X96.785 Y124.677 E0.11463 F1200
G1 X95.793 Y123.720 E0.11463 F1200
G1 X94.871 Y122.695 E0.11463 F1200
G1 X94.022 Y121.609 E0.11463 F1200
G1 X93.251 Y120.466 E0.11463 F1200
G1 X92.562 Y119.272 E0.11463 F1200
G1 X91.957 Y118.033 E0.11463 F1200
G1 X91.441 Y116.755 E0.11463 F1200
G1 X91.015 Y115.444 E0.11463 F1200
G1 X90.682 Y114.106 E0.11463 F1200
G1 X90.442 Y112.749 E0.11463 F1200
G1 X90.298 Y111.378 E0.11463 F1200
G1 X90.250 Y110.000 E0.11463 F1200
G1 X90.298 Y108.622 E0.11463 F1200
G1 X90.442 Y107.251 E0.11463 F1200
G1 X90.682 Y105.894 E0.11463 F1200
G1 X91.015 Y104.556 E0.11463 F1200
G1 X91.441 Y103.245 E0.11463 F1200
G1 X91.957 Y101.967 E0.11463 F1200
G1 X92.562 Y100.728 E0.11463 F1200
G1 X93.251 Y99.534 E0.11463 F1200
G1 X94.022 Y98.391 E0.11463 F1200
G1 X94.871 Y97.305 E0.11463 F1200
G1 X95.793 Y96.280 E0.11463 F1200
G1 X96.785 Y95.323 E0.11463 F1200
G1 X97.841 Y94.437 E0.11463 F1200
G1 X98.956 Y93.627 E0.11463 F1200
G1 X100.125 Y92.896 E0.11463 F1200
G1 X101.342 Y92.249 E0.11463 F1200
G1 X102.602 Y91.688 E0.11463 F1200
G1 X103.897 Y91.217 E0.11463 F1200
G1 X105.222 Y90.837 E0.11463 F1200
G1 X106.570 Y90.550 E0.11463 F1200
G1 X107.936 Y90.358 E0.11463 F1200
G1 X109.311 Y90.262 E0.11463 F1200
G1 X110.689 Y90.262 E0.11463 F1200
G1 X112.064 Y90.358 E0.11463 F1200
G1 X113.430 Y90.550 E0.11463 F1200
G1 X114.778 Y90.837 E0.11463 F1200
G1 X116.103 Y91.217 E0.11463 F1200
G1 X117.398 Y91.688 E0.11463 F1200
G1 X118.658 Y92.249 E0.11463 F1200
G1 X119.875 Y92.896 E0.11463 F1200
G1 X121.044 Y93.627 E0.11463 F1200
G1 X122.159 Y94.437 E0.11463 F1200
G1 X123.215 Y95.323 E0.11463 F1200
G1 X124.207 Y96.280 E0.11463 F1200
G1 X125.129 Y97.305 E0.11463 F1200
G1 X125.978 Y98.391 E0.11463 F1200
G1 X126.749 Y99.534 E0.11463 F1200
G1 X127.438 Y100.728 E0.11463 F1200
G1 X128.043 Y101.967 E0.11463 F1200
G1 X128.559 Y103.245 E0.11463 F1200
G1 X128.985 Y104.556 E0.11463 F1200
G1 X129.318 Y105.894 E0.11463 F1200
G1 X129.558 Y107.251 E0.11463 F1200
G1 X129.702 Y108.622 E0.11463 F1200
G1 X129.750 Y110.000 E0.11463 F1200
G0 X130.750 Y110.000 F9000
G1 X130.699 Y111.447 E0.12043 F1200
G1 X130.548 Y112.888 E0.12043 F1200
G1 X130.297 Y114.314 E0.12043 F1200
G1 X129.946 Y115.719 E0.12043 F1200
G1 X129.499 Y117.097 E0.12043 F1200
G1 X128.956 Y118.440 E0.12043 F1200
G1 X128.321 Y119.742 E0.12043 F1200
G1 X127.597 Y120.996 E0.12043 F1200
G1 X126.787 Y122.197 E0.12043 F1200
G1 X125.895 Y123.338 E0.12043 F1200
G1 X124.926 Y124.414 E0.12043 F1200
G1 X123.884 Y125.420 E0.12043 F1200
G1 X122.775 Y126.351 E0.12043 F1200
G1 X121.603 Y127.203 E0.12043 F1200
G1 X120.375 Y127.970 E0.12043 F1200
G1 X119.096 Y128.650 E0.12043 F1200
G1 X117.773 Y129.239 E0.12043 F1200
G1 X116.412 Y129.734 E0.12043 F1200
G1 X115.020 Y130.134 E0.12043 F1200
G1 X113.603 Y130.435 E0.12043 F1200
G1 X112.169 Y130.636 E0.12043 F1200
G1 X110.724 Y130.737 E0.12043 F1200
G1 X109.276 Y130.737 E0.12043 F1200
G1 X107.831 Y130.636 E0.12043 F1200
G1 X106.397 Y130.435 E0.12043 F1200
G1 X104.980 Y130.134 E0.12043 F1200
G1 X103.588 Y129.734 E0.12043 F1200
G1 X102.227 Y129.239 E0.12043 F1200
G1 X100.904 Y128.650 E0.12043 F1200
G1 X99.625 Y127.970 E0.12043 F1200
G1 X98.397 Y127.203 E0.12043 F1200
G1 X97.225 Y126.351 E0.12043 F1200
G1 X96.116 Y125.420 E0.12043 F1200
G1 X95.074 Y124.414 E0.12043 F1200
G1 X94.105 Y123.338 E0.12043 F1200
G1 X93.213 Y122.197 E0.12043 F1200
G1 X92.403 Y120.996 E0.12043 F1200
G1 X91.679 Y119.742 E0.12043 F1200
G1 X91.044 Y118.440 E0.12043 F1200
G1 X90.501 Y117.097 E0.12043 F1200
G1 X90.054 Y115.719 E0.12043 F1200
G1 X89.703 Y114.314 E0.12043 F1200
G1 X89.452 Y112.888 E0.12043 F1200
G1 X89.301 Y111.447 E0.12043 F1200
G1 X89.250 Y110.000 E0.12043 F1200
G1 X89.301 Y108.553 E0.12043 F1200
G1 X89.452 Y107.112 E0.12043 F1200
G1 X89.703 Y105.686 E0.12043 F1200
G1 X90.054 Y104.281 E0.12043 F1200
G1 X90.501 Y102.903 E0.12043 F1200
G1 X91.044 Y101.560 E0.12043 F1200
G1 X91.679 Y100.258 E0.12043 F1200
G1 X92.403 Y99.004 E0.12043 F1200
G1 X93.213 Y97.803 E0.12043 F1200
G1 X94.105 Y96.662 E0.12043 F1200
G1 X95.074 Y95.586 E0.12043 F1200
G1 X96.116 Y94.580 E0.12043 F1200
G1 X97.225 Y93.649 E0.12043 F1200
G1 X98.397 Y92.797 E0.12043 F1200
G1 X99.625 Y92.030 E0.12043 F1200
G1 X100.904 Y91.350 E0.12043 F1200
G1 X102.227 Y90.761 E0.12043 F1200
G1 X103.588 Y90.266 E0.12043 F1200
G1 X104.980 Y89.866 E0.12043 F1200
G1 X106.397 Y89.565 E0.12043 F1200
G1 X107.831 Y89.364 E0.12043 F1200
G1 X109.276 Y89.263 E0.12043 F1200
G1 X110.724 Y89.263 E0.12043 F1200
G1 X112.169 Y89.364 E0.12043 F1200
G1 X113.603 Y89.565 E0.12043 F1200
G1 X115.020 Y89.866 E0.12043 F1200
G1 X116.412 Y90.266 E0.12043 F1200
G1 X117.773 Y90.761 E0.12043 F1200
G1 X119.096 Y91.350 E0.12043 F1200
G1 X120.375 Y92.030 E0.12043 F1200
G1 X121.603 Y92.797 E0.12043 F1200
G1 X122.775 Y93.649 E0.12043 F1200
G1 X123.884 Y94.580 E0.12043 F1200
G1 X124.926 Y95.586 E0.12043 F1200
G1 X125.895 Y96.662 E0.12043 F1200
G1 X126.787 Y97.803 E0.12043 F1200
G1 X127.597 Y99.004 E0.12043 F1200
G1 X128.321 Y100.258 E0.12043 F1200
G1 X128.956 Y101.560 E0.12043 F1200
G1 X129.499 Y102.903 E0.12043 F1200
G1 X129.946 Y104.281 E0.12043 F1200
G1 X130.297 Y105.686 E0.12043 F1200
G1 X130.548 Y107.112 E0.12043 F1200
G1 X130.699 Y108.553 E0.12043 F1200
G1 X130.750 Y110.000 E0.12043 F1200
G0 X131.750 Y110.000 F9000
G1 X131.697 Y111.517 E0.12623 F1200
G1 X131.538 Y113.027 E0.12623 F1200
G1 X131.275 Y114.522 E0.12623 F1200
G1 X130.907 Y115.995 E0.12623 F1200
G1 X130.438 Y117.439 E0.12623 F1200
G1 X129.870 Y118.847 E0.12623 F1200
G1 X129.204 Y120.211 E0.12623 F1200
G1 X128.445 Y121.526 E0.12623 F1200
G1 X127.596 Y122.784 E0.12623 F1200
G1 X126.661 Y123.981 E0.12623 F1200
G1 X125.646 Y125.109 E0.12623 F1200
G1 X124.554 Y126.163 E0.12623 F1200
G1 X123.391 Y127.139 E0.12623 F1200
G1 X122.162 Y128.032 E0.12623 F1200
G1 X120.875 Y128.836 E0.12623 F1200
G1 X119.535 Y129.549 E0.12623 F1200
G1 X118.148 Y130.166 E0.12623 F1200
G1 X116.721 Y130.685 E0.12623 F1200
G1 X115.262 Y131.104 E0.12623 F1200
G1 X113.777 Y131.420 E0.12623 F1200
G1 X112.273 Y131.631 E0.12623 F1200
G1 X110.759 Y131.737 E0.12623 F1200
G1 X109.241 Y131.737 E0.12623 F1200
G1 X107.727 Y131.631 E0.12623 F1200
G1 X106.223 Y131.420 E0.12623 F1200
G1 X104.738 Y131.104 E0.12623 F1200
G1 X103.279 Y130.685 E0.12623 F1200
G1 X101.852 Y130.166 E0.12623 F1200
G1 X100.465 Y129.549 E0.12623 F1200
G1 X99.125 Y128.836 E0.12623 F1200
G1 X97.838 Y128.032 E0.12623 F1200
G1 X96.609 Y127.139 E0.12623 F1200
G1 X95.446 Y126.163 E0.12623 F1200
G1 X94.354 Y125.109 E0.12623 F1200
G1 X93.339 Y123.981 E0.12623 F1200
G1 X92.404 Y122.784 E0.12623 F1200
G1 X91.555 Y121.526 E0.12623 F1200
G1 X90.796 Y120.211 E0.12623 F1200
G1 X90.130 Y118.847 E0.12623 F1200
G1 X89.562 Y117.439 E0.12623 F1200
G1 X89.093 Y115.995 E0.12623 F1200
G1 X88.725 Y114.522 E0.12623 F1200
G1 X88.462 Y113.027 E0.12623 F1200
G1 X88.303 Y111.517 E0.12623 F1200
G1 X88.250 Y110.000 E0.12623 F1200
G1 X88.303 Y108.483 E0.12623 F1200
G1 X88.462 Y106.973 E0.12623 F1200
G1 X88.725 Y105.478 E0.12623 F1200
G1 X89.093 Y104.005 E0.12623 F1200
G1 X89.562 Y102.561 E0.12623 F1200
G1 X90.130 Y101.153 E0.12623 F1200
G1 X90.796 Y99.789 E0.12623 F1200
G1 X91.555 Y98.474 E0.12623 F1200
G1 X92.404 Y97.216 E0.12623 F1200
G1 X93.339 Y96.019 E0.12623 F1200
G1 X94.354 Y94.891 E0.12623 F1200
G1 X95.446 Y93.837 E0.12623 F1200
G1 X96.609 Y92.861 E0.12623 F1200
G1 X97.838 Y91.968 E0.12623 F1200
G1 X99.125 Y91.164 E0.12623 F1200
G1 X100.465 Y90.451 E0.12623 F1200
G1 X101.852 Y89.834 E0.12623 F1200
G1 X103.279 Y89.315 E0.12623 F1200
G1 X104.738 Y88.896 E0.12623 F1200
G1 X106.223 Y88.580 E0.12623 F1200
G1 X107.727 Y88.369 E0.12623 F1200
G1 X109.241 Y88.263 E0.12623 F1200
G1 X110.759 Y88.263 E0.12623 F1200
G1 X112.273 Y88.369 E0.12623 F1200
G1 X113.777 Y88.580 E0.12623 F1200
G1 X115.262 Y88.896 E0.12623 F1200
G1 X116.721 Y89.315 E0.12623 F1200
G1 X118.148 Y89.834 E0.12623 F1200
G1 X119.535 Y90.451 E0.12623 F1200
G1 X120.875 Y91.164 E0.12623 F1200
G1 X122.162 Y91.968 E0.12623 F1200
G1 X123.391 Y92.861 E0.12623 F1200
G1 X124.554 Y93.837 E0.12623 F1200
G1 X125.646 Y94.891 E0.12623 F1200
G1 X126.661 Y96.019 E0.12623 F1200
G1 X127.596 Y97.216 E0.12623 F1200
G1 X128.445 Y98.474 E0.12623 F1200
G1 X129.204 Y99.789 E0.12623 F1200
G1 X129.870 Y101.153 E0.12623 F1200
G1 X130.438 Y102.561 E0.12623 F1200
G1 X130.907 Y104.005 E0.12623 F1200
G1 X131.275 Y105.478 E0.12623 F1200
G1 X131.538 Y106.973 E0.12623 F1200
G1 X131.697 Y108.483 E0.12623 F1200
G1 X131.750 Y110.000 E0.12623 F1200
G0 X132.750 Y110.000 F9000
G1 X132.695 Y111.587 E0.13204 F1200
G1 X132.529 Y113.166 E0.13204 F1200
G1 X132.253 Y114.730 E0.13204 F1200
G1 X131.869 Y116.271 E0.13204 F1200
G1 X131.378 Y117.781 E0.13204 F1200
G1 X130.783 Y119.253 E0.13204 F1200
G1 X130.087 Y120.680 E0.13204 F1200
G1 X129.293 Y122.056 E0.13204 F1200
G1 X128.405 Y123.372 E0.13204 F1200
G1 X127.428 Y124.623 E0.13204 F1200
G1 X126.365 Y125.803 E0.13204 F1200
G1 X125.223 Y126.907 E0.13204 F1200
G1 X124.006 Y127.927 E0.13204 F1200
G1 X122.722 Y128.861 E0.13204 F1200
G1 X121.375 Y129.702 E0.13204 F1200
G1 X119.973 Y130.448 E0.13204 F1200
G1 X118.522 Y131.093 E0.13204 F1200
G1 X117.030 Y131.637 E0.13204 F1200
G1 X115.504 Y132.074 E0.13204 F1200
G1 X113.950 Y132.404 E0.13204 F1200
G1 X112.378 Y132.625 E0.13204 F1200
G1 X110.794 Y132.736 E0.13204 F1200
G1 X109.206 Y132.736 E0.13204 F1200
G1 X107.622 Y132.625 E0.13204 F1200
G1 X106.050 Y132.404 E0.13204 F1200
G1 X104.496 Y132.074 E0.13204 F1200
G1 X102.970 Y131.637 E0.13204 F1200
G1 X101.478 Y131.093 E0.13204 F1200
G1 X100.027 Y130.448 E0.13204 F1200
G1 X98.625 Y129.702 E0.13204 F1200
G1 X97.278 Y128.861 E0.13204 F1200
G1 X95.994 Y127.927 E0.13204 F1200
G1 X94.777 Y126.907 E0.13204 F1200
G1 X93.635 Y125.803 E0.13204 F1200
G1 X92.572 Y124.623 E0.13204 F1200
G1 X91.595 Y123.372 E0.13204 F1200
G1 X90.707 Y122.056 E0.13204 F1200
G1 X89.913 Y120.680 E0.13204 F1200
G1 X89.217 Y119.253 E0.13204 F1200
G1 X88.622 Y117.781 E0.13204 F1200
G1 X88.131 Y116.271 E0.13204 F1200
G1 X87.747 Y114.730 E0.13204 F1200
G1 X87.471 Y113.166 E0.13204 F1200
G1 X87.305 Y111.587 E0.13204 F1200
G1 X87.250 Y110.000 E0.13204 F1200
G1 X87.305 Y108.413 E0.13204 F1200
G1 X87.471 Y106.834 E0.13204 F1200
G1 X87.747 Y105.270 E0.13204 F1200
G1 X88.131 Y103.729 E0.13204 F1200
G1 X88.622 Y102.219 E0.13204 F1200
G1 X89.217 Y100.747 E0.13204 F1200
G1 X89.913 Y99.320 E0.13204 F1200
G1 X90.707 Y97.944 E0.13204 F1200
G1 X91.595 Y96.628 E0.13204 F1200
G1 X92.572 Y95.377 E0.13204 F1200
G1 X93.635 Y94.197 E0.13204 F1200
G1 X94.777 Y93.093 E0.13204 F1200
G1 X95.994 Y92.073 E0.13204 F1200
G1 X97.278 Y91.139 E0.13204 F1200
G1 X98.625 Y90.298 E0.13204 F1200
G1 X100.027 Y89.552 E0.13204 F1200
G1 X101.478 Y88.907 E0.13204 F1200
G1 X102.970 Y88.363 E0.13204 F1200
G1 X104.496 Y87.926 E0.13204 F1200
G1 X106.050 Y87.596 E0.13204 F1200
G1 X107.622 Y87.375 E0.13204 F1200
G1 X109.206 Y87.264 E0.13204 F1200
G1 X110.794 Y87.264 E0.13204 F1200
G1 X112.378 Y87.375 E0.13204 F1200
G1 X113.950 Y87.596 E0.13204 F1200
G1 X115.504 Y87.926 E0.13204 F1200
G1 X117.030 Y88.363 E0.13204 F1200
G1 X118.522 Y88.907 E0.13204 F1200
G1 X119.973 Y89.552 E0.13204 F1200
G1 X121.375 Y90.298 E0.13204 F1200
G1 X122.722 Y91.139 E0.13204 F1200
G1 X124.006 Y92.073 E0.13204 F1200
G1 X125.223 Y93.093 E0.13204 F1200
G1 X126.365 Y94.197 E0.13204 F1200
G1 X127.428 Y95.377 E0.13204 F1200
G1 X128.405 Y96.628 E0.13204 F1200
G1 X129.293 Y97.944 E0.13204 F1200
G1 X130.087 Y99.320 E0.13204 F1200
G1 X130.783 Y100.747 E0.13204 F1200
G1 X131.378 Y102.219 E0.13204 F1200
G1 X131.869 Y103.729 E0.13204 F1200
G1 X132.253 Y105.270 E0.13204 F1200
G1 X132.529 Y106.834 E0.13204 F1200
G1 X132.695 Y108.413 E0.13204 F1200
G1 X132.750 Y110.000 E0.13204 F1200
G0 X133.750 Y110.000 F9000
G1 X133.692 Y111.657 E0.13784 F1200
G1 X133.519 Y113.305 E0.13784 F1200
G1 X133.231 Y114.938 E0.13784 F1200
G1 X132.830 Y116.546 E0.13784 F1200
G1 X132.318 Y118.123 E0.13784 F1200
G1 X131.697 Y119.660 E0.13784 F1200
G1 X130.970 Y121.150 E0.13784 F1200
G1 X130.141 Y122.586 E0.13784 F1200
G1 X129.214 Y123.960 E0.13784 F1200
G1 X128.194 Y125.266 E0.13784 F1200
G1 X127.084 Y126.498 E0.13784 F1200
G1 X125.892 Y127.650 E0.13784 F1200
G1 X124.622 Y128.715 E0.13784 F1200
G1 X123.281 Y129.690 E0.13784 F1200
G1 X121.875 Y130.568 E0.13784 F1200
G1 X120.411 Y131.346 E0.13784 F1200
G1 X118.897 Y132.021 E0.13784 F1200
G1 X117.339 Y132.588 E0.13784 F1200
G1 X115.746 Y133.045 E0.13784 F1200
G1 X114.124 Y133.389 E0.13784 F1200
G1 X112.483 Y133.620 E0.13784 F1200
G1 X110.829 Y133.736 E0.13784 F1200
G1 X109.171 Y133.736 E0.13784 F1200
G1 X107.517 Y133.620 E0.13784 F1200
G1 X105.876 Y133.389 E0.13784 F1200
G1 X104.254 Y133.045 E0.13784 F1200
G1 X102.661 Y132.588 E0.13784 F1200
G1 X101.103 Y132.021 E0.13784 F1200
G1 X99.589 Y131.346 E0.13784 F1200
G1 X98.125 Y130.568 E0.13784 F1200
G1 X96.719 Y129.690 E0.13784 F1200
G1 X95.378 Y128.715 E0.13784 F1200
G1 X94.108 Y127.650 E0.13784 F1200
G1 X92.916 Y126.498 E0.13784 F1200
G1 X91.806 Y125.266 E0.13784 F1200
G1 X90.786 Y123.960 E0.13784 F1200
G1 X89.859 Y122.586 E0.13784 F1200
G1 X89.030 Y121.150 E0.13784 F1200
G1 X88.303 Y119.660 E0.13784 F1200
G1 X87.682 Y118.123 E0.13784 F1200
G1 X87.170 Y116.546 E0.13784 F1200
G1 X86.769 Y114.938 E0.13784 F1200
G1 X86.481 Y113.305 E0.13784 F1200
G1 X86.308 Y111.657 E0.13784 F1200
G1 X86.250 Y110.000 E0.13784 F1200
G1 X86.308 Y108.343 E0.13784 F1200
G1 X86.481 Y106.695 E0.13784 F1200
G1 X86.769 Y105.062 E0.13784 F1200
G1 X87.170 Y103.454 E0.13784 F1200
G1 X87.682 Y101.877 E0.13784 F1200
G1 X88.303 Y100.340 E0.13784 F1200
G1 X89.030 Y98.850 E0.13784 F1200
G1 X89.859 Y97.414 E0.13784 F1200
G1 X90.786 Y96.040 E0.13784 F1200
G1 X91.806 Y94.734 E0.13784 F1200
G1 X92.916 Y93.502 E0.13784 F1200
G1 X94.108 Y92.350 E0.13784 F1200
G1 X95.378 Y91.285 E0.13784 F1200
G1 X96.719 Y90.310 E0.13784 F1200
G1 X98.125 Y89.432 E0.13784 F1200
G1 X99.589 Y88.654 E0.13784 F1200
G1 X101.103 Y87.979 E0.13784 F1200
G1 X102.661 Y87.412 E0.13784 F1200
G1 X104.254 Y86.955 E0.13784 F1200
G1 X105.876 Y86.611 E0.13784 F1200
G1 X107.517 Y86.380 E0.13784 F1200
G1 X109.171 Y86.264 E0.13784 F1200
G1 X110.829 Y86.264 E0.13784 F1200
G1 X112.483 Y86.380 E0.13784 F1200
G1 X114.124 Y86.611 E0.13784 F1200
G1 X115.746 Y86.955 E0.13784 F1200
G1 X117.339 Y87.412 E0.13784 F1200
G1 X118.897 Y87.979 E0.13784 F1200
G1 X120.411 Y88.654 E0.13784 F1200
G1 X121.875 Y89.432 E0.13784 F1200
G1 X123.281 Y90.310 E0.13784 F1200
G1 X124.622 Y91.285 E0.13784 F1200
G1 X125.892 Y92.350 E0.13784 F1200
G1 X127.084 Y93.502 E0.13784 F1200
G1 X128.194 Y94.734 E0.13784 F1200
G1 X129.214 Y96.040 E0.13784 F1200
G1 X130.141 Y97.414 E0.13784 F1200
G1 X130.970 Y98.850 E0.13784 F1200
G1 X131.697 Y100.340 E0.13784 F1200
G1 X132.318 Y101.877 E0.13784 F1200
G1 X132.830 Y103.454 E0.13784 F1200
G1 X133.231 Y105.062 E0.13784 F1200
G1 X133.519 Y106.695 E0.13784 F1200
G1 X133.692 Y108.343 E0.13784 F1200
G1 X133.750 Y110.000 E0.13784 F1200
G0 X134.750 Y110.000 F9000
G1 X134.690 Y111.726 E0.14364 F1200
G1 X134.509 Y113.445 E0.14364 F1200
G1 X134.209 Y115.146 E0.14364 F1200
G1 X133.791 Y116.822 E0.14364 F1200
G1 X133.257 Y118.465 E0.14364 F1200
G1 X132.610 Y120.067 E0.14364 F1200
G1 X131.853 Y121.619 E0.14364 F1200
G1 X130.989 Y123.116 E0.14364 F1200
G1 X130.023 Y124.548 E0.14364 F1200
G1 X128.960 Y125.909 E0.14364 F1200
G1 X127.804 Y127.193 E0.14364 F1200
G1 X126.561 Y128.393 E0.14364 F1200
G1 X125.238 Y129.503 E0.14364 F1200
G1 X123.840 Y130.519 E0.14364 F1200
G1 X122.375 Y131.434 E0.14364 F1200
G1 X120.850 Y132.245 E0.14364 F1200
G1 X119.272 Y132.948 E0.14364 F1200
G1 X117.648 Y133.539 E0.14364 F1200
G1 X115.988 Y134.015 E0.14364 F1200
G1 X114.298 Y134.374 E0.14364 F1200
G1 X112.587 Y134.614 E0.14364 F1200
G1 X110.864 Y134.735 E0.14364 F1200
G1 X109.136 Y134.735 E0.14364 F1200
G1 X107.413 Y134.614 E0.14364 F1200
G1 X105.702 Y134.374 E0.14364 F1200
G1 X104.012 Y134.015 E0.14364 F1200
G1 X102.352 Y133.539 E0.14364 F1200
G1 X100.728 Y132.948 E0.14364 F1200
G1 X99.150 Y132.245 E0.14364 F1200
G1 X97.625 Y131.434 E0.14364 F1200
G1 X96.160 Y130.519 E0.14364 F1200
G1 X94.762 Y129.503 E0.14364 F1200
G1 X93.439 Y128.393 E0.14364 F1200
G1 X92.196 Y127.193 E0.14364 F1200
G1 X91.040 Y125.909 E0.14364 F1200
G1 X89.977 Y124.548 E0.14364 F1200
G1 X89.011 Y123.116 E0.14364 F1200
G1 X88.147 Y121.619 E0.14364 F1200
G1 X87.390 Y120.067 E0.14364 F1200
G1 X86.743 Y118.465 E0.14364 F1200
G1 X86.209 Y116.822 E0.14364 F1200
G1 X85.791 Y115.146 E0.14364 F1200
G1 X85.491 Y113.445 E0.14364 F1200
G1 X85.310 Y111.726 E0.14364 F1200
G1 X85.250 Y110.000 E0.14364 F1200
G1 X85.310 Y108.274 E0.14364 F1200
G1 X85.491 Y106.555 E0.14364 F1200
G1 X85.791 Y104.854 E0.14364 F1200
G1 X86.209 Y103.178 E0.14364 F1200
G1 X86.743 Y101.535 E0.14364 F1200
G1 X87.390 Y99.933 E0.14364 F1200
G1 X88.147 Y98.381 E0.14364 F1200
G1 X89.011 Y96.884 E0.14364 F1200
G1 X89.977 Y95.452 E0.14364 F1200
G1 X91.040 Y94.091 E0.14364 F1200
G1 X92.196 Y92.807 E0.14364 F1200
G1 X93.439 Y91.607 E0.14364 F1200
G1 X94.762 Y90.497 E0.14364 F1200
G1 X96.160 Y89.481 E0.14364 F1200
G1 X97.625 Y88.566 E0.14364 F1200
G1 X99.150 Y87.755 E0.14364 F1200
G1 X100.728 Y87.052 E0.14364 F1200
G1 X102.352 Y86.461 E0.14364 F1200
G1 X104.012 Y85.985 E0.14364 F1200
G1 X105.702 Y85.626 E0.14364 F1200
G1 X107.413 Y85.386 E0.14364 F1200
G1 X109.136 Y85.265 E0.14364 F1200
G1 X110.864 Y85.265 E0.14364 F1200
G1 X112.587 Y85.386 E0.14364 F1200
G1 X114.298 Y85.626 E0.14364 F1200
G1 X115.988 Y85.985 E0.14364 F1200
G1 X117.648 Y86.461 E0.14364 F1200
G1 X119.272 Y87.052 E0.14364 F1200
G1 X120.850 Y87.755 E0.14364 F1200
G1 X122.375 Y88.566 E0.14364 F1200
G1 X123.840 Y89.481 E0.14364 F1200
G1 X125.238 Y90.497 E0.14364 F1200
G1 X126.561 Y91.607 E0.14364 F1200
G1 X127.804 Y92.807 E0.14364 F1200
G1 X128.960 Y94.091 E0.14364 F1200
G1 X130.023 Y95.452 E0.14364 F1200
G1 X130.989 Y96.884 E0.14364 F1200
G1 X131.853 Y98.381 E0.14364 F1200
G1 X132.610 Y99.933 E0.14364 F1200
G1 X133.257 Y101.535 E0.14364 F1200
G1 X133.791 Y103.178 E0.14364 F1200
G1 X134.209 Y104.854 E0.14364 F1200
G1 X134.509 Y106.555 E0.14364 F1200
G1 X134.690 Y108.274 E0.14364 F1200
G1 X134.750 Y110.000 E0.14364 F1200
G0 X135.750 Y110.000 F9000
G1 X135.687 Y111.796 E0.14945 F1200
G1 X135.499 Y113.584 E0.14945 F1200
G1 X135.187 Y115.354 E0.14945 F1200
G1 X134.752 Y117.098 E0.14945 F1200
G1 X134.197 Y118.807 E0.14945 F1200
G1 X133.524 Y120.473 E0.14945 F1200
G1 X132.736 Y122.089 E0.14945 F1200
G1 X131.837 Y123.645 E0.14945 F1200
G1 X130.832 Y125.135 E0.14945 F1200
G1 X129.726 Y126.552 E0.14945 F1200
G1 X128.523 Y127.887 E0.14945 F1200
G1 X127.230 Y129.136 E0.14945 F1200
G1 X125.853 Y130.291 E0.14945 F1200
G1 X124.399 Y131.348 E0.14945 F1200
G1 X122.875 Y132.300 E0.14945 F1200
G1 X121.288 Y133.144 E0.14945 F1200
G1 X119.646 Y133.875 E0.14945 F1200
G1 X117.957 Y134.490 E0.14945 F1200
G1 X116.229 Y134.985 E0.14945 F1200
G1 X114.471 Y135.359 E0.14945 F1200
G1 X112.692 Y135.609 E0.14945 F1200
G1 X110.899 Y135.734 E0.14945 F1200
G1 X109.101 Y135.734 E0.14945 F1200
G1 X107.308 Y135.609 E0.14945 F1200
G1 X105.529 Y135.359 E0.14945 F1200
G1 X103.771 Y134.985 E0.14945 F1200
G1 X102.043 Y134.490 E0.14945 F1200
G1 X100.354 Y133.875 E0.14945 F1200
G1 X98.712 Y133.144 E0.14945 F1200
G1 X97.125 Y132.300 E0.14945 F1200
G1 X95.601 Y131.348 E0.14945 F1200
G1 X94.147 Y130.291 E0.14945 F1200
G1 X92.770 Y129.136 E0.14945 F1200
G1 X91.477 Y127.887 E0.14945 F1200
G1 X90.274 Y126.552 E0.14945 F1200
G1 X89.168 Y125.135 E0.14945 F1200
G1 X88.163 Y123.645 E0.14945 F1200
G1 X87.264 Y122.089 E0.14945 F1200
G1 X86.476 Y120.473 E0.14945 F1200
G1 X85.803 Y118.807 E0.14945 F1200
G1 X85.248 Y117.098 E0.14945 F1200
G1 X84.813 Y115.354 E0.14945 F1200
G1 X84.501 Y113.584 E0.14945 F1200
G1 X84.313 Y111.796 E0.14945 F1200
G1 X84.250 Y110.000 E0.14945 F1200
G1 X84.313 Y108.204 E0.14945 F1200
G1 X84.501 Y106.416 E0.14945 F1200
G1 X84.813 Y104.646 E0.14945 F1200
G1 X85.248 Y102.902 E0.14945 F1200
G1 X85.803 Y101.193 E0.14945 F1200
G1 X86.476 Y99.527 E0.14945 F1200
G1 X87.264 Y97.911 E0.14945 F1200
G1 X88.163 Y96.355 E0.14945 F1200
G1 X89.168 Y94.865 E0.14945 F1200
G1 X90.274 Y93.448 E0.14945 F1200
G1 X91.477 Y92.113 E0.14945 F1200
G1 X92.770 Y90.864 E0.14945 F1200
G1 X94.147 Y89.709 E0.14945 F1200
G1 X95.601 Y88.652 E0.14945 F1200
G1 X97.125 Y87.700 E0.14945 F1200
G1 X98.712 Y86.856 E0.14945 F1200
G1 X100.354 Y86.125 E0.14945 F1200
G1 X102.043 Y85.510 E0.14945 F1200
G1 X103.771 Y85.015 E0.14945 F1200
G1 X105.529 Y84.641 E0.14945 F1200
G1 X107.308 Y84.391 E0.14945 F1200
G1 X109.101 Y84.266 E0.14945 F1200
G1 X110.899 Y84.266 E0.14945 F1200
G1 X112.692 Y84.391 E0.14945 F1200
G1 X114.471 Y84.641 E0.14945 F1200
G1 X116.229 Y85.015 E0.14945 F1200
G1 X117.957 Y85.510 E0.14945 F1200
G1 X119.646 Y86.125 E0.14945 F1200
G1 X121.288 Y86.856 E0.14945 F1200
G1 X122.875 Y87.700 E0.14945 F1200
G1 X124.399 Y88.652 E0.14945 F1200
G1 X125.853 Y89.709 E0.14945 F1200
G1 X127.230 Y90.864 E0.14945 F1200
G1 X128.523 Y92.113 E0.14945 F1200
G1 X129.726 Y93.448 E0.14945 F1200
G1 X130.832 Y94.865 E0.14945 F1200
G1 X131.837 Y96.355 E0.14945 F1200
G1 X132.736 Y97.911 E0.14945 F1200
G1 X133.524 Y99.527 E0.14945 F1200
G1 X134.197 Y101.193 E0.14945 F1200
G1 X134.752 Y102.902 E0.14945 F1200
G1 X135.187 Y104.646 E0.14945 F1200
G1 X135.499 Y106.416 E0.14945 F1200
G1 X135.687 Y108.204 E0.14945 F1200
G1 X135.750 Y110.000 E0.14945 F1200
G0 X136.750 Y110.000 F9000
G1 X136.685 Y111.866 E0.15525 F1200
G1 X136.490 Y113.723 E0.15525 F1200
G1 X136.165 Y115.562 E0.15525 F1200
G1 X135.714 Y117.373 E0.15525 F1200
G1 X135.137 Y119.149 E0.15525 F1200
G1 X134.437 Y120.880 E0.15525 F1200
G1 X133.619 Y122.558 E0.15525 F1200
G1 X132.685 Y124.175 E0.15525 F1200
G1 X131.641 Y125.723 E0.15525 F1200
G1 X130.492 Y127.195 E0.15525 F1200
G1 X129.242 Y128.582 E0.15525 F1200
G1 X127.899 Y129.879 E0.15525 F1200
G1 X126.469 Y131.079 E0.15525 F1200
G1 X124.958 Y132.177 E0.15525 F1200
G1 X123.375 Y133.166 E0.15525 F1200
G1 X121.726 Y134.043 E0.15525 F1200
G1 X120.021 Y134.802 E0.15525 F1200
G1 X118.266 Y135.441 E0.15525 F1200
G1 X116.471 Y135.955 E0.15525 F1200
G1 X114.645 Y136.344 E0.15525 F1200
G1 X112.796 Y136.603 E0.15525 F1200
G1 X110.934 Y136.734 E0.15525 F1200
G1 X109.066 Y136.734 E0.15525 F1200
G1 X107.204 Y136.603 E0.15525 F1200
G1 X105.355 Y136.344 E0.15525 F1200
G1 X103.529 Y135.955 E0.15525 F1200
G1 X101.734 Y135.441 E0.15525 F1200
G1 X99.979 Y134.802 E0.15525 F1200
G1 X98.274 Y134.043 E0.15525 F1200
G1 X96.625 Y133.166 E0.15525 F1200
G1 X95.042 Y132.177 E0.15525 F1200
G1 X93.531 Y131.079 E0.15525 F1200
G1 X92.101 Y129.879 E0.15525 F1200
G1 X90.758 Y128.582 E0.15525 F1200
G1 X89.508 Y127.195 E0.15525 F1200
G1 X88.359 Y125.723 E0.15525 F1200
G1 X87.315 Y124.175 E0.15525 F1200
G1 X86.381 Y122.558 E0.15525 F1200
G1 X85.563 Y120.880 E0.15525 F1200
G1 X84.863 Y119.149 E0.15525 F1200
G1 X84.286 Y117.373 E0.15525 F1200
G1 X83.835 Y115.562 E0.15525 F1200
G1 X83.510 Y113.723 E0.15525 F1200
G1 X83.315 Y111.866 E0.15525 F1200
G1 X83.250 Y110.000 E0.15525 F1200
G1 X83.315 Y108.134 E0.15525 F1200
G1 X83.510 Y106.277 E0.15525 F1200
G1 X83.835 Y104.438 E0.15525 F1200
G1 X84.286 Y102.627 E0.15525 F1200
G1 X84.863 Y100.851 E0.15525 F1200
G1 X85.563 Y99.120 E0.15525 F1200
G1 X86.381 Y97.442 E0.15525 F1200
G1 X87.315 Y95.825 E0.15525 F1200
G1 X88.359 Y94.277 E0.15525 F1200
G1 X89.508 Y92.805 E0.15525 F1200
G1 X90.758 Y91.418 E0.15525 F1200
G1 X92.101 Y90.121 E0.15525 F1200
G1 X93.531 Y88.921 E0.15525 F1200
G1 X95.042 Y87.823 E0.15525 F1200
G1 X96.625 Y86.834 E0.15525 F1200
G1 X98.274 Y85.957 E0.15525 F1200
G1 X99.979 Y85.198 E0.15525 F1200
G1 X101.734 Y84.559 E0.15525 F1200
G1 X103.529 Y84.045 E0.15525 F1200
G1 X105.355 Y83.656 E0.15525 F1200
G1 X107.204 Y83.397 E0.15525 F1200
G1 X109.066 Y83.266 E0.15525 F1200
G1 X110.934 Y83.266 E0.15525 F1200
G1 X112.796 Y83.397 E0.15525 F1200
G1 X114.645 Y83.656 E0.15525 F1200
G1 X116.471 Y84.045 E0.15525 F1200
G1 X118.266 Y84.559 E0.15525 F1200
G1 X120.021 Y85.198 E0.15525 F1200
G1 X121.726 Y85.957 E0.15525 F1200
G1 X123.375 Y86.834 E0.15525 F1200
G1 X124.958 Y87.823 E0.15525 F1200
G1 X126.469 Y88.921 E0.15525 F1200
G1 X127.899 Y90.121 E0.15525 F1200
G1 X129.242 Y91.418 E0.15525 F1200
G1 X130.492 Y92.805 E0.15525 F1200
G1 X131.641 Y94.277 E0.15525 F1200
G1 X132.685 Y95.825 E0.15525 F1200
G1 X133.619 Y97.442 E0.15525 F1200
G1 X134.437 Y99.120 E0.15525 F1200
G1 X135.137 Y100.851 E0.15525 F1200
G1 X135.714 Y102.627 E0.15525 F1200
G1 X136.165 Y104.438 E0.15525 F1200
G1 X136.490 Y106.277 E0.15525 F1200
G1 X136.685 Y108.134 E0.15525 F1200
G1 X136.750 Y110.000 E0.15525 F1200
G0 X137.750 Y110.000 F9000
G1 X137.682 Y111.936 E0.16106 F1200
G1 X137.480 Y113.862 E0.16106 F1200
G1 X137.144 Y115.770 E0.16106 F1200
G1 X136.675 Y117.649 E0.16106 F1200
G1 X136.076 Y119.491 E0.16106 F1200
G1 X135.351 Y121.287 E0.16106 F1200
G1 X134.502 Y123.028 E0.16106 F1200
G1 X133.533 Y124.705 E0.16106 F1200
G1 X132.450 Y126.311 E0.16106 F1200
G1 X131.258 Y127.837 E0.16106 F1200
G1 X129.962 Y129.277 E0.16106 F1200
G1 X128.568 Y130.622 E0.16106 F1200
G1 X127.085 Y131.867 E0.16106 F1200
G1 X125.518 Y133.006 E0.16106 F1200
G1 X123.875 Y134.032 E0.16106 F1200
G1 X122.165 Y134.942 E0.16106 F1200
G1 X120.395 Y135.729 E0.16106 F1200
G1 X118.575 Y136.392 E0.16106 F1200
G1 X116.713 Y136.926 E0.16106 F1200
G1 X114.819 Y137.328 E0.16106 F1200
G1 X112.901 Y137.598 E0.16106 F1200
G1 X110.968 Y137.733 E0.16106 F1200
G1 X109.032 Y137.733 E0.16106 F1200
G1 X107.099 Y137.598 E0.16106 F1200
G1 X105.181 Y137.328 E0.16106 F1200
G1 X103.287 Y136.926 E0.16106 F1200
G1 X101.425 Y136.392 E0.16106 F1200
G1 X99.605 Y135.729 E0.16106 F1200
G1 X97.835 Y134.942 E0.16106 F1200
G1 X96.125 Y134.032 E0.16106 F1200
G1 X94.482 Y133.006 E0.16106 F1200
G1 X92.915 Y131.867 E0.16106 F1200
G1 X91.432 Y130.622 E0.16106 F1200
G1 X90.038 Y129.277 E0.16106 F1200
G1 X88.742 Y127.837 E0.16106 F1200
G1 X87.550 Y126.311 E0.16106 F1200
G1 X86.467 Y124.705 E0.16106 F1200
G1 X85.498 Y123.028 E0.16106 F1200
G1 X84.649 Y121.287 E0.16106 F1200
G1 X83.924 Y119.491 E0.16106 F1200
G1 X83.325 Y117.649 E0.16106 F1200
G1 X82.856 Y115.770 E0.16106 F1200
G1 X82.520 Y113.862 E0.16106 F1200
G1 X82.318 Y111.936 E0.16106 F1200
G1 X82.250 Y110.000 E0.16106 F1200
G1 X82.318 Y108.064 E0.16106 F1200
G1 X82.520 Y106.138 E0.16106 F1200
G1 X82.856 Y104.230 E0.16106 F1200
G1 X83.325 Y102.351 E0.16106 F1200
G1 X83.924 Y100.509 E0.16106 F1200
G1 X84.649 Y98.713 E0.16106 F1200
G1 X85.498 Y96.972 E0.16106 F1200
G1 X86.467 Y95.295 E0.16106 F1200
G1 X87.550 Y93.689 E0.16106 F1200
G1 X88.742 Y92.163 E0.16106 F1200
G1 X90.038 Y90.723 E0.16106 F1200
G1 X91.432 Y89.378 E0.16106 F1200
G1 X92.915 Y88.133 E0.16106 F1200
G1 X94.482 Y86.994 E0.16106 F1200
G1 X96.125 Y85.968 E0.16106 F1200
G1 X97.835 Y85.058 E0.16106 F1200
G1 X99.605 Y84.271 E0.16106 F1200
G1 X101.425 Y83.608 E0.16106 F1200
G1 X103.287 Y83.074 E0.16106 F1200
G1 X105.181 Y82.672 E0.16106 F1200
G1 X107.099 Y82.402 E0.16106 F1200
G1 X109.032 Y82.267 E0.16106 F1200
G1 X110.968 Y82.267 E0.16106 F1200
G1 X112.901 Y82.402 E0.16106 F1200
G1 X114.819 Y82.672 E0.16106 F1200
G1 X116.713 Y83.074 E0.16106 F1200
G1 X118.575 Y83.608 E0.16106 F1200
G1 X120.395 Y84.271 E0.16106 F1200
G1 X122.165 Y85.058 E0.16106 F1200
G1 X123.875 Y85.968 E0.16106 F1200
G1 X125.518 Y86.994 E0.16106 F1200
G1 X127.085 Y88.133 E0.16106 F1200
G1 X128.568 Y89.378 E0.16106 F1200
G1 X129.962 Y90.723 E0.16106 F1200
G1 X131.258 Y92.163 E0.16106 F1200
G1 X132.450 Y93.689 E0.16106 F1200
G1 X133.533 Y95.295 E0.16106 F1200
G1 X134.502 Y96.972 E0.16106 F1200
G1 X135.351 Y98.713 E0.16106 F1200
G1 X136.076 Y100.509 E0.16106 F1200
G1 X136.675 Y102.351 E0.16106 F1200
G1 X137.144 Y104.230 E0.16106 F1200
G1 X137.480 Y106.138 E0.16106 F1200
G1 X137.682 Y108.064 E0.16106 F1200
G1 X137.750 Y110.000 E0.16106 F1200
G0 X138.750 Y110.000 F9000
G1 X138.680 Y112.005 E0.16686 F1200
G1 X138.470 Y114.001 E0.16686 F1200
G1 X138.122 Y115.977 E0.16686 F1200
G1 X137.636 Y117.925 E0.16686 F1200
G1 X137.016 Y119.833 E0.16686 F1200
G1 X136.264 Y121.694 E0.16686 F1200
G1 X135.385 Y123.497 E0.16686 F1200
G1 X134.381 Y125.235 E0.16686 F1200
G1 X133.259 Y126.899 E0.16686 F1200
G1 X132.024 Y128.480 E0.16686 F1200
G1 X130.681 Y129.971 E0.16686 F1200
G1 X129.238 Y131.365 E0.16686 F1200
G1 X127.700 Y132.655 E0.16686 F1200
G1 X126.077 Y133.835 E0.16686 F1200
G1 X124.375 Y134.898 E0.16686 F1200
G1 X122.603 Y135.840 E0.16686 F1200
G1 X120.770 Y136.657 E0.16686 F1200
G1 X118.884 Y137.343 E0.16686 F1200
G1 X116.955 Y137.896 E0.16686 F1200
G1 X114.992 Y138.313 E0.16686 F1200
G1 X113.005 Y138.593 E0.16686 F1200
G1 X111.003 Y138.732 E0.16686 F1200
G1 X108.997 Y138.732 E0.16686 F1200
G1 X106.995 Y138.593 E0.16686 F1200
G1 X105.008 Y138.313 E0.16686 F1200
G1 X103.045 Y137.896 E0.16686 F1200
G1 X101.116 Y137.343 E0.16686 F1200
G1 X99.230 Y136.657 E0.16686 F1200
G1 X97.397 Y135.840 E0.16686 F1200
G1 X95.625 Y134.898 E0.16686 F1200
G1 X93.923 Y133.835 E0.16686 F1200
G1 X92.300 Y132.655 E0.16686 F1200
G1 X90.762 Y131.365 E0.16686 F1200
G1 X89.319 Y129.971 E0.16686 F1200
G1 X87.976 Y128.480 E0.16686 F1200
G1 X86.741 Y126.899 E0.16686 F1200
G1 X85.619 Y125.235 E0.16686 F1200
G1 X84.615 Y123.497 E0.16686 F1200
G1 X83.736 Y121.694 E0.16686 F1200
G1 X82.984 Y119.833 E0.16686 F1200
G1 X82.364 Y117.925 E0.16686 F1200
G1 X81.878 Y115.977 E0.16686 F1200
G1 X81.530 Y114.001 E0.16686 F1200
G1 X81.320 Y112.005 E0.16686 F1200
G1 X81.250 Y110.000 E0.16686 F1200
G1 X81.320 Y107.995 E0.16686 F1200
G1 X81.530 Y105.999 E0.16686 F1200
G1 X81.878 Y104.023 E0.16686 F1200
G1 X82.364 Y102.075 E0.16686 F1200
G1 X82.984 Y100.167 E0.16686 F1200
G1 X83.736 Y98.306 E0.16686 F1200
G1 X84.615 Y96.503 E0.16686 F1200
G1 X85.619 Y94.765 E0.16686 F1200
G1 X86.741 Y93.101 E0.16686 F1200
G1 X87.976 Y91.520 E0.16686 F1200
G1 X89.319 Y90.029 E0.16686 F1200
G1 X90.762 Y88.635 E0.16686 F1200
G1 X92.300 Y87.345 E0.16686 F1200
G1 X93.923 Y86.165 E0.16686 F1200
G1 X95.625 Y85.102 E0.16686 F1200
G1 X97.397 Y84.160 E0.16686 F1200
G1 X99.230 Y83.343 E0.16686 F1200
G1 X101.116 Y82.657 E0.16686 F1200
G1 X103.045 Y82.104 E0.16686 F1200
G1 X105.008 Y81.687 E0.16686 F1200
G1 X106.995 Y81.407 E0.16686 F1200
G1 X108.997 Y81.268 E0.16686 F1200
G1 X111.003 Y81.268 E0.16686 F1200
G1 X113.005 Y81.407 E0.16686 F1200
G1 X114.992 Y81.687 E0.16686 F1200
G1 X116.955 Y82.104 E0.16686 F1200
G1 X118.884 Y82.657 E0.16686 F1200
G1 X120.770 Y83.343 E0.16686 F1200
G1 X122.603 Y84.160 E0.16686 F1200
G1 X124.375 Y85.102 E0.16686 F1200
G1 X126.077 Y86.165 E0.16686 F1200
G1 X127.700 Y87.345 E0.16686 F1200
G1 X129.238 Y88.635 E0.16686 F1200
G1 X130.681 Y90.029 E0.16686 F1200
G1 X132.024 Y91.520 E0.16686 F1200
G1 X133.259 Y93.101 E0.16686 F1200
G1 X134.381 Y94.765 E0.16686 F1200
G1 X135.385 Y96.503 E0.16686 F1200
G1 X136.264 Y98.306 E0.16686 F1200
G1 X137.016 Y100.167 E0.16686 F1200
G1 X137.636 Y102.075 E0.16686 F1200
G1 X138.122 Y104.023 E0.16686 F1200
G1 X138.470 Y105.999 E0.16686 F1200
G1 X138.680 Y107.995 E0.16686 F1200
G1 X138.750 Y110.000 E0.16686 F1200
G0 X139.750 Y110.000 F9000
G1 X139.678 Y112.075 E0.17266 F1200
G1 X139.460 Y114.140 E0.17266 F1200
G1 X139.100 Y116.185 E0.17266 F1200
G1 X138.598 Y118.200 E0.17266 F1200
G1 X137.956 Y120.175 E0.17266 F1200
G1 X137.178 Y122.100 E0.17266 F1200
G1 X136.268 Y123.967 E0.17266 F1200
G1 X135.229 Y125.765 E0.17266 F1200
G1 X134.068 Y127.487 E0.17266 F1200
G1 X132.790 Y129.123 E0.17266 F1200
G1 X131.400 Y130.666 E0.17266 F1200
G1 X129.907 Y132.109 E0.17266 F1200
G1 X128.316 Y133.443 E0.17266 F1200
G1 X126.636 Y134.664 E0.17266 F1200
G1 X124.875 Y135.764 E0.17266 F1200
G1 X123.042 Y136.739 E0.17266 F1200
G1 X121.145 Y137.584 E0.17266 F1200
G1 X119.193 Y138.294 E0.17266 F1200
G1 X117.197 Y138.866 E0.17266 F1200
G1 X115.166 Y139.298 E0.17266 F1200
G1 X113.110 Y139.587 E0.17266 F1200
G1 X111.038 Y139.732 E0.17266 F1200
G1 X108.962 Y139.732 E0.17266 F1200
G1 X106.890 Y139.587 E0.17266 F1200
G1 X104.834 Y139.298 E0.17266 F1200
G1 X102.803 Y138.866 E0.17266 F1200
G1 X100.807 Y138.294 E0.17266 F1200
G1 X98.855 Y137.584 E0.17266 F1200
G1 X96.958 Y136.739 E0.17266 F1200
G1 X95.125 Y135.764 E0.17266 F1200
G1 X93.364 Y134.664 E0.17266 F1200
G1 X91.684 Y133.443 E0.17266 F1200
G1 X90.093 Y132.109 E0.17266 F1200
G1 X88.600 Y130.666 E0.17266 F1200
G1 X87.210 Y129.123 E0.17266 F1200
G1 X85.932 Y127.487 E0.17266 F1200
G1 X84.771 Y125.765 E0.17266 F1200
G1 X83.732 Y123.967 E0.17266 F1200
G1 X82.822 Y122.100 E0.17266 F1200
G1 X82.044 Y120.175 E0.17266 F1200
G1 X81.402 Y118.200 E0.17266 F1200
G1 X80.900 Y116.185 E0.17266 F1200
G1 X80.540 Y114.140 E0.17266 F1200
G1 X80.322 Y112.075 E0.17266 F1200
G1 X80.250 Y110.000 E0.17266 F1200
G1 X80.322 Y107.925 E0.17266 F1200
G1 X80.540 Y105.860 E0.17266 F1200
G1 X80.900 Y103.815 E0.17266 F1200
G1 X81.402 Y101.800 E0.17266 F1200
G1 X82.044 Y99.825 E0.17266 F1200
G1 X82.822 Y97.900 E0.17266 F1200
G1 X83.732 Y96.033 E0.17266 F1200
G1 X84.771 Y94.235 E0.17266 F1200
G1 X85.932 Y92.513 E0.17266 F1200
G1 X87.210 Y90.877 E0.17266 F1200
G1 X88.600 Y89.334 E0.17266 F1200
G1 X90.093 Y87.891 E0.17266 F1200
G1 X91.684 Y86.557 E0.17266 F1200
G1 X93.364 Y85.336 E0.17266 F1200
G1 X95.125 Y84.236 E0.17266 F1200
G1 X96.958 Y83.261 E0.17266 F1200
G1 X98.855 Y82.416 E0.17266 F1200
G1 X100.807 Y81.706 E0.17266 F1200
G1 X102.803 Y81.134 E0.17266 F1200
G1 X104.834 Y80.702 E0.17266 F1200
G1 X106.890 Y80.413 E0.17266 F1200
G1 X108.962 Y80.268 E0.17266 F1200
G1 X111.038 Y80.268 E0.17266 F1200
G1 X113.110 Y80.413 E0.17266 F1200
G1 X115.166 Y80.702 E0.17266 F1200
G1 X117.197 Y81.134 E0.17266 F1200
G1 X119.193 Y81.706 E0.17266 F1200
G1 X121.145 Y82.416 E0.17266 F1200
G1 X123.042 Y83.261 E0.17266 F1200
G1 X124.875 Y84.236 E0.17266 F1200
G1 X126.636 Y85.336 E0.17266 F1200
G1 X128.316 Y86.557 E0.17266 F1200
G1 X129.907 Y87.891 E0.17266 F1200
G1 X131.400 Y89.334 E0.17266 F1200
G1 X132.790 Y90.877 E0.17266 F1200
G1 X134.068 Y92.513 E0.17266 F1200
G1 X135.229 Y94.235 E0.17266 F1200
G1 X136.268 Y96.033 E0.17266 F1200
G1 X137.178 Y97.900 E0.17266 F1200
G1 X137.956 Y99.825 E0.17266 F1200
G1 X138.598 Y101.800 E0.17266 F1200
G1 X139.100 Y103.815 E0.17266 F1200
G1 X139.460 Y105.860 E0.17266 F1200
G1 X139.678 Y107.925 E0.17266 F1200
G1 X139.750 Y110.000 E0.17266 F1200
;LAYER:1
;Z:0.600
;PLY:CAP
G1 Z0.600 F600
;TYPE:WALL
G1 E-1.0000 F2400
G1 Z1.000 F600 ; Zfix hop up
G0 X142.600 Y110.000 F9000
G1 Z0.600 F600 ; Zfix hop down
G1 E1.0000 F2400
G1 X142.521 Y112.274 E0.37841 F1800
G1 X142.283 Y114.537 E0.37841 F1800
G1 X141.888 Y116.778 E0.37841 F1800
G1 X141.337 Y118.986 E0.37841 F1800
G1 X140.634 Y121.150 E0.37841 F1800
G1 X139.782 Y123.260 E0.37841 F1800
G1 X138.784 Y125.305 E0.37841 F1800
G1 X137.646 Y127.275 E0.37841 F1800
G1 X136.374 Y129.162 E0.37841 F1800
G1 X134.973 Y130.955 E0.37841 F1800
G1 X133.450 Y132.646 E0.37841 F1800
G1 X131.814 Y134.227 E0.37841 F1800
G1 X130.071 Y135.689 E0.37841 F1800
G1 X128.230 Y137.027 E0.37841 F1800
G1 X126.300 Y138.232 E0.37841 F1800
G1 X124.291 Y139.301 E0.37841 F1800
G1 X122.212 Y140.226 E0.37841 F1800
G1 X120.074 Y141.004 E0.37841 F1800
G1 X117.887 Y141.632 E0.37841 F1800
G1 X115.661 Y142.105 E0.37841 F1800
G1 X113.408 Y142.421 E0.37841 F1800
G1 X111.138 Y142.580 E0.37841 F1800
G1 X108.862 Y142.580 E0.37841 F1800
G1 X106.592 Y142.421 E0.37841 F1800
G1 X104.339 Y142.105 E0.37841 F1800
G1 X102.113 Y141.632 E0.37841 F1800
G1 X99.926 Y141.004 E0.37841 F1800
G1 X97.788 Y140.226 E0.37841 F1800
G1 X95.709 Y139.301 E0.37841 F1800
G1 X93.700 Y138.232 E0.37841 F1800
G1 X91.770 Y137.027 E0.37841 F1800
G1 X89.929 Y135.689 E0.37841 F1800
G1 X88.186 Y134.227 E0.37841 F1800
G1 X86.550 Y132.646 E0.37841 F1800
G1 X85.027 Y130.955 E0.37841 F1800
G1 X83.626 Y129.162 E0.37841 F1800
G1 X82.354 Y127.275 E0.37841 F1800
G1 X81.216 Y125.305 E0.37841 F1800
G1 X80.218 Y123.260 E0.37841 F1800
G1 X79.366 Y121.150 E0.37841 F1800
G1 X78.663 Y118.986 E0.37841 F1800
G1 X78.112 Y116.778 E0.37841 F1800
G1 X77.717 Y114.537 E0.37841 F1800
G1 X77.479 Y112.274 E0.37841 F1800
G1 X77.400 Y110.000 E0.37841 F1800
G1 X77.479 Y107.726 E0.37841 F1800
G1 X77.717 Y105.463 E0.37841 F1800
G1 X78.112 Y103.222 E0.37841 F1800
G1 X78.663 Y101.014 E0.37841 F1800
G1 X79.366 Y98.850 E0.37841 F1800
G1 X80.218 Y96.740 E0.37841 F1800
G1 X81.216 Y94.695 E0.37841 F1800
G1 X82.354 Y92.725 E0.37841 F1800
G1 X83.626 Y90.838 E0.37841 F1800
G1 X85.027 Y89.045 E0.37841 F1800
G1 X86.550 Y87.354 E0.37841 F1800
G1 X88.186 Y85.773 E0.37841 F1800
G1 X89.929 Y84.311 E0.37841 F1800
G1 X91.770 Y82.973 E0.37841 F1800
G1 X93.700 Y81.768 E0.37841 F1800
G1 X95.709 Y80.699 E0.37841 F1800
G1 X97.788 Y79.774 E0.37841 F1800
G1 X99.926 Y78.996 E0.37841 F1800
G1 X102.113 Y78.368 E0.37841 F1800
G1 X104.339 Y77.895 E0.37841 F1800
G1 X106.592 Y77.579 E0.37841 F1800
G1 X108.862 Y77.420 E0.37841 F1800
G1 X111.138 Y77.420 E0.37841 F1800
G1 X113.408 Y77.579 E0.37841 F1800
G1 X115.661 Y77.895 E0.37841 F1800
G1 X117.887 Y78.368 E0.37841 F1800
G1 X120.074 Y78.996 E0.37841 F1800
G1 X122.212 Y79.774 E0.37841 F1800
G1 X124.291 Y80.699 E0.37841 F1800
G1 X126.300 Y81.768 E0.37841 F1800
G1 X128.230 Y82.973 E0.37841 F1800
G1 X130.071 Y84.311 E0.37841 F1800
G1 X131.814 Y85.773 E0.37841 F1800
G1 X133.450 Y87.354 E0.37841 F1800
G1 X134.973 Y89.045 E0.37841 F1800
G1 X136.374 Y90.838 E0.37841 F1800
G1 X137.646 Y92.725 E0.37841 F1800
G1 X138.784 Y94.695 E0.37841 F1800
G1 X139.782 Y96.740 E0.37841 F1800
G1 X140.634 Y98.850 E0.37841 F1800
G1 X141.337 Y101.014 E0.37841 F1800
G1 X141.888 Y103.222 E0.37841 F1800
G1 X142.283 Y105.463 E0.37841 F1800
G1 X142.521 Y107.726 E0.37841 F1800
G1 X142.600 Y110.000 E0.37841 F1800
G0 X141.600 Y110.000 F9000
G1 X141.523 Y112.204 E0.36680 F1800
G1 X141.292 Y114.398 E0.36680 F1800
G1 X140.909 Y116.570 E0.36680 F1800
G1 X140.376 Y118.710 E0.36680 F1800
G1 X139.694 Y120.808 E0.36680 F1800
G1 X138.868 Y122.853 E0.36680 F1800
G1 X137.901 Y124.835 E0.36680 F1800
G1 X136.798 Y126.745 E0.36680 F1800
G1 X135.565 Y128.574 E0.36680 F1800
G1 X134.207 Y130.312 E0.36680 F1800
G1 X132.731 Y131.951 E0.36680 F1800
G1 X131.145 Y133.483 E0.36680 F1800
G1 X129.455 Y134.901 E0.36680 F1800
G1 X127.670 Y136.198 E0.36680 F1800
G1 X125.800 Y137.366 E0.36680 F1800
G1 X123.853 Y138.402 E0.36680 F1800
G1 X121.838 Y139.299 E0.36680 F1800
G1 X119.765 Y140.053 E0.36680 F1800
G1 X117.645 Y140.661 E0.36680 F1800
G1 X115.487 Y141.120 E0.36680 F1800
G1 X113.303 Y141.427 E0.36680 F1800
G1 X111.103 Y141.581 E0.36680 F1800
G1 X108.897 Y141.581 E0.36680 F1800
G1 X106.697 Y141.427 E0.36680 F1800
G1 X104.513 Y141.120 E0.36680 F1800
G1 X102.355 Y140.661 E0.36680 F1800
G1 X100.235 Y140.053 E0.36680 F1800
G1 X98.162 Y139.299 E0.36680 F1800
G1 X96.147 Y138.402 E0.36680 F1800
G1 X94.200 Y137.366 E0.36680 F1800
G1 X92.330 Y136.198 E0.36680 F1800
G1 X90.545 Y134.901 E0.36680 F1800
G1 X88.855 Y133.483 E0.36680 F1800
G1 X87.269 Y131.951 E0.36680 F1800
G1 X85.793 Y130.312 E0.36680 F1800
G1 X84.435 Y128.574 E0.36680 F1800
G1 X83.202 Y126.745 E0.36680 F1800
G1 X82.099 Y124.835 E0.36680 F1800
G1 X81.132 Y122.853 E0.36680 F1800
G1 X80.306 Y120.808 E0.36680 F1800
G1 X79.624 Y118.710 E0.36680 F1800
G1 X79.091 Y116.570 E0.36680 F1800
G1 X78.708 Y114.398 E0.36680 F1800
G1 X78.477 Y112.204 E0.36680 F1800
G1 X78.400 Y110.000 E0.36680 F1800
G1 X78.477 Y107.796 E0.36680 F1800
G1 X78.708 Y105.602 E0.36680 F1800
G1 X79.091 Y103.430 E0.36680 F1800
G1 X79.624 Y101.290 E0.36680 F1800
G1 X80.306 Y99.192 E0.36680 F1800
G1 X81.132 Y97.147 E0.36680 F1800
G1 X82.099 Y95.165 E0.36680 F1800
G1 X83.202 Y93.255 E0.36680 F1800
G1 X84.435 Y91.426 E0.36680 F1800
G1 X85.793 Y89.688 E0.36680 F1800
G1 X87.269 Y88.049 E0.36680 F1800
G1 X88.855 Y86.517 E0.36680 F1800
G1 X90.545 Y85.099 E0.36680 F1800
G1 X92.330 Y83.802 E0.36680 F1800
G1 X94.200 Y82.634 E0.36680 F1800
G1 X96.147 Y81.598 E0.36680 F1800
G1 X98.162 Y80.701 E0.36680 F1800
G1 X100.235 Y79.947 E0.36680 F1800
G1 X102.355 Y79.339 E0.36680 F1800
G1 X104.513 Y78.880 E0.36680 F1800
G1 X106.697 Y78.573 E0.36680 F1800
G1 X108.897 Y78.419 E0.36680 F1800
G1 X111.103 Y78.419 E0.36680 F1800
G1 X113.303 Y78.573 E0.36680 F1800
G1 X115.487 Y78.880 E0.36680 F1800
G1 X117.645 Y79.339 E0.36680 F1800
G1 X119.765 Y79.947 E0.36680 F1800
G1 X121.838 Y80.701 E0.36680 F1800
G1 X123.853 Y81.598 E0.36680 F1800
G1 X125.800 Y82.634 E0.36680 F1800
G1 X127.670 Y83.802 E0.36680 F1800
G1 X129.455 Y85.099 E0.36680 F1800
G1 X131.145 Y86.517 E0.36680 F1800
G1 X132.731 Y88.049 E0.36680 F1800
G1 X134.207 Y89.688 E0.36680 F1800
G1 X135.565 Y91.426 E0.36680 F1800
G1 X136.798 Y93.255 E0.36680 F1800
G1 X137.901 Y95.165 E0.36680 F1800
G1 X138.868 Y97.147 E0.36680 F1800
G1 X139.694 Y99.192 E0.36680 F1800
G1 X140.376 Y101.290 E0.36680 F1800
G1 X140.909 Y103.430 E0.36680 F1800
G1 X141.292 Y105.602 E0.36680 F1800
G1 X141.523 Y107.796 E0.36680 F1800
G1 X141.600 Y110.000 E0.36680 F1800
G1 E-1.0000 F2400
G1 Z1.000 F600 ; Zfix hop up
G0 X115.750 Y110.000 F9000
G1 Z0.600 F600 ; Zfix hop down
G1 E1.0000 F2400
G1 X115.736 Y110.401 E0.06674 F1800
G1 X115.694 Y110.800 E0.06674 F1800
G1 X115.624 Y111.195 E0.06674 F1800
G1 X115.527 Y111.585 E0.06674 F1800
G1 X115.403 Y111.967 E0.06674 F1800
G1 X115.253 Y112.339 E0.06674 F1800
G1 X115.077 Y112.699 E0.06674 F1800
G1 X114.876 Y113.047 E0.06674 F1800
G1 X114.652 Y113.380 E0.06674 F1800
G1 X114.405 Y113.696 E0.06674 F1800
G1 X114.136 Y113.994 E0.06674 F1800
G1 X113.848 Y114.273 E0.06674 F1800
G1 X113.540 Y114.531 E0.06674 F1800
G1 X113.215 Y114.767 E0.06674 F1800
G1 X112.875 Y114.980 E0.06674 F1800
G1 X112.521 Y115.168 E0.06674 F1800
G1 X112.154 Y115.331 E0.06674 F1800
G1 X111.777 Y115.469 E0.06674 F1800
G1 X111.391 Y115.579 E0.06674 F1800
G1 X110.998 Y115.663 E0.06674 F1800
G1 X110.601 Y115.719 E0.06674 F1800
G1 X110.201 Y115.746 E0.06674 F1800
G1 X109.799 Y115.746 E0.06674 F1800
G1 X109.399 Y115.719 E0.06674 F1800
G1 X109.002 Y115.663 E0.06674 F1800
G1 X108.609 Y115.579 E0.06674 F1800
G1 X108.223 Y115.469 E0.06674 F1800
G1 X107.846 Y115.331 E0.06674 F1800
G1 X107.479 Y115.168 E0.06674 F1800
G1 X107.125 Y114.980 E0.06674 F1800
G1 X106.785 Y114.767 E0.06674 F1800
G1 X106.460 Y114.531 E0.06674 F1800
G1 X106.152 Y114.273 E0.06674 F1800
G1 X105.864 Y113.994 E0.06674 F1800
G1 X105.595 Y113.696 E0.06674 F1800
G1 X105.348 Y113.380 E0.06674 F1800
G1 X105.124 Y113.047 E0.06674 F1800
G1 X104.923 Y112.699 E0.06674 F1800
G1 X104.747 Y112.339 E0.06674 F1800
G1 X104.597 Y111.967 E0.06674 F1800
G1 X104.473 Y111.585 E0.06674 F1800
G1 X104.376 Y111.195 E0.06674 F1800
G1 X104.306 Y110.800 E0.06674 F1800
G1 X104.264 Y110.401 E0.06674 F1800
G1 X104.250 Y110.000 E0.06674 F1800
G1 X104.264 Y109.599 E0.06674 F1800
G1 X104.306 Y109.200 E0.06674 F1800
G1 X104.376 Y108.805 E0.06674 F1800
G1 X104.473 Y108.415 E0.06674 F1800
G1 X104.597 Y108.033 E0.06674 F1800
G1 X104.747 Y107.661 E0.06674 F1800
G1 X104.923 Y107.301 E0.06674 F1800
G1 X105.124 Y106.953 E0.06674 F1800
G1 X105.348 Y106.620 E0.06674 F1800
G1 X105.595 Y106.304 E0.06674 F1800
G1 X105.864 Y106.006 E0.06674 F1800
G1 X106.152 Y105.727 E0.06674 F1800
G1 X106.460 Y105.469 E0.06674 F1800
G1 X106.785 Y105.233 E0.06674 F1800
G1 X107.125 Y105.020 E0.06674 F1800
G1 X107.479 Y104.832 E0.06674 F1800
G1 X107.846 Y104.669 E0.06674 F1800
G1 X108.223 Y104.531 E0.06674 F1800
G1 X108.609 Y104.421 E0.06674 F1800
G1 X109.002 Y104.337 E0.06674 F1800
G1 X109.399 Y104.281 E0.06674 F1800
G1 X109.799 Y104.254 E0.06674 F1800
G1 X110.201 Y104.254 E0.06674 F1800
G1 X110.601 Y104.281 E0.06674 F1800
G1 X110.998 Y104.337 E0.06674 F1800
G1 X111.391 Y104.421 E0.06674 F1800
G1 X111.777 Y104.531 E0.06674 F1800
G1 X112.154 Y104.669 E0.06674 F1800
G1 X112.521 Y104.832 E0.06674 F1800
G1 X112.875 Y105.020 E0.06674 F1800
G1 X113.215 Y105.233 E0.06674 F1800
G1 X113.540 Y105.469 E0.06674 F1800
G1 X113.848 Y105.727 E0.06674 F1800
G1 X114.136 Y106.006 E0.06674 F1800
G1 X114.405 Y106.304 E0.06674 F1800
G1 X114.652 Y106.620 E0.06674 F1800
G1 X114.876 Y106.953 E0.06674 F1800
G1 X115.077 Y107.301 E0.06674 F1800
G1 X115.253 Y107.661 E0.06674 F1800
G1 X115.403 Y108.033 E0.06674 F1800
G1 X115.527 Y108.415 E0.06674 F1800
G1 X115.624 Y108.805 E0.06674 F1800
G1 X115.694 Y109.200 E0.06674 F1800
G1 X115.736 Y109.599 E0.06674 F1800
G1 X115.750 Y110.000 E0.06674 F1800
G0 X116.750 Y110.000 F9000
G1 X116.734 Y110.471 E0.07835 F1800
G1 X116.684 Y110.939 E0.07835 F1800
G1 X116.602 Y111.403 E0.07835 F1800
G1 X116.489 Y111.861 E0.07835 F1800
G1 X116.343 Y112.309 E0.07835 F1800
G1 X116.166 Y112.745 E0.07835 F1800
G1 X115.960 Y113.169 E0.07835 F1800
G1 X115.724 Y113.577 E0.07835 F1800
G1 X115.461 Y113.968 E0.07835 F1800
G1 X115.171 Y114.339 E0.07835 F1800
G1 X114.856 Y114.689 E0.07835 F1800
G1 X114.517 Y115.016 E0.07835 F1800
G1 X114.156 Y115.319 E0.07835 F1800
G1 X113.775 Y115.596 E0.07835 F1800
G1 X113.375 Y115.846 E0.07835 F1800
G1 X112.959 Y116.067 E0.07835 F1800
G1 X112.529 Y116.258 E0.07835 F1800
G1 X112.086 Y116.420 E0.07835 F1800
G1 X111.633 Y116.549 E0.07835 F1800
G1 X111.172 Y116.647 E0.07835 F1800
G1 X110.706 Y116.713 E0.07835 F1800
G1 X110.236 Y116.746 E0.07835 F1800
G1 X109.764 Y116.746 E0.07835 F1800
G1 X109.294 Y116.713 E0.07835 F1800
G1 X108.828 Y116.647 E0.07835 F1800
G1 X108.367 Y116.549 E0.07835 F1800
G1 X107.914 Y116.420 E0.07835 F1800
G1 X107.471 Y116.258 E0.07835 F1800
G1 X107.041 Y116.067 E0.07835 F1800
G1 X106.625 Y115.846 E0.07835 F1800
G1 X106.225 Y115.596 E0.07835 F1800
G1 X105.844 Y115.319 E0.07835 F1800
G1 X105.483 Y115.016 E0.07835 F1800
G1 X105.144 Y114.689 E0.07835 F1800
G1 X104.829 Y114.339 E0.07835 F1800
G1 X104.539 Y113.968 E0.07835 F1800
G1 X104.276 Y113.577 E0.07835 F1800
G1 X104.040 Y113.169 E0.07835 F1800
G1 X103.834 Y112.745 E0.07835 F1800
G1 X103.657 Y112.309 E0.07835 F1800
G1 X103.511 Y111.861 E0.07835 F1800
G1 X103.398 Y111.403 E0.07835 F1800
G1 X103.316 Y110.939 E0.07835 F1800
G1 X103.266 Y110.471 E0.07835 F1800
G1 X103.250 Y110.000 E0.07835 F1800
G1 X103.266 Y109.529 E0.07835 F1800
G1 X103.316 Y109.061 E0.07835 F1800
G1 X103.398 Y108.597 E0.07835 F1800
G1 X103.511 Y108.139 E0.07835 F1800
G1 X103.657 Y107.691 E0.07835 F1800
G1 X103.834 Y107.255 E0.07835 F1800
G1 X104.040 Y106.831 E0.07835 F1800
G1 X104.276 Y106.423 E0.07835 F1800
G1 X104.539 Y106.032 E0.07835 F1800
G1 X104.829 Y105.661 E0.07835 F1800
G1 X105.144 Y105.311 E0.07835 F1800
G1 X105.483 Y104.984 E0.07835 F1800
G1 X105.844 Y104.681 E0.07835 F1800
G1 X106.225 Y104.404 E0.07835 F1800
G1 X106.625 Y104.154 E0.07835 F1800
G1 X107.041 Y103.933 E0.07835 F1800
G1 X107.471 Y103.742 E0.07835 F1800
G1 X107.914 Y103.580 E0.07835 F1800
G1 X108.367 Y103.451 E0.07835 F1800
G1 X108.828 Y103.353 E0.07835 F1800
G1 X109.294 Y103.287 E0.07835 F1800
G1 X109.764 Y103.254 E0.07835 F1800
G1 X110.236 Y103.254 E0.07835 F1800
G1 X110.706 Y103.287 E0.07835 F1800
